<?xml version="1.0" ?>
<map height="80" orientation="orthogonal" renderorder="right-down" tileheight="8" tilewidth="8" width="2">
	<!--Add tilesets as much as needed-->
	<tileset firstgid="1" tileheight="8" tilewidth="8">
		<image source="../../../gfx/tilesets/image_16_4c50.png"/>
	</tileset>
	<layer height="80" id="1" name="metatiles" width="2">
		<data encoding="csv">
2, 4,
3, 5,
6, 8,
7, 9,
10, 12,
11, 13,
14, 16,
15, 17,
18, 20,
19, 21,
22, 24,
23, 25,
26, 28,
27, 29,
30, 31,
7, 32,
33, 35,
34, 36,
37, 38,
7, 39,
40, 42,
41, 43,
30, 38,
44, 45,
30, 47,
46, 48,
49, 51,
50, 52,
30, 39,
37, 53,
55, 57,
56, 58,
59, 61,
60, 62,
63, 65,
64, 66,
67, 69,
68, 70,
71, 71,
71, 71,
72, 74,
73, 75,
76, 78,
77, 79,
80, 82,
81, 83,
84, 86,
85, 87,
88, 90,
89, 91,
92, 94,
93, 95,
96, 98,
97, 99,
100, 102,
101, 103,
104, 106,
105, 107,
108, 110,
109, 111,
112, 114,
113, 115,
116, 118,
117, 119,
120, 121,
119, 119,
122, 123,
119, 124,
125, 127,
126, 128,
129, 131,
130, 132,
133, 135,
134, 136,
137, 139,
138, 140,
141, 133,
142, 134,
143, 145,
144, 146</data>
	</layer>
</map>
