<?xml version="1.0" ?>
<map height="110" orientation="orthogonal" renderorder="right-down" tileheight="8" tilewidth="8" width="2">
	<!--Add tilesets as much as needed-->
	<tileset firstgid="1" tileheight="8" tilewidth="8">
		<image source="../../../gfx/tilesets/image_16_4c50.png"/>
	</tileset>
	<layer height="110" id="1" name="metatiles" width="2">
		<data encoding="csv">
2, 4,
3, 5,
6, 8,
7, 9,
10, 12,
11, 13,
14, 16,
15, 17,
18, 20,
19, 21,
22, 24,
23, 25,
26, 28,
27, 29,
30, 31,
7, 32,
33, 35,
34, 36,
37, 38,
7, 39,
40, 42,
41, 43,
30, 38,
44, 45,
30, 47,
46, 48,
49, 51,
50, 52,
30, 39,
37, 53,
55, 57,
56, 58,
59, 61,
60, 62,
63, 65,
64, 66,
67, 69,
68, 70,
71, 73,
72, 74,
76, 78,
77, 79,
80, 82,
81, 83,
80, 82,
83, 83,
80, 82,
83, 84,
80, 82,
85, 85,
80, 82,
86, 83,
80, 82,
83, 87,
88, 90,
89, 80,
91, 90,
82, 80,
91, 92,
82, 88,
83, 83,
93, 93,
94, 90,
88, 80,
91, 88,
82, 89,
95, 83,
85, 85,
83, 83,
85, 85,
96, 89,
97, 95,
98, 98,
99, 99,
98, 98,
100, 101,
89, 102,
95, 103,
83, 95,
85, 85,
85, 85,
85, 85,
104, 105,
85, 106,
107, 109,
108, 110,
109, 111,
110, 112,
113, 115,
114, 85,
83, 83,
63, 65,
83, 95,
63, 65,
95, 83,
63, 65,
64, 66,
63, 65,
64, 66,
37, 38,
95, 83,
37, 38,
83, 83,
7, 32,
83, 83,
23, 25,
83, 95,
30, 39,
64, 66,
7, 9</data>
	</layer>
</map>
