<?xml version="1.0" ?>
<map height="106" orientation="orthogonal" renderorder="right-down" tileheight="8" tilewidth="8" width="2">
	<!--Add tilesets as much as needed-->
	<tileset firstgid="1" tileheight="8" tilewidth="8">
		<image source="../../../gfx/tilesets/gfx_019_5b50.2bpp"/>
	</tileset>
	<layer height="106" id="1" name="metatiles" width="2">
		<data encoding="csv">
2, 4,
3, 5,
6, 8,
7, 9,
10, 12,
11, 13,
14, 16,
15, 17,
18, 20,
19, 21,
22, 22,
22, 22,
23, 23,
24, 24,
25, 27,
26, 28,
29, 31,
30, 32,
33, 35,
34, 36,
37, 39,
38, 32,
40, 35,
41, 42,
43, 45,
44, 46,
47, 49,
48, 50,
43, 51,
44, 32,
52, 45,
38, 46,
53, 55,
54, 56,
35, 58,
57, 59,
23, 51,
24, 32,
60, 62,
61, 63,
64, 66,
65, 67,
52, 51,
38, 32,
68, 70,
69, 71,
72, 74,
73, 75,
52, 23,
38, 24,
76, 78,
77, 79,
80, 82,
81, 83,
84, 86,
85, 87,
88, 90,
89, 91,
92, 94,
93, 95,
96, 98,
97, 99,
100, 102,
101, 103,
104, 106,
105, 107,
108, 110,
109, 111,
112, 114,
113, 115,
116, 118,
117, 119,
88, 94,
93, 120,
121, 123,
122, 124,
125, 127,
126, 128,
129, 131,
130, 132,
133, 134,
132, 135,
136, 138,
137, 139,
140, 142,
141, 143,
145, 147,
146, 148,
149, 151,
150, 152,
116, 104,
117, 105,
68, 70,
76, 78,
77, 79,
77, 79,
6, 8,
7, 9,
6, 8,
7, 9,
6, 8,
7, 9,
6, 8,
7, 9,
6, 8,
7, 9</data>
	</layer>
</map>
