<?xml version="1.0" ?>
<map height="50" orientation="orthogonal" renderorder="right-down" tileheight="8" tilewidth="8" width="2">
	<!--Add tilesets as much as needed-->
	<tileset firstgid="1" tileheight="8" tilewidth="8">
		<image source="../../../gfx/tilesets/image_16_6260.png"/>
	</tileset>
	<layer height="50" id="1" name="metatiles" width="2">
		<data encoding="csv">
2, 2,
3, 3,
2, 4,
3, 5,
6, 8,
7, 9,
10, 3,
10, 3,
3, 5,
11, 12,
8, 14,
13, 15,
3, 5,
3, 5,
3, 3,
11, 11,
16, 18,
17, 19,
20, 20,
21, 21,
20, 22,
21, 23,
24, 26,
25, 27,
28, 28,
28, 28,
29, 31,
30, 32,
33, 35,
34, 36,
37, 28,
37, 28,
37, 28,
38, 28,
39, 40,
28, 28,
3, 3,
3, 3,
20, 20,
6, 8,
20, 20,
8, 14,
7, 9,
28, 28,
13, 15,
28, 28,
38, 28,
28, 28,
28, 28,
37, 28</data>
	</layer>
</map>
