<?xml version="1.0" ?>
<map height="108" orientation="orthogonal" renderorder="right-down" tileheight="8" tilewidth="8" width="2">
	<!--Add tilesets as much as needed-->
	<tileset firstgid="1" tileheight="8" tilewidth="8">
		<image source="../../../gfx/tilesets/gfx_056_5e40.2bpp"/>
	</tileset>
	<layer height="108" id="1" name="metatiles" width="2">
		<data encoding="csv">
2, 2,
2, 2,
3, 5,
4, 6,
7, 9,
8, 10,
3, 12,
11, 13,
7, 9,
14, 15,
16, 18,
17, 18,
19, 21,
20, 22,
23, 25,
24, 26,
27, 29,
28, 30,
2, 32,
31, 2,
18, 18,
18, 18,
33, 35,
34, 36,
37, 39,
38, 34,
40, 3,
41, 42,
43, 45,
44, 36,
46, 18,
47, 18,
48, 49,
2, 50,
51, 53,
52, 54,
55, 57,
56, 58,
59, 2,
60, 2,
18, 18,
61, 62,
61, 62,
61, 62,
18, 61,
18, 61,
62, 18,
62, 18,
18, 18,
63, 64,
2, 65,
2, 66,
67, 69,
68, 70,
71, 73,
72, 74,
75, 2,
76, 2,
61, 62,
77, 78,
77, 78,
79, 79,
80, 77,
81, 82,
78, 80,
83, 84,
77, 78,
85, 86,
87, 79,
88, 89,
2, 91,
90, 92,
93, 95,
94, 94,
96, 97,
94, 98,
99, 101,
100, 102,
103, 79,
104, 89,
89, 89,
89, 89,
105, 107,
106, 108,
109, 111,
110, 112,
113, 115,
114, 116,
117, 118,
103, 103,
118, 118,
103, 117,
118, 118,
118, 118,
119, 120,
89, 121,
119, 119,
122, 123,
120, 119,
124, 125,
119, 119,
126, 127,
119, 128,
121, 89,
129, 103,
89, 89,
103, 117,
89, 103</data>
	</layer>
</map>
