<?xml version="1.0" ?>
<map height="40" orientation="orthogonal" renderorder="right-down" tileheight="8" tilewidth="8" width="2">
	<!--Add tilesets as much as needed-->
	<tileset firstgid="1" tilewidth="8" tileheight="8">
		<image source="../../../gfx/tilesets/image_16_4c50.png"/>
	</tileset>
	<tileset firstgid="55" tilewidth="8" tileheight="8">
		<image source="../../../gfx/tilesets/gfx_017_66ce.png"/>
	</tileset>
	<layer height="40" id="1" name="metatiles" width="2">
		<data encoding="csv">
2, 4,
3, 5,
6, 8,
7, 9,
10, 12,
11, 13,
14, 16,
15, 17,
18, 20,
19, 21,
22, 24,
23, 25,
26, 28,
27, 29,
30, 31,
7, 32,
33, 35,
34, 36,
37, 38,
7, 39,
40, 42,
41, 43,
30, 38,
44, 45,
30, 47,
46, 48,
49, 51,
50, 52,
30, 39,
37, 53,
55, 57,
56, 58,
59, 61,
60, 62,
63, 65,
64, 66,
67, 69,
68, 70,
71, 73,
72, 74</data>
	</layer>
</map>
