<?xml version="1.0" ?>
<map height="102" orientation="orthogonal" renderorder="right-down" tileheight="8" tilewidth="8" width="2">
	<!--Add tilesets as much as needed-->
	<tileset firstgid="1" tilewidth="8" tileheight="8">
		<image source="../../../gfx/tilesets/gfx_051_4000.png"/>
	</tileset>
	<tileset firstgid="129" tilewidth="8" tileheight="8">
		<image source="../../../gfx/tilesets/gfx_051_4800.png"/>
	</tileset>
	<layer height="102" id="1" name="metatiles" width="2">
		<data encoding="csv">
2, 4,
3, 5,
6, 8,
7, 9,
10, 12,
11, 13,
14, 16,
15, 17,
18, 20,
19, 13,
21, 22,
15, 23,
24, 26,
25, 27,
28, 30,
29, 31,
32, 34,
33, 35,
36, 38,
37, 39,
40, 42,
41, 43,
44, 46,
45, 47,
48, 50,
49, 51,
52, 54,
53, 55,
56, 58,
57, 59,
60, 62,
61, 63,
64, 66,
65, 67,
68, 70,
69, 71,
72, 74,
73, 75,
76, 78,
77, 79,
80, 82,
81, 83,
84, 86,
85, 87,
88, 90,
89, 91,
92, 94,
93, 95,
96, 98,
97, 99,
100, 102,
101, 103,
104, 105,
101, 106,
107, 109,
108, 110,
111, 113,
112, 114,
115, 117,
116, 118,
111, 113,
119, 114,
111, 113,
112, 120,
121, 123,
122, 124,
125, 127,
126, 128,
129, 131,
130, 132,
133, 135,
134, 136,
60, 137,
108, 138,
107, 139,
108, 140,
141, 142,
112, 143,
60, 70,
61, 71,
68, 70,
116, 144,
145, 147,
146, 148,
149, 151,
150, 152,
153, 155,
154, 156,
102, 102,
103, 103,
6, 8,
7, 9,
6, 8,
7, 9,
6, 8,
7, 9,
6, 8,
7, 9,
6, 8,
7, 9,
6, 8,
7, 9</data>
	</layer>
</map>
