<?xml version="1.0" ?>
<map height="72" orientation="orthogonal" renderorder="right-down" tileheight="8" tilewidth="8" width="2">
	<!--Add tilesets as much as needed-->
	<tileset firstgid="1" tilewidth="8" tileheight="8">
		<image source="../../../gfx/tilesets/gfx_054_53a0.png"/>
	</tileset>
	<tileset firstgid="36" tilewidth="8" tileheight="8">
		<image source="../../../gfx/tilesets/gfx_054_55c0.png"/>
	</tileset>
	<layer height="72" id="1" name="metatiles" width="2">
		<data encoding="csv">
2, 4,
3, 5,
2, 4,
3, 6,
7, 9,
8, 10,
11, 13,
12, 14,
2, 4,
15, 5,
2, 16,
3, 6,
11, 9,
12, 10,
7, 13,
8, 14,
2, 4,
15, 6,
17, 4,
15, 6,
18, 20,
19, 21,
22, 22,
22, 22,
17, 4,
15, 5,
23, 25,
24, 26,
27, 29,
28, 30,
31, 33,
32, 34,
36, 38,
37, 39,
40, 40,
40, 41,
42, 44,
43, 45,
46, 46,
46, 46,
36, 40,
36, 38,
40, 40,
40, 40,
47, 44,
42, 44,
48, 39,
49, 50,
40, 41,
40, 40,
43, 52,
51, 53,
46, 46,
54, 55,
56, 58,
57, 59,
60, 62,
61, 63,
64, 66,
65, 67,
68, 69,
68, 70,
71, 73,
72, 74,
75, 77,
76, 78,
79, 81,
80, 82,
83, 85,
84, 46,
17, 16,
15, 6</data>
	</layer>
</map>
