<?xml version="1.0" ?>
<map height="128" orientation="orthogonal" renderorder="right-down" tileheight="8" tilewidth="8" width="2">
	<!--Add tilesets as much as needed-->
	<tileset firstgid="1" tilewidth="8" tileheight="8">
		<image source="../../../gfx/tilesets/gfx_065_4580.png"/>
	</tileset>
	<layer height="128" id="1" name="metatiles" width="2">
		<data encoding="csv">
2, 4,
3, 5,
6, 8,
7, 9,
10, 12,
11, 13,
14, 15,
11, 16,
17, 18,
17, 18,
19, 21,
20, 13,
14, 15,
22, 23,
24, 24,
25, 23,
19, 21,
23, 26,
17, 23,
17, 25,
27, 27,
27, 27,
23, 18,
25, 18,
24, 24,
16, 16,
17, 23,
17, 28,
29, 18,
27, 18,
10, 23,
11, 16,
23, 25,
16, 16,
23, 12,
20, 13,
10, 30,
11, 16,
31, 33,
32, 34,
35, 37,
36, 38,
39, 41,
40, 42,
27, 27,
27, 28,
27, 27,
43, 27,
19, 21,
43, 26,
29, 27,
27, 28,
44, 46,
45, 47,
48, 50,
49, 51,
27, 30,
27, 27,
29, 27,
27, 27,
24, 24,
25, 28,
29, 25,
16, 16,
23, 30,
16, 16,
52, 54,
53, 55,
56, 58,
57, 59,
56, 58,
60, 59,
61, 63,
62, 64,
65, 67,
66, 68,
69, 58,
70, 59,
69, 58,
60, 59,
71, 73,
72, 74,
29, 18,
25, 18,
24, 24,
43, 27,
61, 63,
60, 64,
27, 30,
43, 27,
14, 15,
22, 28,
29, 12,
20, 13,
27, 30,
27, 28,
24, 24,
43, 23,
69, 61,
60, 62,
63, 65,
64, 66,
67, 58,
68, 59,
29, 30,
27, 27,
27, 18,
43, 18,
27, 30,
16, 16,
24, 24,
27, 28,
24, 15,
25, 23,
6, 8,
7, 9,
6, 8,
7, 9,
6, 8,
7, 9,
6, 8,
7, 9,
6, 8,
7, 9,
6, 8,
7, 9,
6, 8,
7, 9</data>
	</layer>
</map>
