<?xml version="1.0" ?>
<map height="74" orientation="orthogonal" renderorder="right-down" tileheight="8" tilewidth="8" width="2">
	<!--Add tilesets as much as needed-->
	<tileset firstgid="1" tilewidth="8" tileheight="8">
		<image source="../../../gfx/tilesets/gfx_054_4830.png"/>
	</tileset>
	<layer height="74" id="1" name="metatiles" width="2">
		<data encoding="csv">
2, 4,
3, 5,
6, 8,
7, 9,
10, 12,
11, 13,
14, 16,
15, 17,
18, 20,
19, 21,
22, 24,
23, 25,
26, 28,
27, 29,
30, 32,
31, 33,
34, 36,
35, 37,
38, 40,
39, 41,
42, 44,
43, 45,
46, 48,
47, 49,
50, 52,
51, 53,
54, 56,
55, 57,
58, 60,
59, 61,
62, 64,
63, 65,
66, 68,
67, 69,
70, 72,
71, 73,
74, 76,
75, 77,
78, 80,
79, 81,
82, 84,
83, 85,
86, 88,
87, 89,
90, 92,
91, 93,
85, 85,
85, 85,
94, 96,
95, 97,
85, 99,
98, 100,
101, 103,
102, 104,
105, 106,
85, 107,
108, 110,
109, 111,
112, 85,
113, 114,
115, 117,
116, 118,
119, 121,
120, 118,
122, 124,
123, 125,
119, 124,
123, 125,
115, 117,
126, 118,
119, 117,
120, 118,
119, 117,
116, 118</data>
	</layer>
</map>
