<?xml version="1.0" ?>
<map height="164" orientation="orthogonal" renderorder="right-down" tileheight="8" tilewidth="8" width="2">
	<!--Add tilesets as much as needed-->
	<tileset firstgid="1" tileheight="8" tilewidth="8">
		<image source="../../../gfx/tilesets/image_16_5550.png"/>
	</tileset>
	<layer height="164" id="1" name="metatiles" width="2">
		<data encoding="csv">
2, 2,
2, 2,
3, 5,
4, 6,
7, 9,
8, 10,
11, 13,
12, 14,
15, 17,
16, 18,
19, 21,
20, 22,
2, 2,
23, 24,
25, 27,
26, 28,
29, 31,
30, 32,
33, 35,
34, 36,
37, 39,
38, 40,
41, 43,
42, 42,
44, 46,
45, 47,
48, 50,
49, 51,
44, 53,
52, 54,
53, 46,
55, 56,
42, 42,
42, 42,
57, 58,
42, 42,
59, 60,
42, 42,
61, 63,
62, 64,
65, 67,
66, 68,
19, 21,
20, 69,
70, 72,
71, 73,
74, 76,
75, 77,
78, 78,
78, 78,
79, 81,
80, 82,
81, 83,
82, 84,
85, 87,
86, 88,
89, 91,
90, 92,
93, 95,
94, 96,
97, 99,
98, 100,
101, 103,
102, 104,
105, 107,
106, 108,
109, 82,
110, 111,
82, 113,
112, 114,
115, 117,
116, 118,
119, 121,
120, 122,
123, 125,
124, 126,
127, 129,
128, 130,
129, 129,
130, 130,
129, 132,
131, 133,
134, 134,
134, 134,
136, 138,
137, 139,
140, 142,
141, 143,
144, 146,
145, 147,
134, 134,
2, 2,
134, 134,
29, 31,
134, 134,
19, 21,
2, 2,
65, 67,
2, 2,
44, 53,
30, 32,
53, 46,
2, 2,
97, 99,
2, 2,
101, 103,
20, 69,
93, 95,
66, 68,
89, 91,
52, 54,
137, 139,
55, 56,
137, 139,
98, 100,
137, 139,
102, 104,
137, 139,
94, 96,
137, 139,
90, 92,
137, 139,
20, 22,
48, 50,
30, 32,
2, 2,
30, 32,
44, 46,
49, 51,
137, 139,
45, 47,
137, 139,
2, 2,
44, 46,
90, 92,
137, 137,
134, 134,
7, 9,
2, 2,
144, 146,
8, 10,
2, 2,
145, 147,
137, 139,
79, 83,
80, 84,
80, 84,
80, 84,
79, 81,
110, 111,
81, 83,
112, 114,
109, 113,
110, 114,
30, 32,
44, 53,
2, 2,
53, 46,
136, 138,
140, 142,
141, 143,
140, 142,
141, 143,
137, 139</data>
	</layer>
</map>
