<?xml version="1.0" ?>
<map height="96" orientation="orthogonal" renderorder="right-down" tileheight="8" tilewidth="8" width="2">
	<!--Add tilesets as much as needed-->
	<tileset firstgid="1" tileheight="8" tilewidth="8">
		<image source="../../../gfx/tilesets/gfx_017_612e.2bpp"/>
	</tileset>
	<layer height="96" id="1" name="metatiles" width="2">
		<data encoding="csv">
2, 4,
3, 5,
6, 8,
7, 9,
10, 12,
11, 13,
14, 16,
15, 17,
18, 20,
19, 21,
22, 24,
23, 25,
26, 27,
25, 25,
28, 29,
25, 30,
26, 27,
31, 32,
22, 24,
33, 34,
35, 25,
36, 25,
25, 37,
25, 38,
25, 25,
31, 32,
39, 41,
40, 42,
43, 25,
33, 34,
25, 45,
44, 46,
47, 49,
48, 50,
51, 49,
52, 53,
51, 55,
54, 56,
57, 59,
58, 60,
57, 59,
61, 60,
62, 64,
63, 65,
66, 59,
58, 60,
67, 59,
68, 60,
69, 71,
70, 72,
73, 75,
74, 76,
77, 78,
61, 60,
79, 81,
80, 82,
83, 85,
84, 86,
87, 89,
88, 90,
25, 25,
25, 25,
6, 8,
7, 9,
6, 8,
7, 9,
6, 8,
7, 9,
6, 8,
7, 9,
6, 8,
7, 9,
6, 8,
7, 9,
6, 8,
7, 9,
14, 16,
15, 17,
10, 12,
11, 13,
14, 16,
15, 17,
10, 12,
11, 13,
14, 16,
15, 17,
10, 12,
11, 13,
14, 16,
15, 17,
10, 12,
11, 13,
14, 16,
15, 17,
10, 12,
11, 13</data>
	</layer>
</map>
