<?xml version="1.0" ?>
<map height="134" orientation="orthogonal" renderorder="right-down" tileheight="8" tilewidth="8" width="2">
	<!--Add tilesets as much as needed-->
	<tileset firstgid="1" tileheight="8" tilewidth="8">
		<image source="../../../gfx/tilesets/gfx_056_4000.2bpp"/>
	</tileset>
	<layer height="134" id="1" name="metatiles" width="2">
		<data encoding="csv">
2, 4,
3, 5,
6, 8,
7, 5,
9, 10,
7, 11,
12, 14,
13, 15,
16, 18,
17, 19,
20, 22,
21, 23,
24, 26,
25, 5,
27, 26,
7, 5,
27, 28,
7, 29,
30, 32,
31, 33,
34, 36,
35, 37,
38, 40,
39, 41,
42, 26,
43, 44,
27, 26,
45, 46,
27, 48,
47, 49,
50, 52,
51, 53,
54, 56,
55, 57,
58, 60,
59, 61,
62, 64,
63, 65,
62, 64,
65, 65,
62, 64,
65, 66,
67, 69,
68, 70,
71, 73,
72, 74,
75, 76,
59, 61,
62, 65,
63, 65,
65, 65,
77, 77,
65, 64,
65, 66,
78, 79,
35, 53,
80, 52,
35, 53,
81, 83,
82, 84,
62, 65,
63, 66,
65, 65,
63, 66,
65, 64,
63, 66,
62, 64,
63, 66,
86, 88,
87, 89,
90, 92,
91, 93,
94, 96,
95, 97,
98, 100,
99, 101,
102, 104,
103, 105,
86, 88,
106, 107,
108, 110,
109, 111,
112, 114,
113, 115,
116, 118,
117, 119,
120, 122,
121, 123,
86, 88,
124, 125,
126, 128,
127, 129,
130, 132,
131, 133,
134, 136,
135, 137,
138, 140,
139, 141,
142, 144,
143, 145,
146, 148,
147, 149,
65, 65,
75, 76,
62, 64,
106, 107,
62, 64,
124, 125,
65, 64,
65, 10,
65, 11,
65, 27,
2, 4,
26, 5,
65, 7,
65, 48,
5, 26,
25, 5,
65, 65,
65, 27,
65, 65,
48, 66,
65, 49,
63, 66,
58, 60,
65, 65,
65, 47,
65, 66,
49, 64,
63, 66,
65, 65,
65, 48,
81, 83,
65, 65</data>
	</layer>
</map>
