<?xml version="1.0" ?>
<map height="178" orientation="orthogonal" renderorder="right-down" tileheight="8" tilewidth="8" width="2">
	<!--Add tilesets as much as needed-->
	<tileset firstgid="1" tileheight="8" tilewidth="8">
		<image source="../../../gfx/tilesets/gfx_051_5a90.2bpp"/>
	</tileset>
	<layer height="178" id="1" name="metatiles" width="2">
		<data encoding="csv">
2, 4,
3, 5,
6, 8,
7, 9,
10, 12,
11, 13,
14, 12,
15, 13,
16, 12,
17, 13,
18, 20,
19, 21,
20, 20,
21, 21,
20, 22,
21, 23,
21, 21,
21, 24,
21, 21,
25, 21,
19, 21,
19, 21,
21, 21,
21, 21,
21, 23,
21, 23,
21, 26,
21, 21,
27, 21,
21, 21,
19, 21,
28, 29,
21, 21,
29, 29,
21, 23,
29, 30,
31, 33,
32, 34,
35, 36,
32, 34,
37, 39,
38, 40,
41, 43,
42, 44,
45, 46,
32, 47,
48, 50,
49, 34,
45, 50,
32, 34,
51, 53,
52, 54,
55, 57,
56, 58,
16, 12,
11, 13,
21, 26,
25, 21,
59, 61,
60, 62,
18, 20,
28, 29,
20, 20,
29, 29,
27, 21,
25, 21,
27, 21,
21, 24,
64, 66,
65, 67,
66, 69,
68, 70,
71, 73,
72, 74,
75, 77,
76, 78,
79, 81,
80, 82,
83, 85,
84, 86,
87, 88,
87, 88,
84, 86,
87, 88,
89, 91,
90, 92,
93, 95,
94, 96,
97, 99,
98, 100,
101, 103,
102, 104,
105, 107,
106, 108,
109, 111,
110, 112,
113, 115,
114, 116,
117, 119,
118, 120,
121, 123,
122, 124,
119, 125,
120, 126,
127, 129,
128, 130,
131, 133,
132, 134,
117, 119,
135, 120,
125, 117,
136, 135,
119, 125,
120, 136,
137, 139,
138, 140,
141, 143,
142, 144,
45, 50,
75, 77,
76, 78,
87, 88,
16, 16,
17, 17,
21, 21,
21, 145,
45, 50,
71, 73,
72, 74,
84, 86,
10, 12,
10, 12,
11, 13,
10, 12,
16, 12,
16, 12,
35, 36,
75, 77,
48, 45,
49, 32,
50, 50,
34, 34,
6, 8,
7, 9,
6, 8,
7, 9,
6, 8,
7, 9,
6, 8,
7, 9,
6, 8,
7, 9,
6, 8,
7, 9,
6, 8,
7, 9,
6, 8,
7, 9,
6, 8,
7, 9,
6, 8,
7, 9,
6, 8,
7, 9,
6, 8,
7, 9,
6, 8,
7, 9,
6, 8,
7, 9,
6, 8,
7, 9,
6, 8,
7, 9,
6, 8,
7, 9,
6, 8,
7, 9</data>
	</layer>
</map>
