<?xml version="1.0" ?>
<map height="112" orientation="orthogonal" renderorder="right-down" tileheight="8" tilewidth="8" width="2">
	<!--Add tilesets as much as needed-->
	<tileset firstgid="1" tilewidth="8" tileheight="8">
		<image source="../../../gfx/tilesets/gfx_054_6dc0.png"/>
	</tileset>
	<layer height="112" id="1" name="metatiles" width="2">
		<data encoding="csv">
2, 4,
3, 4,
2, 4,
2, 4,
4, 4,
4, 4,
4, 5,
5, 4,
6, 8,
7, 9,
10, 12,
11, 13,
14, 16,
15, 17,
18, 20,
19, 21,
22, 24,
23, 25,
26, 28,
27, 29,
28, 30,
29, 31,
32, 34,
33, 35,
36, 36,
36, 36,
36, 37,
36, 38,
39, 36,
40, 36,
41, 41,
41, 41,
42, 44,
43, 45,
46, 48,
47, 49,
50, 51,
4, 4,
52, 53,
4, 4,
54, 29,
55, 56,
29, 57,
56, 58,
59, 61,
60, 62,
63, 65,
64, 41,
65, 66,
41, 67,
64, 41,
64, 41,
41, 67,
41, 67,
64, 67,
64, 67,
68, 62,
69, 68,
70, 72,
71, 73,
74, 76,
75, 77,
62, 62,
62, 62,
64, 67,
78, 79,
64, 41,
78, 80,
41, 67,
80, 79,
65, 65,
41, 41,
41, 41,
80, 80,
65, 65,
80, 80,
81, 83,
82, 84,
85, 87,
86, 88,
89, 91,
90, 92,
52, 53,
2, 4,
4, 4,
3, 4,
65, 66,
80, 79,
4, 5,
3, 4,
36, 36,
85, 87,
36, 36,
89, 91,
3, 5,
5, 4,
86, 88,
4, 4,
90, 92,
4, 5,
5, 4,
4, 4,
63, 65,
78, 80,
52, 53,
5, 4,
3, 4,
4, 4,
39, 37,
40, 38,
63, 66,
64, 67</data>
	</layer>
</map>
