<?xml version="1.0" ?>
<map height="152" orientation="orthogonal" renderorder="right-down" tileheight="8" tilewidth="8" width="2">
	<!--Add tilesets as much as needed-->
	<tileset firstgid="1" tilewidth="8" tileheight="8">
		<image source="../../../gfx/tilesets/image_17_5c1e.png"/>
	</tileset>
	<tileset firstgid="83" tilewidth="8" tileheight="8">
		<image source="../../../gfx/tilesets/gfx_054_7880.png"/>
	</tileset>
	<tileset firstgid="112" tilewidth="8" tileheight="8">
		<image source="../../../gfx/tilesets/gfx_054_7a40.png"/>
	</tileset>
	<tileset firstgid="129" tilewidth="8" tileheight="8">
		<image source="../../../gfx/tilesets/gfx_054_7b50.png"/>
	</tileset>
	<layer height="152" id="1" name="metatiles" width="2">
		<data encoding="csv">
2, 4,
3, 5,
6, 8,
7, 9,
10, 12,
11, 13,
12, 12,
13, 13,
12, 14,
13, 15,
13, 13,
13, 16,
13, 13,
17, 13,
10, 12,
18, 19,
12, 12,
20, 19,
12, 14,
17, 15,
12, 12,
17, 13,
11, 13,
11, 13,
13, 15,
13, 15,
13, 21,
13, 13,
22, 13,
13, 13,
11, 15,
11, 15,
11, 21,
11, 13,
13, 15,
17, 15,
11, 13,
18, 19,
13, 13,
20, 19,
13, 15,
20, 23,
24, 26,
25, 26,
24, 26,
24, 26,
24, 27,
24, 27,
28, 26,
28, 26,
29, 27,
29, 27,
28, 26,
24, 26,
30, 32,
31, 33,
34, 36,
35, 37,
38, 40,
39, 41,
42, 44,
43, 45,
46, 48,
47, 49,
50, 52,
51, 53,
54, 56,
55, 57,
58, 60,
59, 61,
42, 44,
62, 63,
30, 32,
64, 65,
66, 68,
67, 69,
70, 72,
71, 73,
74, 76,
75, 77,
78, 80,
79, 81,
13, 13,
13, 13,
83, 85,
84, 86,
87, 89,
88, 90,
91, 93,
92, 94,
95, 97,
96, 98,
99, 101,
100, 102,
103, 105,
104, 106,
107, 109,
108, 110,
112, 114,
113, 115,
116, 118,
117, 119,
120, 122,
121, 123,
124, 120,
125, 126,
127, 128,
120, 120,
129, 130,
120, 120,
131, 133,
132, 134,
135, 137,
136, 138,
12, 12,
13, 16,
11, 21,
18, 19,
12, 14,
20, 23,
10, 14,
11, 15,
22, 21,
13, 13,
22, 13,
13, 16,
22, 13,
20, 19,
13, 21,
20, 19,
54, 56,
120, 57,
25, 26,
28, 26,
38, 122,
121, 123,
124, 44,
125, 126,
13, 21,
17, 13,
6, 8,
7, 9,
6, 8,
7, 9,
6, 8,
7, 9,
6, 8,
7, 9,
6, 8,
7, 9,
6, 8,
7, 9</data>
	</layer>
</map>
