<?xml version="1.0" ?>
<map height="54" orientation="orthogonal" renderorder="right-down" tileheight="8" tilewidth="8" width="2">
	<!--Add tilesets as much as needed-->
	<tileset firstgid="1" tileheight="8" tilewidth="8">
		<image source="../../../gfx/tilesets/image_16_6cf0.png"/>
	</tileset>
	<layer height="54" id="1" name="metatiles" width="2">
		<data encoding="csv">
2, 4,
3, 5,
4, 6,
5, 7,
3, 5,
8, 8,
5, 7,
8, 8,
9, 9,
10, 11,
12, 13,
11, 14,
15, 17,
16, 18,
19, 21,
20, 22,
23, 25,
24, 26,
23, 25,
27, 28,
29, 31,
30, 32,
33, 35,
34, 36,
37, 37,
37, 37,
38, 40,
39, 41,
42, 44,
43, 45,
46, 48,
47, 49,
50, 52,
51, 53,
54, 56,
55, 57,
24, 26,
58, 59,
60, 62,
61, 63,
64, 64,
64, 64,
65, 65,
65, 65,
37, 37,
46, 48,
37, 37,
4, 6,
47, 49,
4, 6,
3, 5,
4, 6,
5, 7,
2, 4</data>
	</layer>
</map>
