<?xml version="1.0" ?>
<map height="124" orientation="orthogonal" renderorder="right-down" tileheight="8" tilewidth="8" width="2">
	<!--Add tilesets as much as needed-->
	<tileset firstgid="1" tileheight="8" tilewidth="8">
		<image source="../../../gfx/tilesets/gfx_017_6e2e.2bpp"/>
	</tileset>
	<layer height="124" id="1" name="metatiles" width="2">
		<data encoding="csv">
2, 4,
3, 3,
5, 6,
3, 3,
7, 3,
3, 8,
9, 11,
10, 12,
13, 15,
14, 16,
3, 3,
3, 3,
3, 18,
17, 19,
20, 22,
21, 23,
3, 25,
24, 26,
27, 29,
28, 30,
31, 33,
32, 34,
35, 3,
36, 7,
3, 3,
3, 37,
3, 3,
22, 3,
3, 38,
3, 39,
40, 42,
41, 43,
44, 3,
45, 46,
3, 3,
47, 48,
49, 51,
50, 52,
53, 22,
54, 55,
3, 3,
3, 48,
3, 18,
56, 19,
57, 59,
58, 60,
61, 63,
62, 64,
65, 66,
43, 67,
68, 70,
69, 71,
72, 74,
73, 3,
75, 3,
3, 3,
3, 3,
48, 56,
22, 3,
76, 77,
3, 78,
3, 3,
79, 80,
3, 81,
82, 84,
83, 85,
86, 87,
3, 3,
3, 3,
3, 6,
5, 3,
3, 3,
48, 56,
3, 3,
76, 77,
3, 3,
3, 3,
3, 4,
3, 3,
3, 8,
6, 3,
3, 3,
3, 5,
3, 3,
7, 3,
3, 3,
3, 4,
3, 3,
3, 3,
3, 22,
3, 48,
3, 3,
56, 76,
3, 3,
77, 3,
3, 3,
3, 3,
4, 3,
3, 6,
3, 3,
3, 3,
3, 5,
3, 3,
3, 17,
18, 20,
19, 21,
22, 3,
23, 3,
3, 3,
6, 3,
3, 3,
3, 7,
4, 3,
3, 3,
3, 2,
3, 3,
3, 6,
2, 3,
3, 22,
56, 76,
3, 3,
77, 17,
3, 3,
2, 3</data>
	</layer>
</map>
