<?xml version="1.0" ?>
<map height="124" orientation="orthogonal" renderorder="right-down" tileheight="8" tilewidth="8" width="2">
	<!--Add tilesets as much as needed-->
	<tileset firstgid="1" tileheight="8" tilewidth="8">
		<image source="../../../gfx/tilesets/gfx_054_5010.2bpp"/>
	</tileset>
	<layer height="124" id="1" name="metatiles" width="2">
		<data encoding="csv">
2, 4,
3, 5,
6, 8,
7, 9,
10, 12,
11, 13,
14, 12,
15, 13,
16, 12,
17, 13,
18, 20,
19, 21,
22, 20,
21, 21,
22, 23,
21, 24,
21, 21,
21, 25,
21, 21,
26, 21,
27, 21,
19, 21,
21, 21,
21, 21,
21, 28,
21, 24,
21, 29,
21, 21,
30, 21,
21, 21,
27, 21,
31, 32,
21, 21,
33, 32,
21, 28,
33, 34,
35, 37,
36, 38,
39, 41,
40, 42,
43, 45,
44, 46,
35, 48,
47, 49,
35, 50,
47, 51,
52, 48,
53, 49,
54, 56,
55, 57,
10, 12,
15, 13,
22, 20,
33, 32,
27, 28,
19, 24,
21, 21,
37, 32,
21, 21,
33, 37,
38, 54,
47, 55,
56, 48,
57, 49,
35, 38,
47, 49,
22, 20,
21, 25,
22, 20,
37, 32,
38, 48,
47, 49,
35, 54,
47, 55,
56, 38,
57, 49,
22, 20,
33, 37,
22, 20,
26, 21,
21, 24,
21, 28,
27, 21,
31, 37,
52, 38,
53, 49,
21, 29,
33, 32,
30, 21,
33, 32,
21, 28,
37, 34,
38, 50,
47, 51,
56, 54,
57, 55,
30, 21,
26, 21,
18, 20,
31, 32,
21, 29,
21, 25,
27, 21,
19, 25,
21, 29,
37, 32,
30, 28,
21, 24,
18, 20,
31, 37,
6, 8,
7, 9,
6, 8,
7, 9,
6, 8,
7, 9,
6, 8,
7, 9,
6, 8,
7, 9,
6, 8,
7, 9,
6, 8,
7, 9</data>
	</layer>
</map>
