<?xml version="1.0" ?>
<map height="66" orientation="orthogonal" renderorder="right-down" tileheight="8" tilewidth="8" width="2">
	<!--Add tilesets as much as needed-->
	<tileset firstgid="1" tileheight="8" tilewidth="8">
		<image source="../../../gfx/tilesets/gfx_054_53a0.2bpp"/>
	</tileset>
	<layer height="66" id="1" name="metatiles" width="2">
		<data encoding="csv">
2, 4,
3, 5,
2, 4,
3, 6,
7, 9,
8, 10,
11, 13,
12, 14,
2, 4,
15, 5,
2, 16,
3, 6,
11, 9,
12, 10,
7, 13,
8, 14,
2, 4,
15, 6,
17, 4,
15, 6,
18, 20,
19, 21,
22, 22,
22, 22,
17, 4,
15, 5,
23, 25,
24, 26,
27, 29,
28, 30,
31, 33,
32, 34,
36, 37,
37, 36,
38, 39,
37, 36,
40, 39,
41, 36,
42, 43,
37, 36,
44, 44,
45, 45,
40, 37,
41, 36,
46, 47,
45, 48,
49, 44,
50, 45,
40, 37,
51, 36,
17, 16,
3, 5,
17, 16,
15, 5,
17, 4,
3, 5,
2, 16,
3, 5,
17, 16,
3, 6,
17, 16,
15, 6,
49, 20,
50, 45,
18, 47,
45, 48</data>
	</layer>
</map>
