<?xml version="1.0" ?>
<map height="100" orientation="orthogonal" renderorder="right-down" tileheight="8" tilewidth="8" width="2">
	<!--Add tilesets as much as needed-->
	<tileset firstgid="1" tileheight="8" tilewidth="8">
		<image source="../../../gfx/tilesets/gfx_019_7470.2bpp"/>
	</tileset>
	<layer height="100" id="1" name="metatiles" width="2">
		<data encoding="csv">
2, 4,
3, 5,
6, 8,
7, 9,
10, 12,
11, 13,
14, 14,
14, 14,
15, 17,
16, 18,
19, 19,
20, 20,
21, 23,
22, 24,
25, 27,
26, 28,
29, 31,
30, 32,
33, 35,
34, 36,
19, 19,
37, 38,
19, 19,
39, 40,
19, 19,
41, 42,
19, 19,
43, 44,
45, 47,
46, 48,
49, 51,
50, 52,
53, 55,
54, 56,
57, 59,
58, 60,
61, 63,
62, 64,
65, 67,
66, 68,
69, 71,
70, 72,
73, 75,
74, 76,
77, 79,
78, 80,
79, 82,
81, 83,
77, 82,
84, 85,
77, 79,
84, 86,
79, 82,
87, 85,
84, 88,
78, 80,
88, 85,
81, 83,
84, 85,
78, 83,
89, 89,
89, 89,
91, 93,
92, 94,
19, 19,
45, 47,
19, 19,
33, 35,
41, 42,
57, 59,
39, 40,
53, 55,
37, 38,
49, 51,
43, 44,
61, 63,
19, 19,
25, 27,
19, 19,
29, 31,
46, 48,
65, 67,
34, 36,
14, 14,
58, 60,
14, 14,
54, 56,
14, 14,
50, 52,
14, 14,
62, 64,
92, 94,
26, 28,
14, 14,
30, 32,
14, 14,
66, 68,
14, 14,
66, 68,
92, 94</data>
	</layer>
</map>
