<?xml version="1.0" ?>
<map height="102" orientation="orthogonal" renderorder="right-down" tileheight="8" tilewidth="8" width="2">
	<!--Add tilesets as much as needed-->
	<tileset firstgid="1" tilewidth="8" tileheight="8">
		<image source="../../../gfx/tilesets/gfx_051_49c0.png"/>
	</tileset>
	<tileset firstgid="129" tilewidth="8" tileheight="8">
		<image source="../../../gfx/tilesets/gfx_051_51c0.png"/>
	</tileset>
	<layer height="102" id="1" name="metatiles" width="2">
		<data encoding="csv">
2, 4,
3, 5,
6, 8,
7, 9,
10, 12,
11, 13,
14, 16,
15, 17,
18, 20,
19, 13,
21, 22,
15, 23,
24, 26,
25, 27,
28, 30,
29, 31,
32, 34,
33, 35,
36, 38,
37, 39,
40, 42,
41, 43,
44, 46,
45, 47,
48, 50,
49, 51,
52, 54,
53, 55,
56, 58,
57, 59,
60, 62,
61, 63,
64, 66,
65, 67,
68, 70,
69, 71,
72, 74,
73, 75,
76, 78,
77, 79,
80, 82,
81, 83,
84, 86,
85, 87,
88, 89,
41, 47,
90, 92,
91, 93,
94, 96,
95, 97,
98, 100,
99, 101,
102, 103,
99, 104,
105, 107,
106, 108,
109, 111,
110, 112,
113, 115,
114, 116,
109, 111,
117, 112,
109, 111,
110, 118,
119, 121,
120, 122,
123, 125,
124, 126,
127, 129,
128, 130,
131, 133,
132, 134,
60, 135,
106, 136,
105, 137,
106, 138,
139, 140,
110, 141,
60, 70,
61, 71,
68, 70,
114, 142,
143, 145,
144, 146,
147, 149,
148, 150,
151, 153,
152, 154,
100, 100,
101, 101,
6, 8,
7, 9,
6, 8,
7, 9,
6, 8,
7, 9,
6, 8,
7, 9,
6, 8,
7, 9,
6, 8,
7, 9</data>
	</layer>
</map>
