<?xml version="1.0" ?>
<map height="100" orientation="orthogonal" renderorder="right-down" tileheight="8" tilewidth="8" width="2">
	<!--Add tilesets as much as needed-->
	<tileset firstgid="1" tilewidth="8" tileheight="8">
		<image source="../../../gfx/tilesets/gfx_06b_4ca0.png"/>
	</tileset>
	<layer height="100" id="1" name="metatiles" width="2">
		<data encoding="csv">
2, 4,
3, 5,
6, 8,
7, 9,
10, 12,
11, 13,
14, 16,
15, 17,
18, 20,
19, 21,
22, 24,
23, 25,
6, 26,
7, 27,
28, 30,
29, 31,
32, 32,
32, 32,
33, 35,
34, 36,
37, 17,
38, 39,
40, 42,
41, 43,
44, 46,
45, 47,
48, 48,
48, 48,
28, 30,
49, 50,
32, 51,
32, 51,
52, 54,
53, 55,
56, 58,
57, 59,
60, 62,
61, 63,
64, 66,
65, 67,
68, 70,
69, 71,
72, 73,
32, 51,
74, 76,
75, 77,
78, 80,
79, 81,
82, 84,
83, 85,
86, 88,
87, 89,
72, 72,
32, 32,
8, 8,
9, 9,
90, 91,
23, 25,
92, 94,
93, 67,
95, 96,
65, 97,
48, 59,
48, 48,
48, 58,
48, 48,
48, 56,
48, 48,
59, 48,
48, 48,
48, 48,
48, 56,
29, 31,
28, 30,
49, 50,
87, 89,
56, 48,
48, 48,
48, 48,
59, 48,
48, 48,
48, 58,
48, 48,
56, 48,
48, 48,
58, 48,
48, 48,
48, 59,
58, 48,
48, 48,
32, 40,
32, 41,
42, 51,
43, 51,
32, 78,
32, 79,
80, 51,
81, 51,
8, 26,
9, 27</data>
	</layer>
</map>
