<?xml version="1.0" ?>
<map height="112" orientation="orthogonal" renderorder="right-down" tileheight="8" tilewidth="8" width="2">
	<!--Add tilesets as much as needed-->
	<tileset firstgid="1" tileheight="8" tilewidth="8">
		<image source="../../../gfx/tilesets/image_16_5550.png"/>
	</tileset>
	<layer height="112" id="1" name="metatiles" width="2">
		<data encoding="csv">
2, 2,
2, 2,
3, 5,
4, 6,
7, 9,
8, 10,
11, 13,
12, 14,
15, 17,
16, 18,
19, 21,
20, 22,
2, 2,
23, 24,
25, 27,
26, 28,
29, 31,
30, 32,
33, 35,
34, 36,
37, 39,
38, 40,
41, 43,
42, 42,
44, 46,
45, 47,
48, 50,
49, 51,
44, 53,
52, 54,
53, 46,
55, 56,
42, 42,
42, 42,
57, 58,
42, 42,
59, 60,
42, 42,
61, 63,
62, 64,
65, 67,
66, 68,
19, 21,
20, 69,
70, 72,
71, 73,
74, 76,
75, 77,
78, 78,
78, 78,
79, 81,
80, 82,
81, 83,
82, 84,
85, 87,
86, 88,
89, 91,
90, 92,
93, 95,
94, 96,
97, 99,
98, 100,
101, 103,
102, 104,
105, 107,
106, 108,
109, 82,
110, 111,
82, 113,
112, 114,
115, 117,
116, 118,
119, 121,
120, 122,
123, 125,
124, 126,
127, 129,
128, 130,
129, 129,
130, 130,
129, 132,
131, 133,
134, 134,
134, 134,
2, 2,
3, 5,
4, 6,
42, 42,
44, 53,
2, 2,
53, 46,
2, 2,
2, 2,
11, 13,
79, 83,
80, 84,
12, 14,
41, 43,
109, 113,
110, 114,
78, 74,
78, 75,
76, 78,
77, 78,
4, 6,
78, 78,
2, 2,
42, 42,
57, 58,
78, 78,
59, 60,
78, 78</data>
	</layer>
</map>
