<?xml version="1.0" ?>
<map height="110" orientation="orthogonal" renderorder="right-down" tileheight="8" tilewidth="8" width="2">
	<!--Add tilesets as much as needed-->
	<tileset firstgid="1" tileheight="8" tilewidth="8">
		<image source="../../../gfx/tilesets/gfx_019_5180.2bpp"/>
	</tileset>
	<layer height="110" id="1" name="metatiles" width="2">
		<data encoding="csv">
2, 4,
3, 5,
6, 8,
7, 9,
10, 12,
11, 13,
14, 16,
15, 17,
18, 16,
19, 17,
20, 22,
21, 23,
24, 26,
25, 27,
28, 30,
29, 31,
32, 34,
33, 35,
36, 38,
37, 39,
40, 42,
41, 43,
44, 46,
45, 43,
47, 48,
45, 49,
50, 52,
51, 53,
54, 56,
55, 57,
58, 60,
59, 43,
61, 60,
45, 43,
61, 62,
45, 63,
64, 66,
65, 53,
67, 69,
68, 70,
71, 60,
72, 73,
61, 60,
74, 75,
61, 77,
76, 78,
50, 52,
65, 79,
80, 34,
81, 35,
82, 84,
83, 85,
86, 88,
87, 89,
90, 92,
91, 93,
94, 96,
95, 97,
98, 100,
99, 101,
102, 104,
103, 105,
107, 109,
108, 110,
111, 113,
112, 114,
115, 110,
116, 117,
118, 120,
119, 121,
107, 122,
108, 123,
124, 126,
125, 114,
115, 128,
127, 129,
130, 132,
131, 120,
133, 135,
134, 136,
137, 126,
125, 114,
138, 139,
127, 129,
140, 121,
141, 142,
130, 132,
141, 142,
143, 145,
144, 146,
147, 149,
148, 150,
151, 153,
152, 154,
155, 157,
156, 158,
6, 8,
7, 9,
6, 8,
7, 9,
6, 8,
7, 9,
6, 8,
7, 9,
6, 8,
7, 9,
6, 8,
7, 9,
6, 8,
7, 9</data>
	</layer>
</map>
