<?xml version="1.0" ?>
<map height="220" orientation="orthogonal" renderorder="right-down" tileheight="8" tilewidth="8" width="2">
	<!--Add tilesets as much as needed-->
	<tileset firstgid="1" tileheight="8" tilewidth="8">
		<image source="../../../gfx/tilesets/image_19_4000.png"/>
	</tileset>
	<layer height="220" id="1" name="metatiles" width="2">
		<data encoding="csv">
2, 4,
3, 5,
6, 8,
7, 8,
9, 10,
3, 11,
12, 14,
13, 15,
4, 17,
16, 18,
19, 4,
20, 16,
3, 21,
3, 8,
22, 24,
23, 25,
3, 26,
3, 27,
7, 8,
28, 29,
3, 8,
3, 8,
16, 18,
30, 31,
20, 16,
32, 33,
34, 10,
3, 11,
35, 37,
36, 38,
39, 4,
20, 16,
4, 4,
16, 16,
40, 8,
18, 8,
41, 43,
42, 44,
45, 47,
46, 44,
48, 49,
46, 50,
51, 10,
52, 53,
54, 56,
55, 11,
16, 16,
33, 33,
18, 8,
31, 29,
57, 59,
58, 44,
60, 59,
46, 44,
60, 61,
46, 62,
63, 65,
64, 66,
67, 69,
68, 70,
21, 10,
8, 11,
54, 10,
21, 11,
21, 10,
29, 11,
71, 59,
72, 73,
60, 59,
74, 75,
60, 77,
76, 78,
79, 81,
80, 82,
83, 85,
84, 86,
8, 10,
29, 11,
51, 56,
55, 53,
87, 89,
88, 90,
91, 93,
92, 94,
95, 97,
96, 98,
99, 101,
100, 102,
103, 103,
103, 103,
54, 10,
52, 11,
105, 107,
106, 108,
109, 109,
110, 110,
111, 113,
112, 114,
107, 115,
108, 116,
117, 119,
118, 120,
119, 119,
120, 120,
119, 121,
120, 122,
118, 123,
118, 124,
123, 126,
125, 120,
127, 126,
120, 120,
127, 128,
120, 124,
128, 122,
125, 122,
129, 131,
130, 132,
118, 128,
118, 124,
128, 124,
125, 120,
125, 124,
120, 120,
125, 123,
120, 124,
123, 122,
125, 122,
105, 109,
106, 110,
118, 123,
118, 120,
123, 126,
133, 134,
127, 126,
135, 135,
127, 128,
135, 136,
128, 122,
120, 122,
118, 128,
137, 138,
139, 140,
138, 141,
142, 144,
143, 145,
146, 148,
147, 149,
123, 122,
138, 150,
118, 123,
151, 138,
153, 155,
154, 156,
157, 159,
158, 160,
118, 123,
137, 138,
120, 126,
138, 138,
109, 111,
110, 112,
113, 109,
114, 110,
117, 119,
118, 123,
119, 119,
123, 120,
119, 119,
120, 123,
119, 121,
123, 122,
127, 122,
120, 122,
127, 122,
138, 150,
128, 153,
125, 154,
155, 157,
156, 158,
159, 123,
160, 124,
8, 10,
8, 10,
105, 111,
106, 112,
117, 119,
137, 138,
119, 121,
138, 150,
118, 126,
137, 138,
127, 120,
138, 138,
118, 126,
118, 120,
127, 120,
120, 120,
126, 127,
120, 120,
120, 126,
120, 120,
120, 120,
138, 138,
109, 107,
110, 108,
109, 115,
110, 116,
119, 119,
138, 138,
21, 56,
29, 53,
127, 120,
133, 134,
126, 127,
135, 135,
120, 126,
135, 136,
118, 126,
151, 138</data>
	</layer>
</map>
