<?xml version="1.0" ?>
<map height="94" orientation="orthogonal" renderorder="right-down" tileheight="8" tilewidth="8" width="2">
	<!--Add tilesets as much as needed-->
	<tileset firstgid="1" tileheight="8" tilewidth="8">
		<image source="../../../gfx/tilesets/gfx_054_58e0.2bpp"/>
	</tileset>
	<layer height="94" id="1" name="metatiles" width="2">
		<data encoding="csv">
2, 4,
3, 5,
6, 8,
7, 9,
10, 12,
11, 13,
14, 16,
15, 17,
18, 8,
19, 9,
20, 22,
21, 23,
24, 26,
25, 27,
6, 12,
7, 13,
28, 30,
29, 31,
18, 8,
7, 9,
32, 34,
33, 35,
36, 38,
37, 39,
40, 42,
41, 43,
44, 46,
45, 47,
48, 50,
49, 51,
52, 54,
53, 55,
56, 58,
57, 59,
60, 62,
61, 63,
64, 66,
65, 67,
23, 38,
25, 27,
68, 70,
69, 71,
72, 74,
73, 75,
76, 78,
77, 79,
81, 81,
81, 82,
83, 85,
84, 86,
87, 89,
88, 90,
91, 93,
92, 94,
81, 81,
95, 81,
81, 81,
81, 81,
96, 98,
97, 99,
100, 102,
101, 103,
102, 104,
102, 102,
105, 107,
106, 108,
109, 111,
110, 112,
81, 81,
113, 81,
114, 116,
115, 117,
118, 120,
119, 121,
122, 124,
123, 125,
126, 128,
127, 129,
130, 132,
131, 133,
134, 136,
135, 137,
138, 140,
139, 141,
142, 144,
143, 145,
146, 148,
147, 149,
150, 152,
151, 153,
154, 156,
155, 157,
158, 160,
159, 81</data>
	</layer>
</map>
