<?xml version="1.0" ?>
<map height="94" orientation="orthogonal" renderorder="right-down" tileheight="8" tilewidth="8" width="2">
	<!--Add tilesets as much as needed-->
	<tileset firstgid="1" tilewidth="8" tileheight="8">
		<image source="../../../gfx/tilesets/gfx_019_49e0.png"/>
	</tileset>
	<tileset firstgid="96" tilewidth="8" tileheight="8">
		<image source="../../../gfx/tilesets/gfx_019_4fc0.png"/>
	</tileset>
	<layer height="94" id="1" name="metatiles" width="2">
		<data encoding="csv">
2, 4,
3, 5,
6, 8,
7, 5,
9, 10,
7, 11,
12, 14,
13, 15,
16, 18,
17, 19,
20, 21,
21, 20,
20, 22,
7, 21,
23, 22,
24, 5,
25, 22,
7, 5,
25, 26,
7, 27,
28, 30,
29, 31,
32, 34,
33, 35,
36, 38,
37, 39,
25, 21,
20, 5,
40, 22,
41, 42,
25, 22,
43, 44,
25, 46,
45, 47,
48, 50,
49, 51,
52, 54,
53, 55,
56, 58,
57, 59,
60, 62,
61, 63,
64, 66,
65, 67,
68, 66,
64, 67,
64, 66,
69, 67,
70, 72,
71, 73,
74, 76,
75, 77,
78, 80,
79, 81,
82, 72,
83, 73,
65, 66,
69, 67,
84, 86,
85, 87,
88, 89,
75, 51,
74, 50,
75, 51,
90, 91,
75, 92,
93, 72,
71, 73,
68, 66,
94, 67,
96, 98,
97, 99,
98, 98,
97, 99,
98, 100,
97, 99,
101, 103,
102, 104,
105, 107,
106, 108,
105, 107,
109, 108,
105, 107,
109, 110,
111, 113,
112, 114,
115, 116,
114, 114,
117, 119,
118, 120,
121, 113,
114, 114,
115, 122,
114, 123</data>
	</layer>
</map>
