<?xml version="1.0" ?>
<map height="94" orientation="orthogonal" renderorder="right-down" tileheight="8" tilewidth="8" width="2">
	<!--Add tilesets as much as needed-->
	<tileset firstgid="1" tilewidth="8" tileheight="8">
		<image source="../../../gfx/tilesets/gfx_017_612e.png"/>
	</tileset>
	<tileset firstgid="92" tilewidth="8" tileheight="8">
		<image source="../../../gfx/tilesets/gfx_051_6720.png"/>
	</tileset>
	<layer height="94" id="1" name="metatiles" width="2">
		<data encoding="csv">
2, 4,
3, 5,
6, 8,
7, 9,
10, 12,
11, 13,
14, 16,
15, 17,
18, 20,
19, 21,
22, 24,
23, 25,
26, 27,
25, 25,
28, 29,
25, 30,
26, 27,
31, 32,
22, 24,
33, 34,
35, 25,
36, 25,
25, 37,
25, 38,
25, 25,
31, 32,
39, 41,
40, 42,
43, 25,
33, 34,
25, 45,
44, 46,
47, 49,
48, 50,
51, 49,
52, 53,
51, 55,
54, 56,
57, 59,
58, 60,
57, 59,
61, 60,
62, 64,
63, 65,
66, 59,
58, 60,
67, 59,
68, 60,
69, 71,
70, 72,
73, 75,
74, 76,
77, 78,
61, 60,
79, 81,
80, 82,
83, 85,
84, 86,
87, 89,
88, 90,
25, 25,
25, 25,
92, 94,
93, 95,
96, 98,
97, 99,
100, 102,
101, 103,
104, 104,
104, 104,
105, 107,
106, 108,
107, 107,
108, 108,
107, 109,
108, 110,
106, 108,
106, 108,
106, 108,
111, 112,
108, 108,
112, 112,
108, 110,
112, 113,
108, 110,
108, 110,
114, 116,
115, 117,
108, 108,
108, 108,
104, 59,
61, 104,
57, 104,
104, 60</data>
	</layer>
</map>
