<?xml version="1.0" ?>
<map height="174" orientation="orthogonal" renderorder="right-down" tileheight="8" tilewidth="8" width="2">
	<!--Add tilesets as much as needed-->
	<tileset firstgid="1" tilewidth="8" tileheight="8">
		<image source="../../../gfx/tilesets/gfx_019_5b50.png"/>
	</tileset>
	<tileset firstgid="129" tilewidth="8" tileheight="8">
		<image source="../../../gfx/tilesets/gfx_019_6350.png"/>
	</tileset>
	<tileset firstgid="145" tilewidth="8" tileheight="8">
		<image source="../../../gfx/tilesets/gfx_056_4bc0.png"/>
	</tileset>
	<layer height="174" id="1" name="metatiles" width="2">
		<data encoding="csv">
2, 4,
3, 5,
6, 8,
7, 9,
10, 12,
11, 13,
14, 16,
15, 17,
18, 20,
19, 21,
22, 22,
22, 22,
23, 23,
24, 24,
25, 27,
26, 28,
29, 31,
30, 32,
33, 35,
34, 36,
37, 39,
38, 32,
40, 35,
41, 42,
43, 45,
44, 46,
47, 49,
48, 50,
43, 51,
44, 32,
52, 45,
38, 46,
53, 55,
54, 56,
35, 58,
57, 59,
23, 51,
24, 32,
60, 62,
61, 63,
64, 66,
65, 67,
52, 51,
38, 32,
68, 70,
69, 71,
72, 74,
73, 75,
52, 23,
38, 24,
76, 78,
77, 79,
80, 82,
81, 83,
84, 86,
85, 87,
88, 90,
89, 91,
92, 94,
93, 95,
96, 98,
97, 99,
100, 102,
101, 103,
104, 106,
105, 107,
108, 110,
109, 111,
112, 114,
113, 115,
116, 118,
117, 119,
88, 94,
93, 120,
121, 123,
122, 124,
125, 127,
126, 128,
129, 131,
130, 132,
133, 134,
132, 135,
136, 138,
137, 139,
140, 142,
141, 143,
145, 147,
146, 146,
148, 149,
146, 146,
150, 152,
151, 153,
154, 155,
154, 155,
156, 158,
157, 159,
23, 51,
24, 152,
145, 153,
54, 56,
150, 149,
151, 149,
116, 118,
146, 119,
52, 145,
38, 32,
147, 148,
38, 38,
149, 150,
32, 151,
148, 149,
38, 32,
149, 145,
38, 38,
147, 148,
32, 32,
149, 53,
38, 54,
55, 51,
56, 32,
52, 53,
38, 54,
55, 45,
56, 46,
37, 39,
38, 149,
145, 147,
38, 32,
147, 148,
38, 32,
149, 51,
38, 32,
147, 148,
53, 55,
153, 51,
38, 32,
11, 13,
52, 51,
54, 56,
52, 51,
108, 110,
109, 148,
152, 55,
148, 149,
145, 154,
38, 32,
155, 149,
38, 32,
152, 51,
149, 149,
154, 155,
38, 32,
148, 148,
38, 32,
74, 94,
75, 95,
150, 149,
38, 150,
52, 151,
38, 32,
51, 52,
32, 38,
148, 149,
38, 149,
147, 148,
154, 155,
149, 45,
38, 46,
6, 8,
7, 9,
6, 8,
7, 9,
6, 8,
7, 9</data>
	</layer>
</map>
