<?xml version="1.0" ?>
<map height="168" orientation="orthogonal" renderorder="right-down" tileheight="8" tilewidth="8" width="2">
	<!--Add tilesets as much as needed-->
	<tileset firstgid="1" tileheight="8" tilewidth="8">
		<image source="../../../gfx/tilesets/image_16_4c50.png"/>
	</tileset>
	<layer height="168" id="1" name="metatiles" width="2">
		<data encoding="csv">
2, 4,
3, 5,
6, 8,
7, 9,
10, 12,
11, 13,
14, 16,
15, 17,
18, 20,
19, 21,
22, 24,
23, 25,
26, 28,
27, 29,
30, 31,
7, 32,
33, 35,
34, 36,
37, 38,
7, 39,
40, 42,
41, 43,
30, 38,
44, 45,
30, 47,
46, 48,
49, 51,
50, 52,
30, 39,
37, 53,
55, 57,
56, 58,
57, 60,
59, 61,
62, 57,
63, 64,
65, 67,
66, 68,
65, 67,
69, 70,
57, 57,
58, 71,
72, 74,
73, 75,
76, 77,
75, 78,
57, 57,
79, 58,
66, 68,
66, 68,
66, 68,
69, 70,
57, 80,
58, 81,
82, 84,
83, 85,
86, 88,
87, 75,
89, 57,
90, 91,
92, 94,
93, 95,
96, 57,
97, 58,
98, 99,
57, 100,
101, 101,
102, 103,
101, 101,
104, 105,
106, 108,
107, 57,
55, 57,
56, 59,
60, 62,
61, 63,
57, 109,
64, 109,
110, 112,
111, 113,
114, 116,
115, 117,
118, 55,
118, 59,
57, 57,
64, 58,
57, 72,
58, 73,
74, 76,
75, 75,
77, 109,
78, 119,
120, 122,
121, 119,
123, 124,
121, 119,
118, 72,
121, 73,
77, 57,
78, 91,
98, 99,
57, 119,
101, 101,
121, 125,
101, 109,
126, 109,
127, 84,
127, 85,
86, 127,
87, 127,
118, 101,
118, 128,
101, 101,
125, 119,
106, 108,
121, 57,
129, 119,
130, 119,
121, 131,
121, 132,
133, 109,
134, 135,
127, 127,
136, 137,
127, 127,
138, 139,
118, 141,
140, 142,
131, 119,
132, 119,
121, 129,
121, 130,
143, 119,
144, 119,
119, 121,
119, 121,
125, 125,
131, 131,
131, 119,
145, 119,
121, 143,
121, 144,
57, 119,
58, 119,
121, 132,
121, 132,
132, 132,
146, 146,
147, 119,
148, 119,
121, 96,
121, 96,
55, 119,
56, 58,
121, 119,
56, 58,
149, 151,
150, 152,
121, 119,
97, 58,
121, 97,
56, 58,
129, 129,
130, 130,
143, 143,
144, 144,
96, 57,
96, 57</data>
	</layer>
</map>
