<?xml version="1.0" ?>
<map height="100" orientation="orthogonal" renderorder="right-down" tileheight="8" tilewidth="8" width="2">
	<!--Add tilesets as much as needed-->
	<tileset firstgid="1" tileheight="8" tilewidth="8">
		<image source="../../../gfx/tilesets/gfx_019_6c20.2bpp"/>
	</tileset>
	<layer height="100" id="1" name="metatiles" width="2">
		<data encoding="csv">
2, 2,
3, 3,
4, 4,
5, 5,
6, 8,
7, 9,
10, 12,
11, 13,
14, 16,
15, 17,
18, 20,
19, 21,
20, 22,
21, 23,
24, 24,
24, 24,
25, 27,
26, 28,
29, 31,
30, 32,
33, 35,
34, 36,
37, 39,
38, 38,
40, 21,
41, 42,
21, 44,
43, 45,
46, 48,
47, 49,
50, 52,
51, 53,
54, 56,
55, 57,
58, 60,
59, 61,
62, 64,
63, 65,
38, 38,
66, 67,
38, 38,
68, 69,
38, 38,
38, 38,
70, 70,
70, 70,
71, 73,
72, 74,
75, 77,
76, 78,
79, 80,
38, 38,
81, 83,
82, 84,
85, 87,
86, 88,
89, 91,
90, 92,
93, 95,
94, 96,
97, 99,
98, 100,
101, 103,
102, 104,
105, 107,
106, 108,
109, 111,
110, 112,
113, 113,
113, 113,
114, 116,
115, 117,
118, 120,
119, 121,
122, 124,
123, 125,
126, 127,
38, 38,
106, 108,
128, 129,
130, 132,
131, 133,
135, 136,
136, 135,
137, 139,
138, 138,
140, 142,
141, 143,
24, 24,
10, 12,
24, 24,
105, 107,
11, 13,
136, 135,
126, 127,
136, 135,
106, 108,
106, 108,
71, 77,
72, 78</data>
	</layer>
</map>
