<?xml version="1.0" ?>
<map height="76" orientation="orthogonal" renderorder="right-down" tileheight="8" tilewidth="8" width="2">
	<!--Add tilesets as much as needed-->
	<tileset firstgid="1" tilewidth="8" tileheight="8">
		<image source="../../../gfx/tilesets/gfx_06b_43c0.png"/>
	</tileset>
	<layer height="76" id="1" name="metatiles" width="2">
		<data encoding="csv">
2, 2,
2, 2,
3, 5,
4, 6,
7, 8,
2, 9,
10, 12,
11, 13,
14, 16,
15, 17,
18, 20,
19, 21,
22, 24,
23, 25,
26, 28,
27, 29,
30, 31,
23, 25,
32, 34,
33, 35,
36, 38,
37, 39,
40, 42,
41, 43,
26, 24,
44, 45,
22, 28,
23, 29,
22, 24,
46, 45,
47, 48,
27, 29,
49, 51,
50, 52,
53, 55,
54, 56,
47, 31,
27, 25,
47, 48,
44, 57,
58, 24,
59, 60,
26, 28,
44, 57,
61, 61,
62, 63,
61, 61,
18, 20,
19, 21,
40, 42,
47, 31,
44, 45,
30, 48,
23, 29,
41, 43,
53, 55,
54, 56,
33, 35,
22, 28,
46, 57,
54, 56,
2, 2,
7, 8,
18, 20,
32, 7,
33, 2,
8, 34,
9, 35,
30, 31,
46, 45,
2, 2,
33, 35,
47, 47,
27, 27,
54, 56,
2, 9</data>
	</layer>
</map>
