<?xml version="1.0" ?>
<map height="158" orientation="orthogonal" renderorder="right-down" tileheight="8" tilewidth="8" width="2">
	<!--Add tilesets as much as needed-->
	<tileset firstgid="1" tilewidth="8" tileheight="8">
		<image source="../../../gfx/tilesets/gfx_054_4000.png"/>
	</tileset>
	<tileset firstgid="129" tilewidth="8" tileheight="8">
		<image source="../../../gfx/tilesets/gfx_054_4800.png"/>
	</tileset>
	<layer height="158" id="1" name="metatiles" width="2">
		<data encoding="csv">
2, 4,
3, 5,
6, 8,
7, 9,
10, 12,
11, 13,
14, 16,
15, 17,
18, 10,
19, 20,
21, 22,
15, 23,
14, 24,
15, 25,
26, 16,
27, 23,
28, 30,
29, 31,
32, 33,
19, 20,
34, 36,
35, 37,
38, 40,
39, 41,
42, 44,
43, 45,
46, 48,
47, 49,
50, 51,
10, 52,
21, 22,
53, 54,
32, 33,
55, 10,
50, 51,
11, 13,
56, 58,
57, 59,
60, 62,
61, 63,
64, 66,
65, 67,
68, 70,
69, 71,
21, 22,
15, 67,
21, 22,
69, 23,
72, 74,
73, 75,
76, 78,
77, 79,
80, 82,
81, 83,
21, 40,
15, 23,
80, 22,
15, 23,
84, 86,
85, 87,
88, 90,
89, 91,
92, 94,
93, 95,
96, 98,
97, 99,
100, 102,
101, 103,
104, 106,
105, 107,
108, 110,
109, 111,
112, 114,
113, 115,
112, 114,
116, 115,
117, 114,
116, 115,
117, 114,
118, 115,
119, 121,
120, 122,
117, 121,
120, 122,
123, 125,
124, 115,
117, 126,
118, 115,
127, 114,
118, 115,
128, 51,
19, 129,
68, 70,
81, 83,
32, 131,
130, 13,
14, 39,
15, 23,
64, 66,
39, 41,
10, 10,
10, 10,
14, 16,
15, 23,
127, 127,
118, 118,
114, 114,
115, 115,
117, 121,
116, 122,
24, 26,
25, 27,
108, 42,
109, 43,
44, 46,
45, 47,
48, 110,
49, 111,
18, 10,
19, 10,
26, 39,
27, 23,
26, 22,
27, 23,
48, 106,
49, 107,
117, 126,
116, 115,
112, 114,
113, 117,
112, 121,
116, 122,
100, 42,
101, 43,
21, 24,
15, 25,
112, 126,
116, 115,
6, 8,
7, 9,
6, 8,
7, 9,
6, 8,
7, 9,
6, 8,
7, 9,
6, 8,
7, 9,
6, 8,
7, 9,
6, 8,
7, 9,
6, 8,
7, 9,
6, 8,
7, 9,
6, 8,
7, 9</data>
	</layer>
</map>
