<?xml version="1.0" ?>
<map height="88" orientation="orthogonal" renderorder="right-down" tileheight="8" tilewidth="8" width="2">
	<!--Add tilesets as much as needed-->
	<tileset firstgid="1" tileheight="8" tilewidth="8">
		<image source="../../../gfx/tilesets/gfx_06b_66fe.2bpp"/>
	</tileset>
	<layer height="88" id="1" name="metatiles" width="2">
		<data encoding="csv">
2, 4,
3, 5,
6, 8,
7, 3,
9, 11,
10, 12,
13, 15,
14, 5,
16, 18,
17, 18,
19, 21,
20, 22,
23, 25,
24, 26,
27, 29,
28, 30,
20, 32,
31, 20,
18, 18,
33, 34,
20, 20,
20, 20,
33, 34,
33, 34,
18, 33,
18, 33,
34, 18,
34, 18,
18, 18,
35, 36,
20, 37,
20, 38,
39, 41,
40, 42,
43, 45,
44, 46,
47, 20,
48, 20,
33, 34,
49, 50,
49, 50,
51, 51,
52, 49,
53, 54,
50, 52,
55, 56,
49, 50,
57, 58,
59, 51,
60, 61,
20, 63,
62, 64,
65, 67,
66, 66,
68, 69,
66, 70,
71, 73,
72, 74,
75, 51,
76, 61,
61, 61,
61, 61,
77, 79,
78, 80,
81, 83,
82, 84,
85, 87,
86, 88,
89, 90,
75, 75,
90, 90,
75, 89,
90, 90,
90, 90,
91, 92,
61, 93,
91, 91,
94, 95,
92, 91,
96, 97,
91, 91,
98, 99,
91, 100,
93, 61,
101, 75,
61, 61,
75, 89,
61, 75</data>
	</layer>
</map>
