<?xml version="1.0" ?>
<map height="58" orientation="orthogonal" renderorder="right-down" tileheight="8" tilewidth="8" width="2">
	<!--Add tilesets as much as needed-->
	<tileset firstgid="1" tileheight="8" tilewidth="8">
		<image source="../../../gfx/tilesets/gfx_056_5960.2bpp"/>
	</tileset>
	<layer height="58" id="1" name="metatiles" width="2">
		<data encoding="csv">
2, 2,
2, 2,
3, 3,
4, 4,
3, 6,
5, 7,
8, 10,
9, 11,
12, 14,
13, 15,
16, 3,
4, 4,
17, 17,
17, 17,
17, 18,
17, 19,
20, 22,
21, 23,
24, 26,
25, 27,
28, 30,
29, 31,
32, 17,
33, 34,
4, 4,
4, 4,
4, 35,
4, 36,
37, 39,
38, 40,
41, 43,
42, 44,
45, 47,
46, 48,
49, 51,
50, 52,
4, 4,
53, 53,
4, 54,
53, 55,
56, 58,
57, 59,
60, 62,
61, 63,
64, 66,
65, 67,
68, 4,
69, 70,
71, 71,
2, 2,
72, 73,
2, 2,
74, 75,
2, 2,
76, 77,
2, 2,
78, 71,
2, 2</data>
	</layer>
</map>
