<?xml version="1.0" ?>
<map height="82" orientation="orthogonal" renderorder="right-down" tileheight="8" tilewidth="8" width="2">
	<!--Add tilesets as much as needed-->
	<tileset firstgid="1" tileheight="8" tilewidth="8">
		<image source="../../../gfx/tilesets/gfx_06b_7635.2bpp"/>
	</tileset>
	<layer height="82" id="1" name="metatiles" width="2">
		<data encoding="csv">
2, 4,
3, 5,
6, 8,
7, 9,
10, 12,
11, 13,
14, 16,
15, 17,
18, 20,
19, 21,
22, 24,
23, 25,
6, 26,
7, 27,
28, 30,
29, 31,
32, 32,
32, 32,
33, 35,
34, 36,
37, 17,
38, 39,
40, 42,
41, 43,
44, 46,
45, 47,
48, 48,
48, 48,
28, 30,
49, 50,
32, 51,
32, 51,
52, 54,
53, 55,
56, 57,
48, 58,
59, 61,
60, 62,
63, 65,
64, 66,
67, 69,
68, 70,
71, 72,
32, 51,
73, 75,
74, 76,
77, 79,
78, 80,
81, 83,
82, 84,
85, 87,
86, 88,
71, 71,
32, 32,
8, 8,
9, 9,
89, 90,
23, 25,
91, 93,
92, 66,
94, 95,
64, 96,
48, 58,
48, 48,
48, 57,
48, 48,
48, 56,
48, 48,
58, 48,
48, 48,
48, 48,
48, 56,
29, 31,
28, 30,
49, 50,
86, 88,
56, 48,
48, 48,
48, 48,
58, 48,
48, 48,
48, 57</data>
	</layer>
</map>
