<?xml version="1.0" ?>
<map height="80" orientation="orthogonal" renderorder="right-down" tileheight="8" tilewidth="8" width="2">
	<!--Add tilesets as much as needed-->
	<tileset firstgid="1" tileheight="8" tilewidth="8">
		<image source="../../../gfx/tilesets/gfx_06b_6f35.2bpp"/>
	</tileset>
	<layer height="80" id="1" name="metatiles" width="2">
		<data encoding="csv">
2, 2,
2, 2,
2, 2,
3, 2,
2, 2,
4, 5,
2, 2,
2, 6,
2, 2,
7, 2,
2, 9,
8, 2,
2, 10,
2, 11,
12, 13,
2, 2,
2, 2,
14, 2,
15, 17,
16, 2,
18, 2,
19, 20,
21, 2,
2, 2,
2, 2,
2, 22,
2, 24,
23, 25,
26, 28,
27, 29,
30, 32,
31, 33,
34, 36,
35, 37,
2, 2,
38, 39,
2, 41,
40, 42,
43, 45,
44, 46,
47, 49,
48, 50,
51, 53,
52, 54,
55, 57,
56, 58,
59, 61,
60, 62,
63, 65,
64, 66,
67, 69,
68, 70,
71, 73,
72, 74,
75, 77,
76, 78,
79, 81,
80, 82,
2, 83,
2, 2,
84, 86,
85, 87,
88, 90,
89, 91,
92, 94,
93, 95,
96, 98,
97, 99,
100, 102,
101, 103,
2, 104,
2, 2,
105, 106,
2, 2,
107, 108,
2, 2,
109, 110,
2, 2,
111, 112,
2, 2</data>
	</layer>
</map>
