<?xml version="1.0" ?>
<map height="130" orientation="orthogonal" renderorder="right-down" tileheight="8" tilewidth="8" width="2">
	<!--Add tilesets as much as needed-->
	<tileset firstgid="1" tileheight="8" tilewidth="8">
		<image source="../../../gfx/tilesets/image_16_65b0.png"/>
	</tileset>
	<layer height="130" id="1" name="metatiles" width="2">
		<data encoding="csv">
2, 2,
2, 2,
3, 5,
4, 6,
7, 9,
8, 10,
11, 13,
12, 14,
15, 17,
16, 18,
19, 21,
20, 22,
23, 17,
24, 18,
19, 25,
20, 26,
27, 29,
28, 30,
28, 29,
31, 30,
27, 29,
31, 30,
32, 33,
32, 33,
34, 36,
35, 37,
38, 39,
32, 33,
40, 42,
41, 43,
44, 46,
45, 47,
48, 50,
49, 51,
52, 54,
53, 55,
56, 58,
57, 59,
60, 62,
61, 63,
64, 66,
65, 67,
68, 70,
69, 71,
72, 74,
73, 75,
76, 78,
77, 79,
80, 82,
81, 83,
84, 29,
85, 30,
87, 89,
88, 90,
91, 93,
92, 94,
93, 93,
87, 94,
87, 94,
88, 95,
93, 89,
87, 90,
91, 94,
92, 95,
96, 97,
96, 98,
99, 98,
100, 101,
96, 98,
100, 101,
96, 98,
96, 98,
96, 97,
100, 101,
99, 98,
96, 98,
100, 101,
102, 103,
93, 93,
103, 103,
100, 101,
103, 104,
105, 107,
106, 108,
109, 111,
110, 108,
112, 114,
113, 115,
111, 107,
110, 108,
109, 116,
110, 117,
105, 111,
106, 108,
119, 121,
120, 122,
123, 121,
124, 122,
123, 119,
124, 120,
120, 125,
120, 122,
126, 125,
124, 122,
126, 120,
124, 120,
126, 125,
124, 127,
126, 120,
128, 120,
120, 125,
129, 130,
126, 125,
130, 131,
126, 133,
132, 130,
134, 120,
130, 135,
76, 78,
38, 39,
38, 39,
38, 39,
126, 125,
132, 130,
126, 120,
130, 135,
28, 2,
31, 2,
127, 128,
133, 134</data>
	</layer>
</map>
