<?xml version="1.0" ?>
<map height="112" orientation="orthogonal" renderorder="right-down" tileheight="8" tilewidth="8" width="2">
	<!--Add tilesets as much as needed-->
	<tileset firstgid="1" tilewidth="8" tileheight="8">
		<image source="../../../gfx/tilesets/gfx_056_5270.png"/>
	</tileset>
	<layer height="112" id="1" name="metatiles" width="2">
		<data encoding="csv">
2, 4,
3, 5,
2, 4,
6, 7,
2, 4,
8, 3,
2, 9,
3, 10,
11, 12,
11, 12,
13, 14,
13, 15,
2, 16,
3, 17,
18, 20,
19, 21,
22, 24,
23, 25,
26, 27,
26, 27,
28, 30,
29, 31,
32, 34,
33, 35,
36, 38,
37, 39,
40, 42,
41, 43,
44, 46,
45, 47,
48, 50,
49, 51,
52, 54,
53, 55,
56, 58,
57, 59,
26, 27,
60, 61,
62, 64,
63, 65,
66, 68,
67, 69,
70, 71,
37, 72,
73, 75,
74, 76,
4, 4,
77, 78,
4, 4,
79, 80,
81, 83,
82, 84,
85, 87,
86, 88,
89, 91,
90, 92,
93, 95,
94, 96,
70, 98,
97, 99,
70, 101,
100, 102,
103, 104,
103, 105,
106, 108,
107, 103,
109, 111,
110, 74,
75, 110,
76, 110,
89, 91,
3, 5,
85, 87,
6, 7,
89, 91,
6, 7,
89, 91,
8, 3,
85, 9,
86, 10,
89, 9,
90, 10,
70, 98,
70, 98,
85, 87,
77, 78,
89, 16,
90, 17,
89, 104,
90, 105,
85, 93,
86, 94,
95, 70,
96, 100,
101, 87,
102, 88,
85, 87,
79, 80,
75, 85,
76, 86,
75, 89,
76, 90,
89, 91,
79, 80,
89, 91,
77, 78,
85, 104,
86, 105,
75, 89,
76, 110,
91, 110,
79, 80</data>
	</layer>
</map>
