<?xml version="1.0" ?>
<map height="110" orientation="orthogonal" renderorder="right-down" tileheight="8" tilewidth="8" width="2">
	<!--Add tilesets as much as needed-->
	<tileset firstgid="1" tilewidth="8" tileheight="8">
		<image source="../../../gfx/tilesets/gfx_065_4aa0.png"/>
	</tileset>
	<layer height="110" id="1" name="metatiles" width="2">
		<data encoding="csv">
2, 4,
3, 5,
6, 8,
7, 9,
10, 12,
11, 13,
14, 16,
15, 17,
18, 20,
19, 21,
22, 24,
23, 25,
26, 28,
27, 29,
30, 32,
31, 33,
34, 34,
34, 34,
35, 37,
36, 38,
39, 41,
40, 42,
43, 45,
44, 46,
47, 49,
48, 50,
51, 53,
52, 54,
55, 57,
56, 58,
59, 34,
60, 34,
59, 34,
61, 34,
34, 34,
62, 34,
63, 65,
64, 66,
67, 67,
67, 67,
68, 70,
69, 71,
72, 74,
73, 75,
76, 78,
77, 79,
80, 82,
81, 83,
72, 84,
73, 75,
85, 87,
86, 88,
89, 91,
90, 92,
93, 95,
94, 96,
97, 99,
98, 100,
76, 101,
77, 102,
103, 105,
104, 106,
107, 82,
108, 83,
109, 111,
110, 112,
113, 12,
11, 13,
14, 114,
15, 17,
18, 20,
115, 21,
22, 24,
23, 116,
14, 16,
23, 25,
47, 49,
15, 13,
22, 20,
48, 50,
22, 20,
15, 13,
22, 53,
47, 22,
10, 12,
19, 21,
22, 53,
15, 54,
48, 15,
15, 54,
53, 20,
54, 13,
10, 16,
11, 17,
22, 53,
52, 54,
51, 20,
52, 13,
22, 20,
47, 49,
6, 8,
7, 9,
6, 8,
7, 9,
6, 8,
7, 9,
6, 8,
7, 9,
6, 8,
7, 9</data>
	</layer>
</map>
