<?xml version="1.0" ?>
<map height="68" orientation="orthogonal" renderorder="right-down" tileheight="8" tilewidth="8" width="2">
	<!--Add tilesets as much as needed-->
	<tileset firstgid="1" tileheight="8" tilewidth="8">
		<image source="../../../gfx/tilesets/gfx_054_58e0.2bpp"/>
	</tileset>
	<layer height="68" id="1" name="metatiles" width="2">
		<data encoding="csv">
2, 4,
3, 5,
6, 8,
7, 9,
10, 12,
11, 13,
14, 16,
15, 17,
18, 8,
19, 9,
20, 22,
21, 23,
24, 26,
25, 27,
6, 12,
7, 13,
28, 30,
29, 31,
18, 8,
7, 9,
32, 34,
33, 35,
36, 38,
37, 39,
40, 42,
41, 43,
44, 46,
45, 47,
48, 50,
49, 51,
52, 54,
53, 55,
56, 58,
57, 59,
60, 62,
61, 63,
64, 66,
65, 67,
23, 38,
25, 27,
68, 70,
69, 71,
72, 74,
73, 75,
76, 78,
77, 79,
81, 83,
82, 84,
85, 87,
86, 88,
89, 90,
89, 90,
91, 91,
91, 91,
92, 94,
93, 95,
96, 98,
97, 99,
100, 102,
101, 103,
104, 91,
105, 91,
104, 91,
104, 91,
76, 44,
77, 45,
46, 78,
47, 79</data>
	</layer>
</map>
