<?xml version="1.0" ?>
<map height="86" orientation="orthogonal" renderorder="right-down" tileheight="8" tilewidth="8" width="2">
	<!--Add tilesets as much as needed-->
	<tileset firstgid="1" tileheight="8" tilewidth="8">
		<image source="../../../gfx/tilesets/gfx_054_6990.2bpp"/>
	</tileset>
	<layer height="86" id="1" name="metatiles" width="2">
		<data encoding="csv">
2, 4,
3, 5,
6, 8,
7, 9,
10, 11,
10, 11,
10, 11,
12, 13,
14, 16,
15, 17,
18, 20,
19, 20,
21, 19,
22, 21,
14, 14,
14, 14,
14, 15,
15, 23,
23, 25,
24, 26,
18, 19,
19, 18,
27, 27,
19, 28,
27, 27,
27, 29,
30, 32,
31, 33,
34, 30,
35, 31,
36, 38,
37, 39,
18, 28,
19, 28,
40, 40,
41, 41,
23, 42,
42, 43,
44, 45,
26, 18,
46, 48,
47, 46,
14, 49,
14, 14,
50, 52,
51, 53,
54, 56,
55, 57,
58, 60,
59, 61,
18, 28,
19, 18,
18, 62,
19, 63,
23, 42,
42, 64,
64, 44,
43, 26,
45, 19,
18, 19,
30, 30,
31, 31,
18, 65,
19, 20,
21, 18,
48, 21,
47, 47,
47, 47,
66, 47,
48, 66,
27, 27,
27, 27,
27, 27,
19, 18,
64, 64,
64, 43,
19, 18,
19, 18,
67, 48,
27, 67,
18, 18,
19, 19,
28, 27,
18, 19,
27, 27,
28, 27</data>
	</layer>
</map>
