<?xml version="1.0" ?>
<map height="114" orientation="orthogonal" renderorder="right-down" tileheight="8" tilewidth="8" width="2">
	<!--Add tilesets as much as needed-->
	<tileset firstgid="1" tilewidth="8" tileheight="8">
		<image source="../../../gfx/tilesets/gfx_051_5470.png"/>
	</tileset>
	<tileset firstgid="60" tilewidth="8" tileheight="8">
		<image source="../../../gfx/tilesets/gfx_051_5810.png"/>
	</tileset>
	<layer height="114" id="1" name="metatiles" width="2">
		<data encoding="csv">
2, 4,
3, 5,
6, 8,
7, 9,
10, 12,
11, 13,
14, 16,
15, 17,
18, 18,
19, 19,
20, 22,
21, 22,
20, 22,
20, 22,
23, 25,
24, 25,
25, 26,
25, 25,
18, 18,
27, 18,
28, 25,
29, 25,
25, 30,
25, 31,
22, 22,
22, 22,
18, 18,
18, 32,
33, 18,
34, 19,
29, 25,
29, 25,
25, 31,
25, 31,
25, 25,
25, 25,
18, 35,
19, 36,
33, 18,
33, 18,
37, 39,
38, 40,
41, 37,
42, 38,
24, 25,
24, 25,
18, 35,
18, 35,
43, 43,
44, 44,
37, 37,
38, 38,
45, 46,
45, 46,
24, 25,
47, 25,
48, 25,
25, 49,
50, 52,
51, 53,
52, 52,
53, 53,
52, 54,
53, 55,
56, 52,
57, 53,
58, 58,
58, 58,
60, 62,
61, 63,
64, 66,
65, 67,
68, 70,
69, 71,
72, 74,
73, 75,
76, 78,
77, 79,
80, 82,
81, 83,
84, 86,
85, 87,
88, 90,
89, 91,
92, 94,
93, 95,
96, 98,
97, 99,
24, 25,
24, 48,
37, 37,
43, 43,
49, 25,
25, 25,
44, 44,
25, 25,
48, 25,
25, 25,
25, 26,
25, 48,
25, 48,
25, 25,
25, 25,
25, 49,
29, 25,
29, 49,
48, 31,
25, 31,
29, 48,
29, 25,
43, 22,
44, 22,
22, 43,
22, 44</data>
	</layer>
</map>
