<?xml version="1.0" ?>
<map height="80" orientation="orthogonal" renderorder="right-down" tileheight="8" tilewidth="8" width="2">
	<!--Add tilesets as much as needed-->
	<tileset firstgid="1" tilewidth="8" tileheight="8">
		<image source="../../../gfx/tilesets/gfx_06b_5db0.png"/>
	</tileset>
	<tileset firstgid="69" tilewidth="8" tileheight="8">
		<image source="../../../gfx/tilesets/gfx_06b_61e0.png"/>
	</tileset>
	<layer height="80" id="1" name="metatiles" width="2">
		<data encoding="csv">
2, 4,
3, 5,
6, 8,
7, 9,
10, 12,
11, 13,
14, 16,
15, 17,
10, 12,
18, 13,
19, 12,
18, 13,
10, 12,
11, 14,
20, 12,
21, 13,
22, 24,
23, 25,
26, 28,
27, 29,
30, 32,
31, 33,
34, 36,
35, 37,
38, 40,
39, 41,
42, 44,
43, 45,
46, 48,
47, 49,
50, 52,
51, 53,
54, 56,
55, 57,
58, 59,
55, 57,
60, 62,
61, 63,
64, 66,
65, 67,
69, 71,
70, 72,
73, 75,
74, 76,
77, 77,
78, 77,
77, 77,
77, 79,
80, 82,
81, 83,
84, 86,
85, 87,
88, 90,
89, 91,
92, 94,
93, 95,
96, 98,
97, 99,
73, 75,
100, 101,
102, 104,
103, 105,
106, 108,
107, 109,
110, 112,
111, 113,
114, 116,
115, 117,
118, 77,
119, 77,
1, 1,
78, 1,
118, 1,
119, 1,
1, 1,
1, 79,
69, 71,
11, 72,
96, 98,
97, 13</data>
	</layer>
</map>
