<?xml version="1.0" ?>
<map height="138" orientation="orthogonal" renderorder="right-down" tileheight="8" tilewidth="8" width="2">
	<!--Add tilesets as much as needed-->
	<tileset firstgid="1" tileheight="8" tilewidth="8">
		<image source="../../../gfx/tilesets/image_17_578e.png"/>
	</tileset>
	<layer height="138" id="1" name="metatiles" width="2">
		<data encoding="csv">
2, 4,
3, 5,
6, 8,
7, 9,
10, 12,
11, 13,
14, 16,
15, 17,
18, 20,
19, 21,
22, 24,
23, 25,
26, 24,
27, 25,
26, 24,
28, 25,
22, 24,
27, 25,
29, 31,
30, 32,
31, 31,
32, 32,
31, 33,
32, 34,
32, 32,
32, 35,
32, 32,
36, 32,
29, 33,
30, 34,
29, 31,
37, 38,
31, 33,
36, 34,
32, 32,
36, 35,
30, 32,
30, 32,
32, 34,
32, 34,
32, 39,
32, 32,
40, 32,
32, 32,
40, 34,
38, 41,
40, 34,
32, 34,
40, 32,
36, 32,
40, 39,
32, 32,
30, 32,
37, 38,
32, 32,
38, 38,
32, 34,
38, 41,
30, 34,
30, 34,
31, 31,
38, 38,
29, 31,
30, 35,
31, 33,
38, 41,
32, 39,
32, 35,
30, 34,
37, 41,
30, 39,
37, 38,
42, 44,
43, 45,
44, 44,
45, 45,
44, 46,
45, 47,
48, 44,
49, 45,
48, 46,
49, 47,
50, 52,
51, 53,
42, 46,
43, 47,
54, 56,
55, 57,
58, 60,
59, 61,
48, 44,
62, 63,
44, 44,
62, 63,
44, 44,
64, 65,
66, 68,
67, 69,
70, 72,
71, 73,
32, 32,
32, 32,
75, 77,
76, 78,
77, 79,
78, 80,
81, 83,
82, 84,
83, 83,
84, 84,
83, 86,
85, 82,
87, 89,
88, 90,
91, 93,
92, 94,
95, 84,
96, 84,
84, 84,
84, 84,
84, 82,
84, 82,
97, 99,
98, 100,
101, 103,
102, 104,
82, 84,
105, 83,
84, 84,
83, 83,
84, 82,
83, 106,
107, 99,
108, 100,
109, 111,
110, 112,
87, 16,
88, 17</data>
	</layer>
</map>
