<?xml version="1.0" ?>
<map height="60" orientation="orthogonal" renderorder="right-down" tileheight="8" tilewidth="8" width="2">
	<!--Add tilesets as much as needed-->
	<tileset firstgid="1" tileheight="8" tilewidth="8">
		<image source="../../../gfx/tilesets/gfx_06b_48c0.2bpp"/>
	</tileset>
	<layer height="60" id="1" name="metatiles" width="2">
		<data encoding="csv">
2, 4,
3, 5,
6, 4,
3, 5,
7, 7,
7, 8,
7, 9,
7, 9,
7, 9,
7, 10,
7, 11,
7, 7,
7, 7,
12, 7,
6, 4,
3, 13,
7, 7,
7, 7,
14, 16,
15, 17,
18, 20,
19, 21,
22, 24,
23, 25,
7, 7,
26, 27,
28, 29,
7, 7,
7, 7,
30, 30,
31, 7,
32, 30,
18, 33,
19, 34,
2, 4,
35, 17,
36, 16,
35, 17,
6, 4,
15, 17,
37, 39,
38, 40,
41, 42,
41, 42,
41, 42,
15, 17,
43, 45,
44, 46,
47, 49,
48, 50,
43, 49,
44, 50,
7, 7,
43, 45,
7, 7,
47, 49,
44, 46,
7, 7,
48, 50,
7, 7</data>
	</layer>
</map>
