<?xml version="1.0" ?>
<map height="136" orientation="orthogonal" renderorder="right-down" tileheight="8" tilewidth="8" width="2">
	<!--Add tilesets as much as needed-->
	<tileset firstgid="1" tilewidth="8" tileheight="8">
		<image source="../../../gfx/tilesets/gfx_054_7380.png"/>
	</tileset>
	<layer height="136" id="1" name="metatiles" width="2">
		<data encoding="csv">
2, 4,
3, 5,
6, 8,
7, 9,
10, 10,
10, 11,
10, 10,
12, 10,
10, 13,
10, 10,
14, 10,
10, 10,
10, 13,
12, 10,
15, 17,
16, 10,
18, 19,
10, 10,
17, 20,
10, 21,
15, 20,
16, 21,
10, 22,
12, 22,
23, 17,
16, 11,
24, 13,
24, 10,
24, 10,
24, 10,
14, 10,
10, 11,
10, 22,
10, 22,
24, 22,
24, 22,
14, 13,
25, 26,
18, 19,
10, 11,
10, 13,
25, 26,
24, 10,
27, 26,
10, 10,
25, 26,
10, 22,
25, 28,
14, 22,
10, 22,
17, 20,
25, 29,
18, 19,
25, 26,
15, 17,
30, 26,
14, 10,
25, 26,
24, 22,
27, 28,
14, 10,
12, 10,
10, 13,
10, 11,
10, 10,
12, 11,
18, 19,
12, 10,
31, 33,
32, 34,
35, 37,
36, 38,
39, 41,
40, 42,
43, 45,
44, 46,
47, 45,
47, 46,
47, 45,
48, 46,
43, 45,
48, 46,
43, 45,
47, 46,
49, 51,
50, 52,
53, 55,
54, 56,
57, 59,
58, 60,
61, 63,
62, 64,
65, 67,
66, 68,
69, 70,
66, 71,
72, 73,
44, 74,
75, 77,
76, 46,
43, 79,
78, 80,
10, 10,
10, 10,
57, 59,
47, 60,
43, 73,
44, 46,
15, 17,
16, 11,
14, 22,
25, 28,
47, 45,
48, 79,
47, 63,
47, 64,
24, 10,
24, 11,
43, 61,
47, 62,
63, 79,
64, 80,
14, 13,
10, 10,
47, 57,
47, 58,
59, 45,
60, 46,
6, 8,
7, 9,
6, 8,
7, 9,
6, 8,
7, 9,
6, 8,
7, 9</data>
	</layer>
</map>
