<?xml version="1.0" ?>
<map height="158" orientation="orthogonal" renderorder="right-down" tileheight="8" tilewidth="8" width="2">
	<!--Add tilesets as much as needed-->
	<tileset firstgid="1" tileheight="8" tilewidth="8">
		<image source="../../../gfx/tilesets/image_17_5c1e.png"/>
	</tileset>
	<layer height="158" id="1" name="metatiles" width="2">
		<data encoding="csv">
2, 4,
3, 5,
6, 8,
7, 9,
10, 12,
11, 13,
12, 12,
13, 13,
12, 14,
13, 15,
13, 13,
13, 16,
13, 13,
17, 13,
10, 12,
18, 19,
12, 12,
20, 19,
12, 14,
17, 15,
12, 12,
17, 13,
11, 13,
11, 13,
13, 15,
13, 15,
13, 21,
13, 13,
22, 13,
13, 13,
11, 15,
11, 15,
11, 21,
11, 13,
13, 15,
17, 15,
11, 13,
18, 19,
13, 13,
20, 19,
13, 15,
20, 23,
24, 26,
25, 26,
24, 26,
24, 26,
24, 27,
24, 27,
28, 26,
28, 26,
29, 27,
29, 27,
28, 26,
24, 26,
30, 32,
31, 33,
34, 36,
35, 37,
38, 40,
39, 41,
42, 44,
43, 45,
46, 48,
47, 49,
50, 52,
51, 53,
54, 56,
55, 57,
58, 60,
59, 61,
42, 44,
62, 63,
30, 32,
64, 65,
66, 68,
67, 69,
70, 72,
71, 73,
74, 76,
75, 77,
78, 80,
79, 81,
13, 13,
13, 13,
83, 85,
84, 86,
87, 88,
84, 86,
89, 91,
90, 92,
93, 95,
94, 96,
97, 99,
98, 100,
101, 103,
102, 104,
105, 107,
106, 108,
109, 111,
110, 112,
113, 115,
114, 116,
117, 119,
118, 120,
121, 123,
122, 124,
125, 127,
126, 128,
129, 131,
130, 132,
114, 116,
133, 134,
22, 13,
13, 16,
13, 13,
17, 16,
22, 13,
17, 13,
13, 21,
20, 19,
12, 14,
20, 23,
13, 21,
13, 16,
12, 12,
13, 16,
22, 13,
20, 19,
13, 21,
17, 13,
28, 28,
28, 28,
10, 14,
11, 15,
22, 21,
13, 13,
42, 34,
43, 35,
36, 40,
37, 41,
26, 28,
26, 28,
10, 12,
11, 16,
22, 15,
20, 23,
28, 26,
28, 28,
6, 8,
7, 9,
6, 8,
7, 9,
6, 8,
7, 9,
6, 8,
7, 9,
6, 8,
7, 9</data>
	</layer>
</map>
