<?xml version="1.0" ?>
<map height="188" orientation="orthogonal" renderorder="right-down" tileheight="8" tilewidth="8" width="2">
	<!--Add tilesets as much as needed-->
	<tileset firstgid="1" tileheight="8" tilewidth="8">
		<image source="../../../gfx/tilesets/gfx_065_4000.png"/>
	</tileset>
	<layer height="188" id="1" name="metatiles" width="2">
		<data encoding="csv">
2, 4,
3, 5,
6, 8,
7, 9,
10, 12,
11, 13,
14, 16,
15, 17,
18, 20,
19, 21,
18, 23,
22, 24,
25, 27,
26, 28,
29, 27,
30, 28,
29, 31,
30, 32,
25, 31,
26, 32,
33, 34,
22, 35,
36, 20,
37, 35,
36, 23,
38, 38,
38, 38,
37, 24,
33, 38,
19, 38,
38, 34,
38, 21,
39, 41,
40, 42,
43, 45,
44, 46,
38, 38,
38, 47,
38, 38,
48, 38,
18, 23,
19, 38,
36, 20,
38, 21,
49, 51,
50, 52,
53, 55,
54, 56,
38, 22,
38, 38,
35, 38,
38, 38,
33, 38,
22, 24,
38, 34,
37, 35,
57, 59,
58, 60,
61, 63,
62, 64,
49, 66,
65, 67,
68, 66,
69, 67,
68, 66,
70, 67,
38, 38,
38, 38,
61, 72,
71, 73,
74, 76,
75, 75,
77, 79,
78, 80,
81, 83,
82, 84,
85, 87,
86, 88,
38, 38,
23, 24,
38, 19,
38, 21,
49, 66,
69, 67,
53, 55,
74, 76,
49, 66,
74, 76,
61, 72,
75, 73,
38, 22,
37, 24,
36, 23,
48, 38,
53, 55,
69, 56,
49, 61,
65, 71,
72, 66,
73, 67,
49, 51,
75, 52,
68, 59,
69, 60,
49, 59,
69, 60,
61, 63,
75, 64,
36, 23,
37, 24,
61, 63,
74, 76,
53, 55,
75, 56,
61, 72,
74, 76,
68, 72,
69, 73,
57, 59,
69, 60,
36, 23,
38, 47,
49, 66,
49, 51,
49, 49,
65, 50,
51, 66,
52, 67,
68, 49,
69, 50,
51, 61,
52, 71,
72, 49,
73, 50,
55, 66,
75, 67,
61, 72,
69, 73,
68, 55,
70, 56,
57, 59,
75, 60,
49, 66,
75, 67,
68, 55,
69, 56,
49, 51,
69, 52,
68, 63,
69, 64,
18, 23,
19, 47,
35, 38,
37, 24,
35, 34,
38, 21,
35, 38,
48, 38,
38, 22,
38, 47,
68, 63,
70, 64,
68, 51,
69, 52,
68, 59,
70, 60,
38, 38,
48, 47,
68, 51,
70, 52,
33, 34,
19, 21,
35, 34,
37, 35,
6, 8,
7, 9,
6, 8,
7, 9,
6, 8,
7, 9,
6, 8,
7, 9,
6, 8,
7, 9,
6, 8,
7, 9,
6, 8,
7, 9</data>
	</layer>
</map>
