<?xml version="1.0" ?>
<map height="6" orientation="orthogonal" renderorder="right-down" tileheight="32" tilewidth="32" width="12">
	<tileset firstgid="1" tileheight="32" tilewidth="32">
		<image source="../blocks/Blocks_050_7970.tmx"/>
	</tileset>
	<layer height="6" id="1" name="layout" width="12">
		<data encoding="csv">
1,2,3,1,1,1,1,1,1,1,1,1,
1,4,5,1,1,1,8,18,18,1,1,1,
1,1,6,7,1,8,19,20,21,22,1,18,
1,1,9,10,11,12,16,1,23,24,25,26,
1,1,2,13,14,15,1,1,17,27,28,29,
1,1,16,17,16,1,1,1,1,1,1,1</data>
	</layer>
</map>
