<?xml version="1.0" ?>
<map height="10" orientation="orthogonal" renderorder="right-down" tileheight="32" tilewidth="32" width="10">
	<tileset firstgid="1" tileheight="32" tilewidth="32">
		<image source="../blocks/Blocks_06a_71f9.tmx"/>
	</tileset>
	<layer height="10" id="1" name="layout" width="10">
		<data encoding="csv">
1,1,2,3,1,1,19,20,21,1,
1,4,5,6,7,22,23,24,25,26,
8,9,10,11,12,27,28,29,30,31,
13,14,12,12,12,12,12,12,32,33,
15,16,17,12,18,34,35,36,37,38,
39,40,41,37,42,56,57,22,12,52,
43,44,45,12,12,12,12,12,1,58,
46,47,25,48,12,12,59,34,35,60,
49,29,50,12,51,12,61,62,57,63,
1,52,53,54,55,64,65,66,53,1</data>
	</layer>
</map>
