<?xml version="1.0" ?>
<map height="15" orientation="orthogonal" renderorder="right-down" tileheight="32" tilewidth="32" width="15">
	<tileset firstgid="1" tileheight="32" tilewidth="32">
		<image source="../blocks/Blocks_06a_4558.tmx"/>
	</tileset>
	<layer height="15" id="1" name="layout" width="15">
		<data encoding="csv">
1,2,2,3,2,21,2,4,2,1,38,39,40,41,42,
4,5,6,7,8,22,23,2,24,25,43,44,45,46,47,
1,9,10,11,12,26,27,28,1,29,48,49,50,51,24,
2,13,14,15,16,30,31,24,5,32,31,52,53,54,55,
2,17,18,19,20,33,34,35,36,37,56,57,56,58,59,
60,61,62,63,64,84,85,86,87,88,48,105,106,107,108,
65,66,67,68,69,89,90,91,78,18,104,109,54,64,110,
70,71,72,73,74,92,93,94,95,96,64,111,112,113,114,
75,76,20,77,78,97,98,99,100,101,50,115,11,116,117,
79,80,81,82,83,102,103,78,18,104,118,119,104,120,63,
121,122,11,89,123,12,139,140,141,64,78,54,64,84,156,
78,124,125,126,127,142,31,89,143,144,157,158,135,159,160,
57,128,129,93,63,129,34,145,146,147,143,154,161,162,163,
130,131,132,133,134,148,112,66,149,150,164,165,166,167,138,
135,136,135,137,138,151,152,153,154,155,143,168,151,169,170</data>
	</layer>
</map>
