<?xml version="1.0" ?>
<map height="10" orientation="orthogonal" renderorder="right-down" tileheight="32" tilewidth="32" width="10">
	<tileset firstgid="1" tileheight="32" tilewidth="32">
		<image source="../blocks/Blocks_064_4c3f.tmx"/>
	</tileset>
	<layer height="10" id="1" name="layout" width="10">
		<data encoding="csv">
1,2,3,4,4,23,24,25,26,27,
5,6,7,8,9,28,29,30,31,32,
10,11,12,13,14,29,33,34,35,32,
15,12,16,17,18,36,37,38,39,40,
19,20,21,22,4,41,42,43,44,4,
45,46,13,47,4,64,65,66,67,68,
4,48,11,49,4,4,19,69,70,71,
50,51,52,53,54,72,73,74,75,40,
15,55,56,57,58,76,77,13,32,4,
59,60,61,62,63,78,79,80,81,4</data>
	</layer>
</map>
