<?xml version="1.0" ?>
<map height="12" orientation="orthogonal" renderorder="right-down" tileheight="32" tilewidth="32" width="12">
	<tileset firstgid="1" tileheight="32" tilewidth="32">
		<image source="../blocks/Blocks_057_5dff.tmx"/>
	</tileset>
	<layer height="12" id="1" name="layout" width="12">
		<data encoding="csv">
1,1,1,1,1,1,1,1,1,1,1,1,
1,1,1,1,1,1,1,1,1,1,1,10,
1,1,1,1,1,1,1,1,1,11,12,13,
2,3,1,1,1,1,1,1,1,14,15,16,
4,5,6,1,1,1,1,1,1,17,18,19,
7,8,9,1,1,1,1,1,1,1,1,1,
1,1,1,1,1,1,1,1,1,1,1,1,
1,1,1,1,1,1,1,1,1,1,1,1,
1,1,1,1,1,1,1,1,1,1,1,1,
1,1,1,1,1,20,3,1,1,1,1,1,
1,1,1,1,21,22,25,3,1,1,1,1,
1,1,1,1,23,24,26,27,6,1,1,1</data>
	</layer>
</map>
