<?xml version="1.0" ?>
<map height="12" orientation="orthogonal" renderorder="right-down" tileheight="32" tilewidth="32" width="6">
	<tileset firstgid="1" tileheight="32" tilewidth="32">
		<image source="../blocks/Blocks_064_7b15.tmx"/>
	</tileset>
	<layer height="12" id="1" name="layout" width="6">
		<data encoding="csv">
1,1,2,3,2,2,
1,1,4,5,6,7,
1,8,9,10,11,11,
1,4,12,13,13,13,
1,14,15,16,17,13,
18,9,19,20,21,13,
22,23,13,11,24,25,
26,27,28,13,29,30,
1,24,31,32,33,33,
1,34,35,36,37,38,
1,39,40,41,42,43,
44,44,45,46,47,48</data>
	</layer>
</map>
