<?xml version="1.0" ?>
<map height="10" orientation="orthogonal" renderorder="right-down" tileheight="32" tilewidth="32" width="10">
	<tileset firstgid="1" tileheight="32" tilewidth="32">
		<image source="../blocks/Blocks_057_52bd.tmx"/>
	</tileset>
	<layer height="10" id="1" name="layout" width="10">
		<data encoding="csv">
1,1,2,3,3,19,20,21,22,23,
1,4,5,6,7,24,25,26,27,28,
2,8,9,10,11,29,30,31,32,33,
12,13,14,15,16,34,35,36,23,1,
12,6,17,18,1,37,38,39,40,18,
12,41,42,23,1,4,56,57,58,59,
43,44,45,46,3,8,60,61,62,59,
1,47,48,45,49,63,64,65,66,67,
1,50,51,52,53,33,68,69,70,59,
1,34,54,55,1,1,71,72,73,74</data>
	</layer>
</map>
