<?xml version="1.0" ?>
<map height="15" orientation="orthogonal" renderorder="right-down" tileheight="32" tilewidth="32" width="10">
	<tileset firstgid="1" tileheight="32" tilewidth="32">
		<image source="../blocks/Blocks_06a_5679.tmx"/>
	</tileset>
	<layer height="15" id="1" name="layout" width="10">
		<data encoding="csv">
1,2,3,4,5,26,27,28,29,30,
6,7,8,9,10,31,32,33,34,35,
11,12,13,14,15,36,37,38,39,40,
16,17,18,19,20,41,42,43,44,45,
21,22,23,24,25,46,47,48,49,50,
51,52,53,54,55,73,74,75,76,77,
56,57,58,59,60,78,79,80,81,82,
61,51,62,63,64,83,27,84,85,86,
1,65,66,67,68,87,88,89,55,90,
69,7,70,71,72,91,92,93,94,1,
72,95,17,96,97,117,118,119,120,121,
98,99,100,101,102,3,122,123,124,125,
103,104,105,106,107,126,127,128,129,130,
108,57,109,110,111,131,132,133,115,134,
112,113,114,115,116,135,136,137,95,138</data>
	</layer>
</map>
