<?xml version="1.0" ?>
<map height="10" orientation="orthogonal" renderorder="right-down" tileheight="32" tilewidth="32" width="12">
	<tileset firstgid="1" tileheight="32" tilewidth="32">
		<image source="../blocks/Blocks_017_4501.tmx"/>
	</tileset>
	<layer height="10" id="1" name="layout" width="12">
		<data encoding="csv">
1,2,3,4,5,6,30,5,5,31,32,33,
7,8,9,10,11,12,34,35,36,30,37,38,
13,14,15,16,17,18,39,40,41,42,43,44,
19,20,21,22,23,24,45,45,19,46,47,48,
25,26,27,28,29,5,5,5,5,49,50,51,
32,52,53,54,55,56,43,56,12,43,72,73,
57,58,59,43,60,61,27,27,71,74,75,31,
1,62,63,64,65,32,53,76,77,13,78,79,
66,67,68,69,45,70,80,35,77,13,81,44,
19,71,71,65,45,19,82,83,77,19,84,38</data>
	</layer>
</map>
