<?xml version="1.0" ?>
<map height="6" orientation="orthogonal" renderorder="right-down" tileheight="32" tilewidth="32" width="10">
	<tileset firstgid="1" tileheight="32" tilewidth="32">
		<image source="../blocks/Blocks_017_4afa.tmx"/>
	</tileset>
	<layer height="6" id="1" name="layout" width="10">
		<data encoding="csv">
1,2,3,4,1,22,23,24,25,26,
1,5,6,7,8,27,28,29,30,26,
1,9,10,11,10,10,31,32,33,26,
12,4,13,14,15,34,35,36,37,38,
16,16,17,16,18,39,17,40,41,42,
19,19,20,19,21,1,43,19,44,26</data>
	</layer>
</map>
