<?xml version="1.0" ?>
<map height="12" orientation="orthogonal" renderorder="right-down" tileheight="32" tilewidth="32" width="18">
	<tileset firstgid="1" tileheight="32" tilewidth="32">
		<image source="../blocks/Blocks_064_5546.tmx"/>
	</tileset>
	<layer height="12" id="1" name="layout" width="18">
		<data encoding="csv">
1,2,3,4,5,6,32,33,34,34,35,32,32,62,2,63,35,64,
7,8,9,10,11,12,36,37,38,39,40,41,65,66,67,68,69,70,
13,14,14,15,16,14,42,43,44,45,46,47,71,72,73,74,75,76,
13,14,17,18,19,19,48,19,49,14,14,50,77,78,79,80,81,82,
20,21,22,23,24,25,51,52,53,54,55,56,83,82,84,85,86,87,
26,27,28,29,30,31,57,58,59,14,60,61,88,89,90,91,92,93,
94,84,14,14,95,96,116,117,118,119,120,121,28,89,129,134,135,136,
97,98,99,100,101,102,122,123,105,124,19,23,54,137,138,139,14,140,
103,40,41,104,105,106,125,126,40,41,90,91,141,142,143,144,145,146,
107,108,47,109,110,111,14,127,128,47,129,130,135,131,147,148,149,150,
13,84,14,14,112,113,19,84,131,132,133,124,14,151,152,147,19,153,
114,35,35,35,4,115,6,35,35,35,35,35,35,35,35,35,35,154</data>
	</layer>
</map>
