<?xml version="1.0" ?>
<map height="12" orientation="orthogonal" renderorder="right-down" tileheight="32" tilewidth="32" width="6">
	<tileset firstgid="1" tileheight="32" tilewidth="32">
		<image source="../blocks/Blocks_053_6fe5.tmx"/>
	</tileset>
	<layer height="12" id="1" name="layout" width="6">
		<data encoding="csv">
1,2,3,3,4,1,
1,5,6,6,7,1,
8,9,10,11,12,13,
8,14,15,15,16,13,
1,17,18,19,20,1,
1,21,22,23,1,1,
1,1,24,25,26,1,
1,1,27,28,29,1,
1,1,30,31,32,1,
1,8,33,34,35,1,
1,8,36,20,1,1,
1,8,14,13,1,1</data>
	</layer>
</map>
