<?xml version="1.0" ?>
<map height="12" orientation="orthogonal" renderorder="right-down" tileheight="32" tilewidth="32" width="6">
	<tileset firstgid="1" tileheight="32" tilewidth="32">
		<image source="../blocks/Blocks_064_5b66.tmx"/>
	</tileset>
	<layer height="12" id="1" name="layout" width="6">
		<data encoding="csv">
1,2,3,4,5,6,
7,8,9,10,11,12,
7,13,14,15,16,17,
7,13,14,18,19,20,
21,22,23,24,25,26,
27,27,1,28,29,26,
1,30,31,32,33,26,
7,34,33,35,36,37,
7,13,38,17,27,27,
7,13,39,40,20,27,
7,13,14,25,41,20,
21,23,42,43,14,26</data>
	</layer>
</map>
