<?xml version="1.0" ?>
<map height="10" orientation="orthogonal" renderorder="right-down" tileheight="32" tilewidth="32" width="12">
	<tileset firstgid="1" tileheight="32" tilewidth="32">
		<image source="../blocks/Blocks_064_59f5.tmx"/>
	</tileset>
	<layer height="10" id="1" name="layout" width="12">
		<data encoding="csv">
1,2,3,3,4,5,23,24,25,26,27,22,
6,7,8,9,10,11,28,29,30,30,30,22,
12,13,14,15,16,17,8,31,32,33,34,35,
12,18,19,20,14,14,14,36,37,29,13,14,
21,10,11,22,14,14,38,39,30,40,35,14,
15,41,42,43,44,45,60,55,58,61,62,63,
14,46,47,30,30,48,12,64,65,60,66,67,
49,50,5,51,52,53,12,68,69,70,10,71,
12,30,11,54,55,56,57,42,68,28,29,22,
57,42,58,8,8,59,15,72,73,8,8,74</data>
	</layer>
</map>
