<?xml version="1.0" ?>
<map height="12" orientation="orthogonal" renderorder="right-down" tileheight="32" tilewidth="32" width="12">
	<tileset firstgid="1" tileheight="32" tilewidth="32">
		<image source="../blocks/Blocks_053_54aa.tmx"/>
	</tileset>
	<layer height="12" id="1" name="layout" width="12">
		<data encoding="csv">
1,2,3,4,2,5,2,33,34,35,2,36,
6,7,8,9,7,10,7,37,21,38,7,39,
11,12,13,14,15,16,40,41,21,42,40,43,
17,18,19,20,21,22,44,21,45,46,47,48,
23,24,25,26,27,28,49,50,51,52,7,39,
6,7,29,30,31,32,31,31,53,54,55,43,
56,15,57,58,59,60,83,31,84,21,85,86,
17,61,62,63,64,31,31,87,88,89,90,91,
65,66,67,21,68,69,92,93,94,95,96,97,
70,71,72,73,74,75,21,98,99,100,101,102,
76,77,78,21,79,80,75,103,104,75,79,102,
81,82,82,82,82,82,105,106,82,82,82,107</data>
	</layer>
</map>
