<?xml version="1.0" ?>
<map height="10" orientation="orthogonal" renderorder="right-down" tileheight="32" tilewidth="32" width="10">
	<tileset firstgid="1" tileheight="32" tilewidth="32">
		<image source="../blocks/Blocks_06a_49e8.tmx"/>
	</tileset>
	<layer height="10" id="1" name="layout" width="10">
		<data encoding="csv">
1,2,3,4,5,24,25,26,27,28,
6,7,8,9,10,29,19,19,30,28,
11,12,13,14,15,31,32,33,34,35,
16,17,18,19,20,36,37,38,19,39,
21,16,22,12,23,40,41,42,43,44,
21,21,45,46,47,15,58,59,49,44,
48,5,49,20,50,60,56,32,19,61,
51,52,20,53,21,21,21,62,63,44,
6,19,54,21,21,21,4,64,65,44,
55,56,57,21,21,21,66,67,68,69</data>
	</layer>
</map>
