<?xml version="1.0" ?>
<map height="12" orientation="orthogonal" renderorder="right-down" tileheight="32" tilewidth="32" width="12">
	<tileset firstgid="1" tileheight="32" tilewidth="32">
		<image source="../blocks/Blocks_011_5e76.tmx"/>
	</tileset>
	<layer height="12" id="1" name="layout" width="12">
		<data encoding="csv">
1,2,3,4,5,5,5,5,5,1,3,4,
6,7,8,9,3,4,5,24,25,26,67,11,
6,10,8,8,8,11,5,6,27,28,29,11,
6,12,13,14,15,16,30,6,10,31,32,33,
17,18,18,19,10,8,34,26,10,35,25,36,
5,5,20,21,22,23,37,38,29,39,28,40,
5,5,41,42,11,43,51,51,51,51,52,53,
1,2,44,8,45,46,54,3,2,3,55,56,
6,10,8,8,8,8,8,8,8,57,58,59,
6,10,47,48,49,50,60,23,61,50,62,53,
6,10,8,8,8,8,53,63,8,8,8,64,
17,18,18,18,18,23,53,65,18,18,18,66</data>
	</layer>
</map>
