<?xml version="1.0" ?>
<map height="10" orientation="orthogonal" renderorder="right-down" tileheight="32" tilewidth="32" width="10">
	<tileset firstgid="1" tileheight="32" tilewidth="32">
		<image source="../blocks/Blocks_053_5e2a.tmx"/>
	</tileset>
	<layer height="10" id="1" name="layout" width="10">
		<data encoding="csv">
1,2,3,4,5,25,26,27,28,29,
6,7,8,9,10,30,31,32,33,34,
11,12,13,14,15,35,36,37,38,39,
16,17,18,19,20,40,41,42,43,44,
21,17,22,23,24,45,46,47,48,23,
49,50,51,52,53,73,74,75,76,77,
54,55,56,57,58,62,78,79,80,81,
59,60,61,62,63,82,83,84,74,85,
64,65,65,66,67,86,87,7,88,89,
68,69,70,71,72,90,17,91,92,20</data>
	</layer>
</map>
