<?xml version="1.0" ?>
<map height="15" orientation="orthogonal" renderorder="right-down" tileheight="32" tilewidth="32" width="15">
	<tileset firstgid="1" tileheight="32" tilewidth="32">
		<image source="../blocks/Blocks_011_54b9.tmx"/>
	</tileset>
	<layer height="15" id="1" name="layout" width="15">
		<data encoding="csv">
1,2,3,2,4,11,12,13,14,15,35,3,2,2,2,
2,2,2,4,2,16,17,18,19,20,36,37,2,2,4,
2,1,2,5,6,16,21,22,23,24,38,39,40,3,2,
2,2,2,7,8,25,26,27,28,29,41,14,42,2,43,
2,2,2,9,10,30,31,32,33,34,44,19,36,45,2,
3,46,47,48,49,66,67,68,69,16,61,89,38,90,91,
47,50,51,52,53,33,70,71,72,73,92,93,94,95,96,
54,55,56,57,58,74,75,76,77,78,97,98,99,100,101,
33,59,60,33,33,79,80,81,82,83,102,103,104,105,106,
61,62,63,64,65,84,85,86,87,88,10,107,108,109,110,
61,111,112,113,114,132,69,133,134,135,152,153,59,154,155,
115,116,69,48,117,136,137,92,138,139,156,157,158,159,160,
118,119,120,121,122,140,141,142,143,144,161,162,147,163,164,
123,124,125,126,127,145,146,147,148,149,165,166,167,168,169,
128,129,117,130,131,33,150,61,151,130,170,171,29,95,104</data>
	</layer>
</map>
