<?xml version="1.0" ?>
<map height="12" orientation="orthogonal" renderorder="right-down" tileheight="32" tilewidth="32" width="12">
	<tileset firstgid="1" tileheight="32" tilewidth="32">
		<image source="../blocks/Blocks_057_6bac.tmx"/>
	</tileset>
	<layer height="12" id="1" name="layout" width="12">
		<data encoding="csv">
1,2,3,4,5,6,5,36,37,38,39,40,
7,8,9,10,8,11,8,9,41,42,43,44,
12,13,14,15,16,17,45,46,47,48,49,50,
18,19,20,21,22,23,51,52,53,54,8,55,
24,25,26,27,28,29,56,57,58,59,16,60,
30,31,32,33,34,35,61,62,63,64,65,66,
67,8,68,69,70,71,98,99,100,101,102,103,
72,73,74,75,76,77,104,105,106,107,108,109,
78,79,80,81,82,10,8,68,110,111,112,113,
7,8,9,83,84,85,114,115,116,117,118,119,
86,87,88,89,90,91,120,121,122,21,123,103,
92,93,94,95,96,97,124,24,125,126,96,127</data>
	</layer>
</map>
