<?xml version="1.0" ?>
<map height="15" orientation="orthogonal" renderorder="right-down" tileheight="32" tilewidth="32" width="10">
	<tileset firstgid="1" tileheight="32" tilewidth="32">
		<image source="../blocks/Blocks_06a_5938.tmx"/>
	</tileset>
	<layer height="15" id="1" name="layout" width="10">
		<data encoding="csv">
1,2,3,1,4,25,26,27,28,29,
5,6,7,8,9,30,31,32,33,34,
10,11,12,13,14,35,36,37,38,39,
15,16,17,18,19,40,41,42,43,44,
20,21,22,23,24,45,46,47,48,49,
50,51,52,53,54,73,74,75,76,31,
55,26,56,57,58,31,77,78,79,29,
59,60,61,62,63,80,9,81,82,83,
64,65,66,32,67,84,85,86,87,88,
68,69,70,71,72,89,90,74,91,92,
93,94,13,66,95,50,112,113,114,115,
96,43,97,98,99,116,14,117,118,119,
100,101,102,1,103,73,120,121,122,123,
104,105,106,107,85,124,125,126,127,128,
108,109,110,61,111,126,45,45,45,129</data>
	</layer>
</map>
