<?xml version="1.0" ?>
<map height="15" orientation="orthogonal" renderorder="right-down" tileheight="32" tilewidth="32" width="12">
	<tileset firstgid="1" tileheight="32" tilewidth="32">
		<image source="../blocks/Blocks_011_4ef7.tmx"/>
	</tileset>
	<layer height="15" id="1" name="layout" width="12">
		<data encoding="csv">
1,1,2,3,1,4,9,20,21,22,22,22,
1,2,3,4,4,5,23,24,10,25,26,27,
3,1,2,6,7,8,28,22,22,29,30,31,
9,10,4,11,12,13,12,3,1,32,11,12,
14,15,16,17,18,19,33,4,34,16,17,14,
4,32,22,35,36,37,18,16,57,58,59,3,
38,39,1,40,41,42,60,61,62,63,64,3,
43,44,45,12,12,46,43,65,66,67,68,69,
47,48,49,50,8,51,70,33,2,71,72,2,
52,53,54,55,43,56,73,74,9,75,76,45,
77,19,78,79,80,19,86,87,12,88,89,90,
22,37,81,82,21,37,91,92,93,94,95,96,
1,2,67,27,2,69,97,98,99,100,101,3,
1,2,83,84,3,2,69,102,103,104,105,106,
1,1,2,85,3,1,1,22,22,107,108,63</data>
	</layer>
</map>
