<?xml version="1.0" ?>
<map height="15" orientation="orthogonal" renderorder="right-down" tileheight="32" tilewidth="32" width="15">
	<tileset firstgid="1" tileheight="32" tilewidth="32">
		<image source="../blocks/Blocks_057_4252.tmx"/>
	</tileset>
	<layer height="15" id="1" name="layout" width="15">
		<data encoding="csv">
1,2,1,3,1,5,9,19,1,3,1,1,1,3,5,
4,1,1,5,1,20,21,12,22,23,6,39,40,41,3,
1,6,7,8,9,24,25,26,27,28,42,43,44,45,1,
10,11,12,13,14,29,30,31,32,33,46,47,48,49,5,
1,15,16,17,18,34,35,36,37,38,50,51,52,49,1,
4,15,53,54,55,72,73,74,75,55,90,91,92,93,94,
1,56,57,58,59,76,32,31,77,78,95,96,97,98,99,
3,60,61,62,50,79,59,80,81,82,100,101,102,103,104,
5,63,64,65,66,72,83,74,84,85,105,106,107,108,109,
67,68,69,70,71,86,87,31,88,89,110,12,111,112,113,
114,12,50,115,116,12,130,131,132,132,146,74,147,148,149,
117,118,16,119,120,72,85,133,134,120,32,31,121,32,150,
56,121,108,122,123,55,133,135,136,137,151,152,153,154,150,
124,125,126,127,128,138,139,140,12,141,155,148,156,157,150,
32,66,72,129,128,142,143,12,144,145,158,32,66,119,150</data>
	</layer>
</map>
