<?xml version="1.0" ?>
<map height="12" orientation="orthogonal" renderorder="right-down" tileheight="32" tilewidth="32" width="12">
	<tileset firstgid="1" tileheight="32" tilewidth="32">
		<image source="../blocks/Blocks_057_6385.tmx"/>
	</tileset>
	<layer height="12" id="1" name="layout" width="12">
		<data encoding="csv">
1,2,3,4,5,6,31,32,33,11,34,6,
7,8,9,10,11,12,35,10,36,37,38,39,
7,13,14,15,16,11,40,41,42,43,16,44,
7,13,17,18,19,20,28,45,26,21,22,46,
21,22,10,23,24,25,47,48,26,49,50,46,
26,27,20,28,29,30,51,52,26,7,13,53,
49,3,54,4,55,56,70,71,25,72,58,73,
57,58,10,10,11,17,74,11,75,10,10,46,
59,41,60,15,16,10,10,36,37,76,77,78,
59,61,62,63,64,60,79,80,35,65,33,39,
59,10,65,33,39,26,81,11,75,82,28,69,
66,67,20,68,69,26,83,84,28,85,26,26</data>
	</layer>
</map>
