<?xml version="1.0" ?>
<map height="10" orientation="orthogonal" renderorder="right-down" tileheight="32" tilewidth="32" width="10">
	<tileset firstgid="1" tileheight="32" tilewidth="32">
		<image source="../blocks/Blocks_050_7432.tmx"/>
	</tileset>
	<layer height="10" id="1" name="layout" width="10">
		<data encoding="csv">
1,1,1,2,2,2,2,1,1,1,
1,3,4,5,6,20,21,22,23,24,
1,7,8,9,10,25,26,27,28,29,
11,12,13,14,15,30,31,32,33,29,
11,16,17,18,19,34,35,36,37,38,
11,39,10,40,41,52,53,38,1,1,
42,43,44,45,46,54,55,2,1,1,
1,42,47,48,49,10,56,57,55,1,
1,1,42,50,51,58,59,10,60,29,
1,1,1,1,1,61,62,62,62,1</data>
	</layer>
</map>
