<?xml version="1.0" ?>
<map height="12" orientation="orthogonal" renderorder="right-down" tileheight="32" tilewidth="32" width="12">
	<tileset firstgid="1" tileheight="32" tilewidth="32">
		<image source="../blocks/Blocks_057_6f71.tmx"/>
	</tileset>
	<layer height="12" id="1" name="layout" width="12">
		<data encoding="csv">
1,2,3,4,5,6,5,36,37,38,39,40,
7,8,9,10,8,11,8,9,41,42,43,44,
12,13,14,15,16,17,45,46,47,48,49,50,
18,19,20,21,22,23,51,52,53,54,8,55,
24,25,26,27,28,29,56,57,58,59,16,60,
30,31,32,33,34,35,61,62,63,64,65,66,
67,68,69,70,71,72,99,100,101,102,103,104,
73,74,75,76,77,78,105,106,107,108,109,110,
79,80,81,82,83,10,8,111,112,113,114,115,
7,8,9,84,85,86,116,117,118,119,120,121,
87,88,89,90,91,92,122,123,124,21,125,104,
93,94,95,96,97,98,126,24,127,128,97,129</data>
	</layer>
</map>
