<?xml version="1.0" ?>
<map height="10" orientation="orthogonal" renderorder="right-down" tileheight="32" tilewidth="32" width="10">
	<tileset firstgid="1" tileheight="32" tilewidth="32">
		<image source="../blocks/Blocks_053_5008.tmx"/>
	</tileset>
	<layer height="10" id="1" name="layout" width="10">
		<data encoding="csv">
1,2,3,3,4,16,3,3,17,18,
5,6,6,6,6,6,6,6,6,11,
5,7,8,9,10,19,19,19,15,11,
5,6,6,6,11,20,21,22,5,11,
12,13,14,15,11,23,24,25,5,11,
26,6,27,28,29,44,6,45,5,11,
5,30,31,32,33,46,30,47,5,11,
5,34,35,36,37,48,49,21,50,11,
5,38,39,40,41,33,33,51,52,11,
42,43,43,43,43,43,43,43,43,53</data>
	</layer>
</map>
