<?xml version="1.0" ?>
<map height="12" orientation="orthogonal" renderorder="right-down" tileheight="32" tilewidth="32" width="12">
	<tileset firstgid="1" tileheight="32" tilewidth="32">
		<image source="../blocks/Blocks_053_40e1.tmx"/>
	</tileset>
	<layer height="12" id="1" name="layout" width="12">
		<data encoding="csv">
1,2,3,4,5,6,32,1,2,3,33,6,
7,8,9,10,11,12,32,34,35,36,37,12,
13,14,15,16,17,12,32,38,39,40,41,42,
18,19,20,21,21,22,32,18,43,44,45,32,
23,24,25,26,27,12,46,47,48,49,32,32,
28,21,21,29,30,31,50,51,52,12,32,32,
53,26,54,55,56,57,72,43,73,74,75,32,
58,59,16,60,12,18,43,76,34,77,78,75,
61,62,63,16,12,18,79,80,34,81,82,83,
34,64,65,66,12,18,84,85,86,87,88,89,
34,67,68,69,42,58,90,91,92,93,51,94,
70,71,45,32,32,32,70,95,96,69,69,97</data>
	</layer>
</map>
