<?xml version="1.0" ?>
<map height="10" orientation="orthogonal" renderorder="right-down" tileheight="32" tilewidth="32" width="10">
	<tileset firstgid="1" tileheight="32" tilewidth="32">
		<image source="../blocks/Blocks_064_507d.tmx"/>
	</tileset>
	<layer height="10" id="1" name="layout" width="10">
		<data encoding="csv">
1,2,3,4,5,26,26,27,28,29,
6,7,8,9,10,26,30,31,32,33,
11,12,13,14,15,34,16,35,36,37,
16,17,18,19,20,38,39,40,41,42,
21,22,23,24,25,43,44,45,46,10,
47,48,49,50,51,5,69,70,71,72,
16,35,52,35,53,73,74,75,52,10,
54,55,56,57,58,76,77,46,35,78,
59,60,61,62,63,1,79,35,80,81,
64,65,66,67,68,6,67,67,82,26</data>
	</layer>
</map>
