<?xml version="1.0" ?>
<map height="10" orientation="orthogonal" renderorder="right-down" tileheight="32" tilewidth="32" width="10">
	<tileset firstgid="1" tileheight="32" tilewidth="32">
		<image source="../blocks/Blocks_057_5452.tmx"/>
	</tileset>
	<layer height="10" id="1" name="layout" width="10">
		<data encoding="csv">
1,2,3,4,4,25,26,26,27,4,
5,6,7,8,9,28,29,30,31,32,
10,11,12,13,14,33,34,35,36,37,
15,16,17,18,19,38,39,40,41,42,
20,21,22,23,24,4,20,43,44,4,
45,46,47,4,4,25,57,58,59,4,
48,49,50,47,4,15,60,61,62,9,
51,52,53,54,4,15,63,64,65,66,
4,55,23,56,4,67,68,69,70,71,
4,4,4,4,4,4,4,67,23,24</data>
	</layer>
</map>
