<?xml version="1.0" ?>
<map height="10" orientation="orthogonal" renderorder="right-down" tileheight="32" tilewidth="32" width="10">
	<tileset firstgid="1" tileheight="32" tilewidth="32">
		<image source="../blocks/Blocks_06a_4b65.tmx"/>
	</tileset>
	<layer height="10" id="1" name="layout" width="10">
		<data encoding="csv">
1,2,3,4,5,26,27,28,29,30,
6,7,8,9,10,31,22,32,19,33,
11,12,13,14,15,34,35,24,36,37,
16,17,18,19,20,38,39,40,41,42,
21,22,23,24,25,43,19,20,44,45,
46,47,48,49,49,63,64,65,44,66,
50,8,51,52,49,67,68,69,70,71,
53,54,55,56,57,72,73,74,75,42,
46,8,58,13,38,76,19,77,78,79,
59,60,61,62,25,60,60,80,81,49</data>
	</layer>
</map>
