<?xml version="1.0" ?>
<map height="10" orientation="orthogonal" renderorder="right-down" tileheight="32" tilewidth="32" width="10">
	<tileset firstgid="1" tileheight="32" tilewidth="32">
		<image source="../blocks/Blocks_053_4edf.tmx"/>
	</tileset>
	<layer height="10" id="1" name="layout" width="10">
		<data encoding="csv">
1,2,3,3,4,15,3,3,16,17,
5,6,6,6,6,6,6,6,6,18,
5,7,8,9,10,10,19,20,10,21,
5,11,5,6,6,6,6,6,6,11,
5,12,13,7,14,14,22,23,24,11,
5,25,26,27,28,38,5,39,5,11,
5,11,5,29,30,40,5,12,13,11,
5,31,32,33,33,41,32,42,26,11,
5,34,30,35,35,35,43,44,5,11,
36,37,37,37,37,45,37,46,36,46</data>
	</layer>
</map>
