<?xml version="1.0" ?>
<map height="8" orientation="orthogonal" renderorder="right-down" tileheight="32" tilewidth="32" width="10">
	<tileset firstgid="1" tileheight="32" tilewidth="32">
		<image source="../blocks/Blocks_017_40b5.tmx"/>
	</tileset>
	<layer height="8" id="1" name="layout" width="10">
		<data encoding="csv">
1,1,1,1,1,1,1,17,3,3,
2,3,4,5,6,1,17,18,19,20,
7,8,9,10,11,21,22,23,24,25,
12,13,14,15,16,26,27,28,29,1,
1,7,30,9,31,39,40,41,42,1,
2,32,33,34,35,7,38,43,44,3,
7,36,9,37,29,1,45,46,23,19,
7,38,37,1,1,1,1,25,25,25</data>
	</layer>
</map>
