<?xml version="1.0" ?>
<map height="5" orientation="orthogonal" renderorder="right-down" tileheight="32" tilewidth="32" width="18">
	<tileset firstgid="1" tileheight="32" tilewidth="32">
		<image source="../blocks/Blocks_064_7169.tmx"/>
	</tileset>
	<layer height="5" id="1" name="layout" width="18">
		<data encoding="csv">
1,2,3,4,5,6,27,28,29,30,31,32,29,30,44,38,45,46,
7,8,9,4,10,11,11,11,33,24,34,22,47,48,49,18,50,51,
10,12,13,2,14,15,35,36,37,2,38,29,28,52,53,54,11,51,
16,17,18,19,20,21,30,39,40,41,18,42,11,11,11,55,35,56,
22,23,24,24,25,26,43,24,24,24,24,25,35,35,35,57,4,4</data>
	</layer>
</map>
