<?xml version="1.0" ?>
<map height="12" orientation="orthogonal" renderorder="right-down" tileheight="32" tilewidth="32" width="6">
	<tileset firstgid="1" tileheight="32" tilewidth="32">
		<image source="../blocks/Blocks_011_6f10.tmx"/>
	</tileset>
	<layer height="12" id="1" name="layout" width="6">
		<data encoding="csv">
1,2,2,3,4,2,
5,2,6,7,8,2,
9,10,11,12,13,14,
2,15,16,2,2,17,
2,18,19,20,2,21,
2,22,23,24,20,2,
2,2,25,26,24,2,
2,27,28,25,29,2,
2,30,31,32,33,2,
2,34,35,36,37,2,
2,38,39,39,40,2,
2,22,21,21,41,2</data>
	</layer>
</map>
