<?xml version="1.0" ?>
<map height="10" orientation="orthogonal" renderorder="right-down" tileheight="32" tilewidth="32" width="10">
	<tileset firstgid="1" tileheight="32" tilewidth="32">
		<image source="../blocks/Blocks_053_4cd5.tmx"/>
	</tileset>
	<layer height="10" id="1" name="layout" width="10">
		<data encoding="csv">
1,2,3,3,4,13,3,3,14,15,
5,6,6,6,6,6,6,6,6,11,
5,7,8,9,10,16,17,18,19,11,
5,11,5,6,6,6,6,11,20,11,
5,11,5,7,12,12,21,11,22,11,
5,11,5,23,24,24,28,37,38,11,
5,11,5,25,26,31,31,32,39,11,
5,27,28,29,29,40,34,34,34,41,
5,30,31,31,32,42,43,43,43,43,
33,34,34,35,36,11,43,43,43,43</data>
	</layer>
</map>
