<?xml version="1.0" ?>
<map height="15" orientation="orthogonal" renderorder="right-down" tileheight="32" tilewidth="32" width="15">
	<tileset firstgid="1" tileheight="32" tilewidth="32">
		<image source="../blocks/Blocks_057_4864.tmx"/>
	</tileset>
	<layer height="15" id="1" name="layout" width="15">
		<data encoding="csv">
1,2,1,3,1,5,9,18,1,3,1,1,1,3,5,
4,1,1,5,1,19,20,11,21,22,6,38,39,40,41,
1,6,7,8,9,23,24,25,26,27,42,43,44,45,1,
2,10,11,12,13,28,29,30,31,32,46,47,48,49,5,
1,14,15,16,17,33,34,35,36,37,50,51,52,49,1,
4,14,53,54,55,72,73,74,75,55,90,91,92,93,94,
1,56,57,58,59,76,31,30,77,78,95,96,97,98,99,
3,60,61,62,50,79,59,80,81,82,100,101,102,103,104,
5,63,64,65,66,72,83,74,84,85,105,106,107,108,109,
67,68,69,70,71,86,87,30,88,89,110,11,111,112,113,
10,11,50,114,115,11,129,130,131,131,147,74,148,149,150,
116,117,15,118,119,72,85,132,133,119,31,30,120,31,151,
56,120,108,121,122,55,132,134,135,136,152,153,154,155,151,
123,124,125,126,127,137,138,139,140,141,156,149,157,158,151,
31,66,72,128,127,142,143,144,145,146,159,31,66,118,151</data>
	</layer>
</map>
