<?xml version="1.0" ?>
<map height="15" orientation="orthogonal" renderorder="right-down" tileheight="32" tilewidth="32" width="10">
	<tileset firstgid="1" tileheight="32" tilewidth="32">
		<image source="../blocks/Blocks_06a_53d6.tmx"/>
	</tileset>
	<layer height="15" id="1" name="layout" width="10">
		<data encoding="csv">
1,2,3,4,5,24,25,26,13,27,
6,7,8,8,9,28,29,30,31,32,
10,11,12,13,14,33,34,35,36,37,
15,16,17,18,19,38,39,40,41,42,
20,21,22,5,23,43,44,45,46,47,
48,49,50,51,52,69,25,70,71,12,
53,54,55,56,57,13,72,73,74,75,
15,16,58,59,60,28,76,77,78,79,
61,21,62,63,21,80,81,82,83,84,
64,65,66,67,68,85,14,86,87,88,
89,90,91,28,92,110,111,112,113,114,
93,94,95,96,97,115,116,117,118,119,
98,79,99,100,59,120,121,122,123,124,
101,102,103,104,105,40,80,59,125,126,
106,107,108,109,110,127,128,129,130,131</data>
	</layer>
</map>
