<?xml version="1.0" ?>
<map height="10" orientation="orthogonal" renderorder="right-down" tileheight="32" tilewidth="32" width="10">
	<tileset firstgid="1" tileheight="32" tilewidth="32">
		<image source="../blocks/Blocks_064_4aa2.tmx"/>
	</tileset>
	<layer height="10" id="1" name="layout" width="10">
		<data encoding="csv">
1,2,3,4,5,23,24,25,26,27,
6,7,8,9,10,28,29,30,14,31,
11,12,13,14,15,32,33,34,35,36,
16,14,17,18,19,37,38,39,40,4,
6,20,21,22,4,4,4,41,42,43,
6,44,45,46,9,64,65,47,66,67,
47,48,49,50,51,33,68,69,70,31,
52,53,54,55,56,70,33,71,72,73,
57,58,59,31,4,37,74,75,17,76,
60,61,62,63,4,4,77,21,21,22</data>
	</layer>
</map>
