<?xml version="1.0" ?>
<map height="12" orientation="orthogonal" renderorder="right-down" tileheight="32" tilewidth="32" width="12">
	<tileset firstgid="1" tileheight="32" tilewidth="32">
		<image source="../blocks/Blocks_057_5fe7.tmx"/>
	</tileset>
	<layer height="12" id="1" name="layout" width="12">
		<data encoding="csv">
1,2,3,4,5,5,5,5,5,31,32,33,
6,7,8,9,10,11,34,35,36,26,37,38,
12,13,13,9,14,15,13,13,39,40,41,42,
16,17,18,19,20,21,43,44,13,13,45,46,
22,23,24,25,13,9,47,48,44,13,49,5,
26,27,28,29,29,30,5,47,29,50,51,5,
52,41,53,5,5,1,3,4,5,12,51,5,
12,54,55,56,34,57,62,63,5,12,64,33,
12,58,59,40,41,21,65,66,67,12,13,51,
12,13,60,41,13,9,12,68,69,70,71,51,
16,44,13,61,29,30,12,13,13,62,15,72,
47,29,50,51,5,5,73,29,29,74,75,46</data>
	</layer>
</map>
