<?xml version="1.0" ?>
<map height="6" orientation="orthogonal" renderorder="right-down" tileheight="32" tilewidth="32" width="12">
	<tileset firstgid="1" tileheight="32" tilewidth="32">
		<image source="../blocks/Blocks_057_5a73.tmx"/>
	</tileset>
	<layer height="6" id="1" name="layout" width="12">
		<data encoding="csv">
1,2,3,3,3,4,4,4,3,3,3,3,
5,6,3,3,3,7,21,22,23,3,3,3,
8,9,3,3,4,10,24,25,26,27,28,3,
1,11,12,13,14,15,3,3,29,30,31,13,
1,16,17,18,19,16,3,3,25,24,32,33,
1,1,20,1,1,1,3,3,3,3,3,3</data>
	</layer>
</map>
