<?xml version="1.0" ?>
<map height="15" orientation="orthogonal" renderorder="right-down" tileheight="32" tilewidth="32" width="12">
	<tileset firstgid="1" tileheight="32" tilewidth="32">
		<image source="../blocks/Blocks_050_4466.tmx"/>
	</tileset>
	<layer height="15" id="1" name="layout" width="12">
		<data encoding="csv">
1,2,3,4,5,6,30,31,32,33,34,35,
7,8,9,10,11,12,36,37,38,39,40,41,
13,14,15,16,17,18,42,43,44,45,46,47,
19,7,20,21,22,23,48,49,50,51,21,52,
24,25,26,27,28,29,53,34,54,55,56,57,
58,59,60,61,62,63,87,88,89,44,90,91,
64,65,66,67,68,69,92,93,94,11,95,96,
70,71,7,72,73,74,97,98,99,100,101,102,
75,76,77,78,79,80,103,104,105,106,107,108,
81,82,83,84,85,86,109,110,111,112,113,7,
114,115,116,117,114,118,138,113,139,140,141,142,
119,120,121,122,123,124,143,144,145,146,147,148,
125,126,17,127,66,128,149,150,151,152,153,154,
129,33,130,131,132,7,75,155,156,157,158,102,
133,134,126,135,136,137,159,160,161,162,163,164</data>
	</layer>
</map>
