<?xml version="1.0" ?>
<map height="15" orientation="orthogonal" renderorder="right-down" tileheight="32" tilewidth="32" width="15">
	<tileset firstgid="1" tileheight="32" tilewidth="32">
		<image source="../blocks/Blocks_050_580e.tmx"/>
	</tileset>
	<layer height="15" id="1" name="layout" width="15">
		<data encoding="csv">
1,2,3,4,5,23,24,25,26,27,47,48,47,48,49,
6,7,8,9,10,28,29,30,31,32,50,51,52,53,54,
6,11,12,13,14,33,34,35,36,37,55,56,57,58,59,
6,15,16,12,17,38,39,40,41,42,60,61,62,63,64,
18,19,20,21,22,43,44,12,45,46,65,66,67,68,69,
70,71,72,73,74,90,91,12,45,92,109,110,111,112,113,
75,76,77,78,79,93,94,12,45,95,114,74,115,116,117,
12,12,12,12,80,96,97,98,99,100,118,80,119,120,121,
81,82,83,84,85,101,102,103,104,12,122,123,124,125,126,
86,87,88,87,89,105,101,106,107,108,127,76,128,129,126,
130,131,132,133,134,78,127,8,111,150,160,76,161,158,126,
135,136,137,99,138,151,152,153,154,155,162,76,163,10,54,
139,140,141,142,143,142,156,85,138,157,164,8,165,166,167,
144,145,146,147,148,82,158,82,159,82,168,76,169,158,126,
149,5,5,5,5,5,5,5,5,5,2,170,171,5,172</data>
	</layer>
</map>
