<?xml version="1.0" ?>
<map height="10" orientation="orthogonal" renderorder="right-down" tileheight="32" tilewidth="32" width="10">
	<tileset firstgid="1" tileheight="32" tilewidth="32">
		<image source="../blocks/Blocks_06a_4ec3.tmx"/>
	</tileset>
	<layer height="10" id="1" name="layout" width="10">
		<data encoding="csv">
1,1,2,3,4,19,20,21,22,23,
1,5,6,7,8,24,25,10,26,17,
2,9,10,11,12,7,10,27,6,17,
13,10,14,15,16,28,29,30,31,32,
13,17,1,1,18,33,34,35,36,37,
38,39,40,41,42,29,1,30,62,17,
43,44,45,46,47,63,64,65,66,67,
48,49,50,51,52,68,69,70,71,17,
53,54,7,55,56,12,7,7,10,72,
57,58,59,60,61,73,74,75,76,1</data>
	</layer>
</map>
