<?xml version="1.0" ?>
<map height="12" orientation="orthogonal" renderorder="right-down" tileheight="32" tilewidth="32" width="12">
	<tileset firstgid="1" tileheight="32" tilewidth="32">
		<image source="../blocks/Blocks_050_69e1.tmx"/>
	</tileset>
	<layer height="12" id="1" name="layout" width="12">
		<data encoding="csv">
1,1,1,1,2,3,17,18,1,1,1,1,
1,1,1,2,4,5,19,20,18,1,1,1,
1,1,2,4,6,7,21,22,20,18,1,1,
1,1,8,9,10,10,10,23,24,25,1,1,
1,1,8,11,12,13,26,13,27,25,1,1,
1,1,14,15,16,10,10,28,29,30,1,1,
31,32,33,34,35,36,48,35,30,1,49,50,
37,38,66,39,18,37,51,52,17,18,53,54,
37,10,10,40,25,41,55,10,10,56,57,58,
37,42,10,43,25,44,35,15,59,60,61,58,
44,45,46,47,25,1,1,62,63,64,64,65,
1,44,35,35,30,1,1,1,1,1,1,1</data>
	</layer>
</map>
