<?xml version="1.0" ?>
<map height="12" orientation="orthogonal" renderorder="right-down" tileheight="32" tilewidth="32" width="12">
	<tileset firstgid="1" tileheight="32" tilewidth="32">
		<image source="../blocks/Blocks_050_66bc.tmx"/>
	</tileset>
	<layer height="12" id="1" name="layout" width="12">
		<data encoding="csv">
1,2,3,4,5,6,3,26,3,26,27,18,
1,7,8,9,10,11,28,29,30,28,31,22,
1,12,13,14,14,14,32,33,34,35,24,22,
1,15,16,17,18,1,36,37,38,39,40,22,
1,19,20,21,22,1,41,42,43,44,45,22,
1,23,24,25,22,1,46,47,48,14,49,50,
1,51,52,53,50,54,3,3,18,1,1,1,
1,1,55,56,3,57,67,68,22,2,27,18,
2,58,59,28,60,61,28,69,22,7,62,22,
7,62,61,28,28,63,70,71,72,39,40,22,
64,65,65,65,66,42,28,29,10,44,45,22,
1,1,1,1,46,65,65,73,14,14,49,50</data>
	</layer>
</map>
