<?xml version="1.0" ?>
<map height="10" orientation="orthogonal" renderorder="right-down" tileheight="32" tilewidth="32" width="12">
	<tileset firstgid="1" tileheight="32" tilewidth="32">
		<image source="../blocks/Blocks_011_7085.tmx"/>
	</tileset>
	<layer height="10" id="1" name="layout" width="12">
		<data encoding="csv">
1,2,1,1,1,3,19,1,1,20,21,22,
4,5,6,1,1,7,23,1,20,24,25,22,
1,8,9,10,1,11,13,1,26,27,28,22,
1,12,2,13,14,15,6,29,30,31,32,22,
4,16,5,1,17,18,33,34,35,36,37,22,
38,39,40,1,41,42,59,60,61,62,22,22,
43,44,20,45,46,47,1,63,47,64,22,22,
48,49,50,51,40,52,1,65,66,67,68,69,
53,54,55,56,1,1,1,1,70,71,72,73,
57,58,13,1,1,1,1,1,59,13,13,74</data>
	</layer>
</map>
