<?xml version="1.0" ?>
<map height="24" orientation="orthogonal" renderorder="right-down" tileheight="32" tilewidth="32" width="6">
	<tileset firstgid="1" tileheight="32" tilewidth="32">
		<image source="../blocks/Blocks_057_7741.tmx"/>
	</tileset>
	<layer height="24" id="1" name="layout" width="6">
		<data encoding="csv">
1,1,1,2,3,1,
1,1,4,5,6,1,
1,7,8,9,10,1,
1,11,12,10,1,1,
1,13,3,1,1,1,
1,14,6,1,1,1,
1,15,16,17,18,18,
1,19,20,21,22,23,
1,1,1,10,24,3,
1,1,1,1,25,26,
1,1,1,27,28,29,
1,1,1,27,30,1,
1,1,1,31,5,1,
1,1,32,33,34,1,
1,31,35,36,37,1,
1,38,39,1,1,1,
1,2,40,1,1,1,
18,41,42,18,18,18,
10,43,8,44,41,10,
1,1,45,46,47,1,
1,1,1,48,49,1,
1,1,18,50,51,1,
32,52,53,41,6,1,
54,55,29,10,10,1</data>
	</layer>
</map>
