<?xml version="1.0" ?>
<map height="12" orientation="orthogonal" renderorder="right-down" tileheight="32" tilewidth="32" width="12">
	<tileset firstgid="1" tileheight="32" tilewidth="32">
		<image source="../blocks/Blocks_053_4306.tmx"/>
	</tileset>
	<layer height="12" id="1" name="layout" width="12">
		<data encoding="csv">
1,2,3,4,5,6,35,3,28,36,37,38,
7,8,9,10,11,12,7,9,39,40,41,18,
13,14,15,16,17,18,13,14,42,43,44,45,
13,19,20,21,22,23,13,19,46,47,48,49,
24,25,26,27,28,29,50,51,52,53,54,55,
30,31,26,32,33,34,56,57,58,59,60,61,
13,62,63,64,48,26,6,86,84,87,6,6,
21,65,66,67,31,26,6,88,89,36,90,6,
27,68,69,70,71,72,6,32,91,92,52,12,
32,73,74,75,76,77,36,93,94,95,96,45,
32,78,79,80,81,82,97,18,56,57,98,99,
56,83,84,84,84,85,22,23,6,86,84,100</data>
	</layer>
</map>
