<?xml version="1.0" ?>
<map height="10" orientation="orthogonal" renderorder="right-down" tileheight="32" tilewidth="32" width="10">
	<tileset firstgid="1" tileheight="32" tilewidth="32">
		<image source="../blocks/Blocks_057_55db.tmx"/>
	</tileset>
	<layer height="10" id="1" name="layout" width="10">
		<data encoding="csv">
1,2,3,4,1,1,2,3,4,1,
5,6,7,8,1,21,22,23,24,25,
9,10,11,12,13,26,27,28,29,30,
14,15,16,17,18,31,32,33,34,35,
19,19,20,19,19,19,36,37,38,1,
39,13,40,4,1,1,58,59,60,25,
41,42,43,44,45,5,61,62,63,30,
46,47,48,49,50,9,64,65,66,30,
46,31,51,52,53,67,68,69,70,35,
54,55,56,57,35,1,54,19,71,1</data>
	</layer>
</map>
