<?xml version="1.0" ?>
<map height="5" orientation="orthogonal" renderorder="right-down" tileheight="32" tilewidth="32" width="18">
	<tileset firstgid="1" tileheight="32" tilewidth="32">
		<image source="../blocks/Blocks_06a_793a.tmx"/>
	</tileset>
	<layer height="5" id="1" name="layout" width="18">
		<data encoding="csv">
1,2,3,4,5,6,5,6,3,26,6,2,42,43,2,44,42,6,
7,8,6,9,10,11,10,27,28,29,30,31,45,6,46,14,47,14,
6,12,13,14,15,15,32,6,33,34,35,36,48,14,14,32,6,6,
14,16,17,18,19,20,14,14,14,32,14,14,6,49,50,6,51,52,
6,21,22,23,24,25,37,6,38,39,40,41,53,54,55,56,57,58</data>
	</layer>
</map>
