<?xml version="1.0" ?>
<map height="13" orientation="orthogonal" renderorder="right-down" tileheight="32" tilewidth="32" width="15">
	<tileset firstgid="1" tileheight="32" tilewidth="32">
		<image source="../blocks/Blocks_064_4649.tmx"/>
	</tileset>
	<layer height="13" id="1" name="layout" width="15">
		<data encoding="csv">
1,2,3,4,5,22,22,23,4,24,2,41,4,5,22,
6,7,8,9,10,4,4,25,26,27,42,43,44,45,46,
11,12,13,14,15,28,29,30,31,32,47,48,49,50,51,
16,17,18,19,20,33,34,35,36,37,38,52,53,54,55,
16,21,5,22,22,22,38,39,40,22,56,57,58,59,60,
61,62,63,4,5,23,80,81,51,22,6,97,98,99,100,
6,64,65,66,67,82,83,84,85,4,80,101,102,103,104,
68,69,47,70,71,86,87,88,89,90,105,106,107,22,22,
1,72,73,74,75,91,92,93,94,95,33,108,109,2,46,
76,77,78,79,18,22,68,92,96,40,22,6,110,111,40,
112,113,114,115,22,22,23,25,128,129,145,146,147,148,37,
16,116,117,40,22,130,82,131,132,133,149,30,150,151,152,
118,119,120</data>
	</layer>
</map>
