<?xml version="1.0" ?>
<map height="15" orientation="orthogonal" renderorder="right-down" tileheight="32" tilewidth="32" width="15">
	<tileset firstgid="1" tileheight="32" tilewidth="32">
		<image source="../blocks/Blocks_06a_410a.tmx"/>
	</tileset>
	<layer height="15" id="1" name="layout" width="15">
		<data encoding="csv">
1,2,3,4,5,22,23,24,4,5,5,5,43,5,18,
5,6,7,8,9,25,26,27,28,29,44,45,5,4,5,
10,5,11,12,13,30,31,32,13,33,46,47,18,5,43,
14,15,16,17,17,34,32,35,36,37,48,49,45,5,50,
5,18,19,20,21,38,39,40,41,42,51,52,53,5,5,
5,54,55,56,57,77,42,78,79,80,94,95,96,97,18,
4,58,59,60,61,81,80,82,83,84,98,99,100,101,5,
62,63,64,65,66,85,86,66,32,87,102,103,104,47,50,
67,68,69,70,71,88,89,90,91,64,105,85,106,107,108,
72,73,74,75,76,92,93,89,57,19,109,110,111,112,45,
113,114,77,78,115,128,129,93,78,55,111,145,146,66,147,
116,117,81,61,118,130,131,132,61,55,148,149,150,151,152,
119,120,121,122,123,133,48,134,135,136,153,154,155,156,127,
124,69,46,27,103,137,138,139,140,141,157,158,41,42,111,
56,125,126,19,127,57,142,143,69,144,159,61,160,161,162</data>
	</layer>
</map>
