<?xml version="1.0" ?>
<map height="15" orientation="orthogonal" renderorder="right-down" tileheight="32" tilewidth="32" width="18">
	<tileset firstgid="1" tileheight="32" tilewidth="32">
		<image source="../blocks/Blocks_06a_615d.tmx"/>
	</tileset>
	<layer height="15" id="1" name="layout" width="18">
		<data encoding="csv">
1,2,3,3,3,4,3,27,28,29,30,3,49,3,50,51,52,53,
5,6,7,8,9,10,31,32,33,34,35,36,54,55,56,57,58,59,
11,12,13,14,15,16,37,38,39,40,40,41,60,61,62,63,64,65,
17,18,19,20,21,22,42,40,40,43,44,40,66,67,24,25,68,69,
23,9,24,25,24,26,45,46,25,47,48,45,70,62,62,71,72,73,
62,62,74,75,76,74,94,95,62,94,96,62,62,113,62,108,68,69,
77,78,62,79,80,81,97,98,99,100,101,62,114,115,116,117,118,119,
82,83,84,85,72,62,102,103,104,105,106,107,62,120,12,13,14,121,
86,87,88,89,90,62,62,108,109,62,62,62,62,122,123,19,20,124,
91,92,19,20,90,93,110,111,62,62,111,112,125,108,24,44,62,126,
127,128,129,130,62,131,142,143,144,94,145,146,158,122,93,66,108,62,
5,132,51,52,133,134,147,148,149,150,151,88,89,159,98,99,100,160,
127,135,57,58,136,137,152,153,154,72,155,19,161,162,103,104,105,163,
127,138,139,25,140,141,156,24,68,157,144,24,24,62,108,24,164,165,
49,3,3,3,3,4,3,3,3,3,3,3,49,3,3,3,3,4</data>
	</layer>
</map>
