<?xml version="1.0" ?>
<map height="12" orientation="orthogonal" renderorder="right-down" tileheight="32" tilewidth="32" width="6">
	<tileset firstgid="1" tileheight="32" tilewidth="32">
		<image source="../blocks/Blocks_011_5b4f.tmx"/>
	</tileset>
	<layer height="12" id="1" name="layout" width="6">
		<data encoding="csv">
1,2,3,4,5,6,
7,8,9,10,11,12,
13,14,15,16,17,18,
19,20,21,22,23,24,
25,26,27,28,29,30,
31,32,33,34,35,36,
31,37,38,39,40,41,
31,42,43,44,45,46,
31,47,48,49,50,51,
31,52,53,7,54,55,
31,56,57,58,59,60,
61,62,62,62,62,63</data>
	</layer>
</map>
