<?xml version="1.0" ?>
<map height="12" orientation="orthogonal" renderorder="right-down" tileheight="32" tilewidth="32" width="6">
	<tileset firstgid="1" tileheight="32" tilewidth="32">
		<image source="../blocks/Blocks_064_6242.tmx"/>
	</tileset>
	<layer height="12" id="1" name="layout" width="6">
		<data encoding="csv">
1,2,3,4,5,6,
1,7,8,8,8,6,
9,10,11,12,13,14,
15,16,17,18,19,20,
21,22,23,24,25,26,
18,27,28,9,12,26,
18,29,30,31,32,26,
18,8,33,34,22,35,
24,25,36,37,38,39,
40,41,42,43,44,20,
45,18,8,8,8,26,
45,46,47,48,49,50</data>
	</layer>
</map>
