<?xml version="1.0" ?>
<map height="12" orientation="orthogonal" renderorder="right-down" tileheight="32" tilewidth="32" width="10">
	<tileset firstgid="1" tileheight="32" tilewidth="32">
		<image source="../blocks/Blocks_064_5c8b.tmx"/>
	</tileset>
	<layer height="12" id="1" name="layout" width="10">
		<data encoding="csv">
1,2,3,4,5,25,26,27,28,29,
6,7,8,9,7,11,30,31,32,33,
10,11,12,13,14,23,34,35,36,33,
15,16,17,18,19,37,38,39,40,33,
20,21,11,11,11,33,20,41,42,43,
22,23,23,23,24,44,45,46,47,48,
49,49,50,51,52,2,61,15,16,29,
49,49,53,17,40,11,62,63,64,33,
49,38,54,11,30,65,66,67,40,33,
1,55,40,56,34,15,16,11,11,68,
6,7,30,57,49,22,69,11,56,70,
58,59,60,49,49,49,71,23,70,49</data>
	</layer>
</map>
