<?xml version="1.0" ?>
<map height="10" orientation="orthogonal" renderorder="right-down" tileheight="32" tilewidth="32" width="6">
	<tileset firstgid="1" tileheight="32" tilewidth="32">
		<image source="../blocks/Blocks_050_7827.tmx"/>
	</tileset>
	<layer height="10" id="1" name="layout" width="6">
		<data encoding="csv">
1,1,2,3,4,4,
1,1,5,6,7,4,
1,8,9,10,11,4,
1,10,12,13,4,4,
1,14,15,4,4,4,
1,1,16,4,4,4,
1,2,17,18,19,20,
1,21,22,23,24,25,
26,27,28,29,30,31,
32,33,33,33,32,34</data>
	</layer>
</map>
