<?xml version="1.0" ?>
<map height="12" orientation="orthogonal" renderorder="right-down" tileheight="32" tilewidth="32" width="15">
	<tileset firstgid="1" tileheight="32" tilewidth="32">
		<image source="../blocks/Blocks_011_4c4e.tmx"/>
	</tileset>
	<layer height="12" id="1" name="layout" width="15">
		<data encoding="csv">
1,2,2,2,2,2,2,2,1,24,45,28,46,47,48,
1,3,4,5,6,25,26,27,28,3,49,50,51,52,1,
7,8,8,9,10,29,30,31,32,2,53,54,55,56,57,
11,12,13,14,15,33,8,34,35,36,58,59,60,61,16,
2,2,16,17,18,37,38,39,19,40,62,63,64,14,36,
19,20,21,22,23,1,41,42,43,44,65,66,67,68,28,
69,70,71,3,72,48,89,90,72,91,67,102,103,19,32,
73,19,28,16,10,32,56,3,92,48,104,105,106,107,108,
74,75,8,76,15,93,8,61,16,94,109,76,58,75,60,
77,78,79,80,81,95,64,14,58,96,110,111,102,112,87,
82,83,84,85,86,97,98,99,100,101,113,114,64,115,116,
48,87,88,64,48,87,88,64,87,64,19,116,117,104,116</data>
	</layer>
</map>
