<?xml version="1.0" ?>
<map height="12" orientation="orthogonal" renderorder="right-down" tileheight="32" tilewidth="32" width="12">
	<tileset firstgid="1" tileheight="32" tilewidth="32">
		<image source="../blocks/Blocks_011_6023.tmx"/>
	</tileset>
	<layer height="12" id="1" name="layout" width="12">
		<data encoding="csv">
1,2,3,4,1,5,23,24,25,3,5,4,
6,7,8,9,10,11,8,8,8,8,8,26,
6,7,8,8,8,8,13,27,27,28,29,26,
6,12,8,13,14,15,30,23,31,32,11,26,
16,15,17,18,19,20,8,8,33,7,8,26,
21,8,8,8,8,22,28,29,33,7,34,35,
21,22,36,37,38,39,48,7,33,7,61,26,
21,40,6,41,42,43,50,54,33,62,8,26,
21,40,44,45,46,46,46,63,64,65,29,26,
21,47,48,49,50,51,53,66,67,68,54,26,
21,52,53,54,55,56,8,51,69,70,71,59,
57,58,58,58,59,60,72,58,58,58,73,74</data>
	</layer>
</map>
