<?xml version="1.0" ?>
<map height="10" orientation="orthogonal" renderorder="right-down" tileheight="32" tilewidth="32" width="6">
	<tileset firstgid="1" tileheight="32" tilewidth="32">
		<image source="../blocks/Blocks_017_4df7.tmx"/>
	</tileset>
	<layer height="10" id="1" name="layout" width="6">
		<data encoding="csv">
1,2,3,4,5,6,
7,8,9,10,11,12,
12,13,14,15,16,17,
12,18,19,20,21,12,
22,23,24,25,26,12,
27,28,29,30,31,32,
33,34,35,36,37,38,
12,39,40,41,42,43,
44,45,46,12,47,12,
12,48,12,49,50,43</data>
	</layer>
</map>
