<?xml version="1.0" ?>
<map height="10" orientation="orthogonal" renderorder="right-down" tileheight="32" tilewidth="32" width="10">
	<tileset firstgid="1" tileheight="32" tilewidth="32">
		<image source="../blocks/Blocks_064_4df0.tmx"/>
	</tileset>
	<layer height="10" id="1" name="layout" width="10">
		<data encoding="csv">
1,2,3,4,5,23,24,25,26,13,
6,7,8,4,5,27,28,29,30,31,
9,10,11,12,13,6,32,33,34,35,
14,15,16,17,18,36,37,38,39,40,
5,19,20,21,22,8,41,6,42,43,
44,45,46,47,48,56,55,9,10,4,
6,49,43,38,50,37,57,58,50,4,
19,22,51,36,52,59,60,61,62,63,
14,15,8,7,41,64,65,66,67,68,
5,53,54,54,55,69,70,71,72,73</data>
	</layer>
</map>
