<?xml version="1.0" ?>
<map height="10" orientation="orthogonal" renderorder="right-down" tileheight="32" tilewidth="32" width="10">
	<tileset firstgid="1" tileheight="32" tilewidth="32">
		<image source="../blocks/Blocks_06a_4d12.tmx"/>
	</tileset>
	<layer height="10" id="1" name="layout" width="10">
		<data encoding="csv">
1,2,3,4,5,26,27,28,29,30,
6,7,8,9,10,31,32,33,34,35,
11,12,13,14,15,36,37,38,39,40,
16,17,18,19,20,41,42,43,7,44,
21,22,23,24,25,45,46,47,48,49,
50,11,51,44,50,50,21,22,68,69,
52,53,17,54,55,70,71,72,17,30,
56,57,7,33,58,73,7,74,75,76,
59,60,61,62,63,77,9,58,78,76,
64,65,66,67,50,50,79,80,77,81</data>
	</layer>
</map>
