<?xml version="1.0" ?>
<map height="5" orientation="orthogonal" renderorder="right-down" tileheight="32" tilewidth="32" width="18">
	<tileset firstgid="1" tileheight="32" tilewidth="32">
		<image source="../blocks/Blocks_064_6f4b.tmx"/>
	</tileset>
	<layer height="5" id="1" name="layout" width="18">
		<data encoding="csv">
1,1,1,1,1,1,1,1,1,1,1,1,1,1,1,1,1,1,
2,3,3,3,3,4,11,12,13,14,12,15,26,27,28,29,1,1,
5,6,6,6,6,7,16,17,18,17,19,20,30,23,31,32,1,1,
8,9,9,9,9,10,21,22,23,23,24,25,33,23,34,35,1,1,
1,1,1,1,1,1,1,1,1,1,1,1,1,1,1,1,1,1</data>
	</layer>
</map>
