<?xml version="1.0" ?>
<map height="12" orientation="orthogonal" renderorder="right-down" tileheight="32" tilewidth="32" width="15">
	<tileset firstgid="1" tileheight="32" tilewidth="32">
		<image source="../blocks/Blocks_050_4105.tmx"/>
	</tileset>
	<layer height="12" id="1" name="layout" width="15">
		<data encoding="csv">
1,2,3,4,5,30,4,31,32,33,58,59,60,61,62,
6,7,8,9,10,34,35,36,37,38,63,64,65,66,67,
11,12,13,14,15,39,40,41,42,43,68,69,70,71,72,
16,17,18,19,20,44,45,46,47,48,73,74,75,76,77,
6,21,22,23,24,49,50,51,52,53,78,79,80,81,82,
25,26,27,28,29,1,54,55,56,57,40,83,84,85,62,
86,87,88,89,90,113,114,115,116,117,138,139,140,141,142,
91,92,93,94,95,118,119,120,121,122,143,92,144,145,146,
96,97,45,98,99,44,13,123,124,125,147,148,149,150,151,
100,101,102,54,103,126,127,128,129,130,152,153,154,155,62,
104,105,106,107,108,131,106,132,133,134,156,157,158,159,62,
6,109,110,111,112,110,135,136,137,109,160,161,162,159,163</data>
	</layer>
</map>
