<?xml version="1.0" ?>
<map height="15" orientation="orthogonal" renderorder="right-down" tileheight="32" tilewidth="32" width="10">
	<tileset firstgid="1" tileheight="32" tilewidth="32">
		<image source="../blocks/Blocks_06a_5c6b.tmx"/>
	</tileset>
	<layer height="15" id="1" name="layout" width="10">
		<data encoding="csv">
1,2,3,4,5,21,26,27,28,29,
6,7,8,9,10,30,31,32,8,33,
11,12,13,14,15,34,35,36,37,38,
16,17,18,19,20,39,40,28,41,42,
21,22,23,24,25,43,44,45,46,47,
48,49,50,39,51,70,21,71,72,73,
52,53,54,55,56,74,70,75,76,77,
57,58,59,60,61,78,39,79,80,81,
62,63,64,65,66,82,83,84,85,86,
19,46,67,68,69,87,88,89,90,91,
92,93,94,21,95,114,115,116,117,118,
19,96,97,98,99,119,120,121,53,122,
100,101,72,102,103,123,124,125,126,127,
104,105,106,107,108,128,129,130,131,132,
109,110,111,112,113,133,134,135,86,24</data>
	</layer>
</map>
