<?xml version="1.0" ?>
<map height="12" orientation="orthogonal" renderorder="right-down" tileheight="32" tilewidth="32" width="12">
	<tileset firstgid="1" tileheight="32" tilewidth="32">
		<image source="../blocks/Blocks_057_61b0.tmx"/>
	</tileset>
	<layer height="12" id="1" name="layout" width="12">
		<data encoding="csv">
1,2,3,4,5,6,28,29,30,31,32,33,
7,8,9,10,11,12,17,32,34,35,36,27,
13,14,15,16,17,18,37,36,17,38,39,27,
19,20,17,17,21,22,4,40,41,42,43,27,
23,24,18,25,22,4,4,4,44,45,17,46,
19,26,27,4,4,4,4,4,7,47,48,49,
19,20,50,3,4,4,4,4,71,36,15,3,
23,51,52,9,4,4,4,4,72,73,52,9,
53,54,55,56,57,2,3,4,74,62,45,9,
58,59,60,61,62,63,9,75,76,17,77,49,
7,64,32,65,18,66,78,7,79,77,49,4,
67,68,69,69,70,4,4,71,69,78,4,4</data>
	</layer>
</map>
