<?xml version="1.0" ?>
<map height="12" orientation="orthogonal" renderorder="right-down" tileheight="32" tilewidth="32" width="12">
	<tileset firstgid="1" tileheight="32" tilewidth="32">
		<image source="../blocks/Blocks_050_64cf.tmx"/>
	</tileset>
	<layer height="12" id="1" name="layout" width="12">
		<data encoding="csv">
1,2,3,4,5,6,2,30,31,32,4,33,
2,7,8,9,10,11,12,34,35,16,36,11,
12,13,14,15,16,11,37,38,39,40,41,11,
17,18,19,20,21,22,4,33,2,7,42,11,
2,7,23,24,25,26,43,11,12,80,44,11,
12,27,28,11,29,7,45,11,12,46,47,11,
12,48,49,50,51,52,67,11,17,25,25,50,
12,48,53,1,54,55,68,69,70,1,1,1,
17,56,57,33,58,59,7,71,72,5,73,6,
1,60,41,61,62,16,16,16,74,75,76,11,
1,37,63,15,16,64,25,77,78,15,79,11,
1,1,65,25,25,66,1,1,17,25,25,50</data>
	</layer>
</map>
