<?xml version="1.0" ?>
<map height="12" orientation="orthogonal" renderorder="right-down" tileheight="32" tilewidth="32" width="12">
	<tileset firstgid="1" tileheight="32" tilewidth="32">
		<image source="../blocks/Blocks_050_6342.tmx"/>
	</tileset>
	<layer height="12" id="1" name="layout" width="12">
		<data encoding="csv">
1,2,3,3,4,5,16,21,32,33,34,35,
6,7,7,7,8,9,16,17,18,28,36,37,
10,11,12,13,14,15,2,38,23,39,7,29,
16,17,18,19,20,7,7,7,29,40,41,42,
21,22,23,24,25,26,43,43,44,16,16,16,
27,28,29,30,31,15,4,5,16,16,16,16,
45,23,46,30,47,7,7,15,5,16,16,16,
45,48,3,49,43,50,14,7,15,35,16,16,
45,7,7,51,16,52,50,14,7,56,5,16,
10,53,54,55,16,16,52,50,14,57,15,5,
16,10,43,44,16,16,16,30,58,7,59,9,
16,16,16,16,16,16,16,52,43,43,43,60</data>
	</layer>
</map>
