<?xml version="1.0" ?>
<map height="15" orientation="orthogonal" renderorder="right-down" tileheight="32" tilewidth="32" width="12">
	<tileset firstgid="1" tileheight="32" tilewidth="32">
		<image source="../blocks/Blocks_011_484a.tmx"/>
	</tileset>
	<layer height="15" id="1" name="layout" width="12">
		<data encoding="csv">
1,2,3,4,5,6,29,28,30,5,31,32,
7,8,9,10,11,12,33,28,10,11,34,31,
13,14,15,16,17,18,35,36,37,17,38,39,
13,19,20,21,20,22,40,41,42,20,43,44,
23,24,25,26,27,28,28,20,45,46,47,48,
7,49,11,50,51,52,72,73,74,75,76,32,
13,53,54,55,56,57,77,78,79,80,5,31,
58,59,60,61,28,62,81,82,83,84,85,39,
28,28,63,64,65,66,86,87,88,89,90,39,
67,68,20,69,70,71,91,92,93,77,94,39,
95,24,96,97,98,99,113,114,115,116,117,39,
100,101,8,11,102,103,118,119,120,120,121,122,
13,104,105,17,38,28,123,124,125,126,127,128,
13,106,107,20,108,109,65,129,130,131,132,39,
23,110,111,112,110,110,133,134,133,110,133,135</data>
	</layer>
</map>
