<?xml version="1.0" ?>
<map height="15" orientation="orthogonal" renderorder="right-down" tileheight="32" tilewidth="32" width="18">
	<tileset firstgid="1" tileheight="32" tilewidth="32">
		<image source="../blocks/Blocks_064_4137.tmx"/>
	</tileset>
	<layer height="15" id="1" name="layout" width="18">
		<data encoding="csv">
1,2,3,4,5,6,6,6,1,29,30,31,51,52,3,3,4,53,
7,8,9,10,11,6,6,6,12,32,33,34,54,55,43,56,57,58,
12,13,14,15,16,17,35,36,37,38,39,40,59,49,49,60,61,62,
18,19,20,21,22,23,41,42,43,44,45,6,1,63,3,37,64,65,
12,24,25,26,27,28,46,47,48,49,50,6,12,66,67,68,69,70,
12,71,72,73,74,29,91,92,4,17,29,63,37,38,112,49,49,50,
75,76,77,78,79,80,93,94,95,96,97,98,113,107,114,29,115,6,
6,81,82,83,43,84,99,100,101,102,103,104,116,117,118,97,119,5,
85,4,86,87,49,49,105,106,107,108,109,6,120,121,122,123,124,45,
88,89,90,45,6,6,12,110,111,50,6,6,6,6,6,125,126,45,
88,55,127,109,6,6,142,71,130,6,6,6,1,29,29,91,159,50,
128,129,130,1,35,36,143,144,145,5,146,36,37,160,97,161,162,5,
12,71,131,30,132,133,56,147,148,149,150,151,107,163,164,165,166,45,
75,134,135,136,137,111,76,100,152,153,154,155,48,167,12,168,42,11,
6,138,139,140,141,50,75,156,157,122,157,158,6,6,12,169,170,171</data>
	</layer>
</map>
