<?xml version="1.0" ?>
<map height="12" orientation="orthogonal" renderorder="right-down" tileheight="32" tilewidth="32" width="18">
	<tileset firstgid="1" tileheight="32" tilewidth="32">
		<image source="../blocks/Blocks_011_42a5.tmx"/>
	</tileset>
	<layer height="12" id="1" name="layout" width="18">
		<data encoding="csv">
1,2,3,3,3,4,3,4,34,3,4,2,3,4,2,4,2,62,
5,6,7,8,9,10,35,36,37,38,39,40,63,64,65,66,67,68,
11,12,13,14,15,16,41,42,43,44,45,46,69,70,71,72,73,74,
17,18,19,20,21,22,47,48,49,50,51,52,75,76,77,78,79,80,
23,24,25,23,26,27,53,54,55,56,57,16,81,82,83,84,85,86,
28,29,30,31,32,33,58,54,55,59,60,61,87,88,89,90,91,92,
11,93,94,95,96,97,121,122,123,124,125,126,151,152,153,154,23,23,
98,99,100,101,102,21,127,128,128,129,130,131,121,155,121,156,157,158,
103,104,105,106,107,108,132,133,134,135,136,137,159,160,161,162,163,164,
5,109,110,111,112,113,138,139,140,141,142,143,165,166,167,168,169,170,
11,114,115,116,117,21,144,145,117,146,147,148,116,171,57,172,173,174,
118,3,3,3,119,120,149,150,3,3,3,3,3,3,3,3,3,175</data>
	</layer>
</map>
