<?xml version="1.0" ?>
<map height="10" orientation="orthogonal" renderorder="right-down" tileheight="32" tilewidth="32" width="10">
	<tileset firstgid="1" tileheight="32" tilewidth="32">
		<image source="../blocks/Blocks_011_61b8.tmx"/>
	</tileset>
	<layer height="10" id="1" name="layout" width="10">
		<data encoding="csv">
1,2,3,2,4,1,2,4,17,18,
5,6,7,7,8,5,19,20,21,22,
5,6,9,10,11,5,6,23,24,25,
5,6,12,13,14,26,6,7,7,25,
5,6,15,16,7,27,28,29,30,31,
5,6,32,33,6,7,44,45,46,47,
5,6,34,35,30,30,31,48,7,25,
5,6,33,36,37,49,50,51,52,25,
5,38,33,61,39,53,54,55,56,25,
40,41,42,41,43,57,58,59,59,60</data>
	</layer>
</map>
