<?xml version="1.0" ?>
<map height="202" orientation="orthogonal" renderorder="right-down" tileheight="16" tilewidth="16" width="2">
	<!--Add tilesets as much as needed-->
	<tileset firstgid="1" tileheight="16" tilewidth="16">
		<image source="../metatiles/Metatiles_053_4698.tmx"/>
	</tileset>
	<layer height="202" id="1" name="blocks" width="2">
		<data encoding="csv">
51, 3,
51, 9,
7, 8,
13, 14,
52, 19,
36, 25,
20, 5,
26, 12,
51, 51,
7, 8,
51, 51,
5, 51,
51, 9,
3, 27,
38, 40,
38, 40,
40, 30,
40, 40,
31, 34,
44, 41,
13, 14,
53, 54,
11, 51,
11, 51,
9, 35,
9, 71,
37, 40,
39, 40,
21, 22,
11, 9,
39, 44,
38, 40,
40, 40,
40, 33,
9, 38,
9, 38,
40, 40,
40, 42,
12, 29,
34, 36,
6, 6,
36, 36,
10, 51,
11, 51,
9, 38,
9, 72,
40, 44,
39, 40,
43, 40,
40, 40,
40, 40,
40, 40,
44, 41,
40, 44,
18, 6,
9, 36,
23, 22,
11, 9,
39, 40,
38, 32,
11, 51,
11, 3,
51, 51,
51, 51,
20, 51,
19, 20,
51, 9,
51, 9,
38, 44,
38, 2,
41, 30,
55, 70,
25, 26,
30, 31,
3, 27,
9, 35,
38, 40,
37, 40,
44, 45,
40, 40,
45, 41,
40, 21,
11, 51,
17, 51,
40, 40,
40, 21,
21, 16,
17, 51,
16, 17,
51, 51,
51, 51,
3, 52,
9, 38,
27, 38,
40, 12,
40, 40,
5, 51,
11, 51,
9, 36,
27, 38,
35, 37,
40, 40,
40, 40,
32, 40,
9, 32,
9, 38,
44, 41,
40, 42,
12, 46,
34, 12,
16, 16,
5, 51,
48, 27,
9, 35,
15, 16,
51, 51,
16, 22,
51, 9,
41, 34,
44, 41,
51, 51,
51, 3,
51, 15,
7, 8,
16, 22,
52, 27,
13, 14,
38, 40,
36, 35,
40, 40,
37, 40,
40, 40,
38, 33,
38, 40,
39, 40,
40, 21,
40, 40,
16, 16,
51, 15,
51, 51,
16, 16,
51, 51,
35, 37,
37, 40,
40, 21,
16, 48,
17, 51,
52, 56,
51, 51,
52, 5,
40, 11,
16, 17,
57, 58,
38, 44,
59, 11,
41, 12,
40, 12,
40, 34,
52, 60,
36, 11,
38, 32,
38, 40,
42, 34,
40, 45,
36, 11,
41, 11,
40, 44,
40, 40,
41, 12,
42, 34,
52, 46,
36, 12,
16, 22,
7, 61,
39, 40,
47, 39,
42, 11,
44, 11,
22, 39,
15, 22,
40, 45,
39, 40,
41, 34,
44, 45,
13, 14,
44, 45,
40, 11,
40, 11,
16, 22,
51, 15,
39, 40,
16, 16,
21, 17,
17, 51,
38, 44,
38, 1,
41, 30,
55, 1,
9, 35,
9, 1,
9, 38,
9, 1</data>
	</layer>
</map>
