<?xml version="1.0" ?>
<map height="54" orientation="orthogonal" renderorder="right-down" tileheight="16" tilewidth="16" width="2">
	<!--Add tilesets as much as needed-->
	<tileset firstgid="1" tileheight="16" tilewidth="16">
		<image source="../metatiles/Metatiles_057_5d87.tmx"/>
	</tileset>
	<layer height="54" id="1" name="blocks" width="2">
		<data encoding="csv">
17, 17,
17, 17,
26, 17,
1, 1,
17, 17,
26, 17,
8, 5,
14, 4,
1, 6,
8, 3,
17, 17,
25, 17,
27, 27,
18, 18,
27, 28,
18, 18,
22, 17,
17, 17,
17, 29,
29, 1,
17, 17,
17, 13,
29, 1,
1, 2,
1, 1,
8, 8,
17, 4,
17, 30,
8, 3,
27, 27,
14, 27,
28, 19,
17, 18,
17, 17,
18, 18,
17, 17,
18, 17,
17, 17,
17, 17,
17, 29,
17, 29,
13, 1,
1, 1,
1, 1,
4, 8,
30, 14,
5, 2,
4, 3,
1, 26,
1, 1,
8, 8,
14, 14,
5, 6,
4, 3</data>
	</layer>
</map>
