<?xml version="1.0" ?>
<map height="184" orientation="orthogonal" renderorder="right-down" tileheight="16" tilewidth="16" width="2">
	<!--Add tilesets as much as needed-->
	<tileset firstgid="1" tileheight="16" tilewidth="16">
		<image source="../metatiles/Metatiles_053_5da2.tmx"/>
	</tileset>
	<layer height="184" id="1" name="blocks" width="2">
		<data encoding="csv">
30, 26,
22, 30,
32, 27,
31, 27,
26, 30,
30, 25,
30, 30,
9, 16,
24, 9,
28, 5,
16, 24,
16, 28,
6, 21,
17, 19,
16, 29,
11, 9,
24, 9,
28, 9,
22, 3,
16, 3,
1, 9,
22, 16,
16, 23,
4, 23,
23, 5,
6, 3,
10, 25,
14, 29,
24, 3,
28, 2,
25, 9,
29, 24,
3, 23,
3, 23,
17, 3,
14, 3,
1, 14,
24, 1,
9, 24,
9, 28,
24, 28,
28, 15,
23, 2,
23, 23,
28, 4,
23, 3,
24, 9,
28, 1,
24, 22,
28, 10,
16, 9,
4, 25,
25, 1,
29, 9,
9, 24,
1, 28,
9, 24,
24, 28,
16, 14,
23, 23,
3, 29,
2, 10,
24, 24,
28, 28,
15, 9,
10, 4,
28, 24,
1, 28,
23, 23,
4, 14,
23, 6,
23, 17,
21, 23,
18, 21,
23, 3,
23, 3,
15, 14,
25, 22,
2, 10,
9, 1,
10, 10,
14, 24,
4, 17,
3, 23,
21, 3,
12, 3,
29, 14,
24, 14,
5, 10,
3, 23,
10, 28,
23, 23,
8, 23,
23, 23,
17, 2,
23, 23,
14, 25,
15, 29,
3, 23,
2, 10,
23, 23,
4, 6,
14, 3,
21, 2,
16, 16,
9, 10,
24, 14,
28, 9,
9, 22,
16, 9,
3, 17,
2, 4,
13, 6,
17, 18,
21, 23,
19, 23,
25, 5,
29, 3,
10, 9,
1, 23,
10, 8,
33, 34,
23, 23,
23, 23,
5, 9,
3, 14,
1, 3,
24, 2,
23, 23,
10, 10,
23, 14,
24, 10,
3, 15,
8, 24,
28, 24,
16, 28,
22, 9,
1, 15,
14, 1,
9, 22,
28, 24,
14, 28,
9, 28,
15, 14,
3, 23,
8, 23,
23, 23,
23, 5,
23, 23,
24, 4,
6, 21,
12, 20,
14, 3,
21, 3,
23, 3,
5, 8,
28, 3,
5, 8,
12, 20,
17, 19,
19, 3,
23, 3,
24, 10,
28, 14,
8, 5,
16, 3,
8, 14,
23, 23,
23, 3,
10, 8,
25, 9,
29, 16,
5, 8,
3, 23,
23, 3,
14, 3,
16, 25,
9, 29,
24, 25,
28, 29,
23, 5,
23, 3,
10, 8,
16, 15</data>
	</layer>
</map>
