<?xml version="1.0" ?>
<map height="96" orientation="orthogonal" renderorder="right-down" tileheight="16" tilewidth="16" width="2">
	<!--Add tilesets as much as needed-->
	<tileset firstgid="1" tileheight="16" tilewidth="16">
		<image source="../metatiles/Metatiles_011_50f4.tmx"/>
	</tileset>
	<layer height="96" id="1" name="blocks" width="2">
		<data encoding="csv">
30, 31,
4, 15,
30, 31,
19, 19,
32, 33,
36, 37,
34, 35,
38, 39,
19, 20,
4, 14,
30, 31,
20, 4,
19, 24,
29, 28,
28, 29,
27, 31,
40, 41,
40, 41,
42, 43,
42, 44,
28, 29,
30, 31,
14, 19,
28, 29,
31, 30,
4, 4,
26, 29,
30, 31,
45, 46,
11, 13,
47, 48,
11, 13,
7, 28,
25, 30,
27, 31,
31, 4,
19, 19,
28, 29,
20, 7,
14, 19,
21, 8,
20, 21,
8, 23,
23, 15,
7, 15,
19, 24,
19, 19,
5, 28,
30, 31,
28, 29,
14, 19,
7, 25,
10, 24,
3, 7,
5, 28,
4, 30,
29, 30,
26, 29,
27, 26,
26, 27,
29, 7,
31, 25,
25, 11,
25, 21,
13, 25,
8, 13,
27, 31,
26, 29,
30, 26,
28, 27,
29, 25,
31, 7,
11, 13,
21, 18,
21, 23,
25, 25,
25, 28,
7, 30,
30, 26,
4, 30,
29, 28,
26, 27,
29, 21,
31, 11,
13, 4,
18, 28,
28, 29,
27, 26,
30, 31,
29, 28,
21, 23,
25, 25,
25, 11,
25, 21,
10, 24,
25, 7</data>
	</layer>
</map>
