<?xml version="1.0" ?>
<map height="80" orientation="orthogonal" renderorder="right-down" tileheight="16" tilewidth="16" width="2">
	<!--Add tilesets as much as needed-->
	<tileset firstgid="1" tileheight="16" tilewidth="16">
		<image source="../metatiles/Metatiles_057_4c70.tmx"/>
	</tileset>
	<layer height="80" id="1" name="blocks" width="2">
		<data encoding="csv">
11, 11,
11, 32,
11, 11,
18, 18,
11, 11,
18, 33,
11, 11,
11, 11,
3, 11,
3, 11,
11, 6,
11, 6,
25, 1,
24, 8,
24, 21,
22, 34,
18, 18,
24, 24,
3, 18,
3, 25,
8, 2,
1, 22,
22, 34,
8, 34,
8, 22,
22, 22,
4, 22,
22, 8,
11, 6,
11, 27,
23, 23,
31, 31,
22, 34,
31, 35,
22, 22,
25, 1,
8, 22,
25, 24,
11, 17,
11, 11,
36, 13,
41, 42,
13, 40,
43, 36,
31, 31,
36, 36,
31, 14,
36, 36,
18, 18,
1, 23,
3, 18,
3, 24,
18, 18,
23, 24,
7, 11,
25, 7,
23, 22,
22, 8,
22, 22,
8, 8,
8, 25,
22, 8,
7, 11,
5, 11,
8, 22,
22, 8,
8, 22,
23, 25,
22, 22,
24, 23,
1, 9,
9, 19,
10, 11,
20, 11,
22, 15,
16, 36,
28, 29,
38, 20,
30, 11,
39, 11</data>
	</layer>
</map>
