<?xml version="1.0" ?>
<map height="64" orientation="orthogonal" renderorder="right-down" tileheight="16" tilewidth="16" width="2">
	<!--Add tilesets as much as needed-->
	<tileset firstgid="1" tileheight="16" tilewidth="16">
		<image source="../metatiles/Metatiles_06a_66f1.tmx"/>
	</tileset>
	<layer height="64" id="1" name="blocks" width="2">
		<data encoding="csv">
16, 18,
18, 9,
9, 18,
14, 16,
16, 18,
18, 4,
16, 18,
18, 17,
4, 18,
17, 4,
16, 14,
18, 16,
7, 7,
7, 7,
7, 7,
17, 7,
4, 18,
7, 7,
4, 17,
7, 7,
7, 7,
7, 17,
4, 16,
16, 18,
4, 4,
16, 4,
17, 7,
16, 7,
7, 7,
16, 17,
7, 7,
16, 4,
7, 16,
16, 18,
18, 16,
16, 18,
18, 16,
9, 18,
18, 7,
16, 17,
18, 9,
16, 14,
14, 9,
16, 14,
16, 18,
18, 16,
7, 18,
7, 16,
9, 14,
14, 9,
7, 18,
7, 17,
16, 14,
18, 17,
14, 9,
9, 14,
17, 9,
16, 14,
4, 9,
16, 14,
17, 16,
16, 18,
14, 16,
16, 18</data>
	</layer>
</map>
