<?xml version="1.0" ?>
<map height="56" orientation="orthogonal" renderorder="right-down" tileheight="16" tilewidth="16" width="2">
	<!--Add tilesets as much as needed-->
	<tileset firstgid="1" tileheight="16" tilewidth="16">
		<image source="../metatiles/Metatiles_053_60a2.tmx"/>
	</tileset>
	<layer height="56" id="1" name="blocks" width="2">
		<data encoding="csv">
51, 13,
51, 20,
28, 28,
38, 58,
28, 28,
38, 38,
28, 28,
58, 38,
14, 51,
19, 51,
13, 29,
20, 41,
8, 63,
7, 68,
54, 52,
59, 60,
53, 56,
60, 61,
63, 45,
68, 69,
27, 14,
37, 19,
20, 1,
20, 62,
9, 6,
67, 63,
64, 65,
67, 67,
65, 66,
67, 67,
6, 6,
63, 67,
1, 19,
67, 19,
21, 12,
51, 20,
6, 68,
8, 6,
69, 6,
6, 6,
6, 6,
6, 6,
68, 69,
6, 6,
10, 22,
19, 51,
51, 21,
51, 51,
11, 11,
51, 51,
12, 6,
20, 8,
6, 10,
6, 19,
22, 51,
51, 51</data>
	</layer>
</map>
