<?xml version="1.0" ?>
<map height="342" orientation="orthogonal" renderorder="right-down" tileheight="16" tilewidth="16" width="2">
	<!--Add tilesets as much as needed-->
	<tileset firstgid="1" tileheight="16" tilewidth="16">
		<image source="../metatiles/Metatiles_050_4824.tmx"/>
	</tileset>
	<layer height="342" id="1" name="blocks" width="2">
		<data encoding="csv">
6, 11,
12, 34,
3, 4,
11, 3,
12, 34,
6, 5,
11, 12,
6, 5,
5, 4,
4, 12,
12, 5,
34, 11,
5, 6,
11, 12,
34, 11,
33, 5,
12, 11,
6, 34,
12, 11,
31, 29,
12, 34,
29, 29,
33, 31,
30, 44,
34, 23,
5, 6,
5, 4,
11, 12,
12, 24,
5, 6,
43, 14,
14, 14,
21, 44,
9, 7,
7, 8,
14, 14,
11, 12,
29, 32,
11, 12,
33, 34,
18, 35,
30, 14,
16, 5,
28, 11,
6, 17,
12, 5,
26, 26,
5, 6,
28, 29,
25, 26,
29, 30,
45, 27,
26, 42,
24, 21,
26, 28,
22, 25,
32, 11,
26, 28,
6, 24,
12, 30,
19, 14,
44, 13,
22, 11,
22, 23,
3, 6,
11, 12,
11, 12,
34, 33,
11, 12,
33, 23,
30, 44,
7, 9,
44, 13,
7, 43,
22, 33,
22, 34,
34, 31,
24, 44,
29, 29,
49, 44,
32, 34,
19, 22,
14, 16,
14, 22,
17, 17,
34, 5,
5, 6,
4, 12,
24, 7,
24, 43,
9, 44,
14, 9,
50, 22,
7, 22,
17, 5,
6, 11,
6, 11,
3, 6,
12, 5,
33, 11,
6, 17,
12, 34,
16, 34,
28, 29,
12, 34,
32, 33,
34, 33,
31, 30,
31, 30,
26, 27,
26, 42,
24, 15,
26, 26,
22, 33,
11, 12,
33, 31,
34, 5,
32, 11,
6, 34,
3, 6,
24, 9,
24, 15,
28, 23,
44, 22,
34, 25,
33, 34,
24, 51,
24, 7,
9, 22,
14, 22,
11, 3,
34, 11,
6, 14,
12, 18,
9, 28,
14, 8,
29, 29,
8, 9,
6, 18,
12, 24,
35, 22,
21, 22,
33, 34,
31, 29,
17, 17,
29, 29,
17, 17,
32, 34,
6, 24,
12, 24,
9, 28,
21, 44,
34, 24,
28, 30,
43, 14,
21, 19,
14, 14,
14, 14,
9, 28,
14, 9,
6, 24,
12, 34,
9, 7,
17, 18,
8, 14,
14, 14,
9, 16,
21, 22,
17, 18,
34, 34,
14, 21,
17, 17,
26, 28,
34, 25,
29, 30,
26, 27,
26, 27,
33, 5,
24, 21,
24, 9,
22, 34,
22, 34,
29, 29,
44, 19,
29, 29,
14, 14,
32, 11,
21, 28,
24, 15,
30, 15,
22, 23,
22, 33,
17, 18,
33, 24,
19, 14,
7, 43,
9, 44,
16, 18,
44, 19,
9, 44,
20, 21,
16, 17,
22, 34,
5, 6,
29, 32,
7, 14,
17, 17,
28, 33,
33, 24,
34, 24,
14, 9,
14, 21,
28, 34,
44, 22,
11, 3,
33, 11,
19, 14,
18, 19,
43, 22,
14, 22,
23, 24,
33, 34,
14, 44,
17, 18,
7, 22,
14, 22,
29, 29,
26, 26,
32, 24,
26, 38,
15, 22,
21, 28,
34, 31,
30, 26,
32, 33,
26, 28,
34, 5,
5, 4,
6, 25,
12, 24,
42, 26,
9, 28,
27, 5,
34, 11,
6, 33,
3, 6,
34, 25,
5, 6,
11, 12,
34, 5,
33, 24,
6, 24,
28, 33,
43, 28,
4, 12,
12, 34,
33, 11,
5, 6,
14, 14,
17, 18,
14, 21,
15, 7,
22, 23,
22, 34,
11, 12,
5, 6,
34, 34,
33, 5,
15, 13,
21, 19,
22, 33,
22, 23,
23, 5,
33, 11,
24, 44,
24, 7,
34, 33,
33, 33,
34, 30,
30, 26,
14, 28,
42, 26,
34, 11,
28, 34,
28, 18,
25, 38,
14, 22,
19, 38,
30, 26,
27, 34,
27, 24,
33, 24,
14, 22,
35, 28,
25, 26,
33, 34,
33, 25,
23, 24,
42, 27,
9, 28,
33, 34,
29, 30,
31, 30,
21, 44,
21, 7,
7, 14,
22, 34,
22, 23,
15, 19,
43, 9,
20, 21,
44, 44,
44, 44,
7, 16,
19, 14,
17, 17,
33, 34,
34, 5,
17, 17,
6, 33,
17, 17,
5, 6,
17, 34,
33, 5,
33, 5,
6, 11,
4, 12,
12, 33,
29, 29,
1, 44,
1, 22,
7, 22,
24, 1,
24, 7,
14, 22,
21, 22,
14, 22,
14, 28,
18, 14,
30, 14,
18, 14,
30, 14</data>
	</layer>
</map>
