<?xml version="1.0" ?>
<map height="156" orientation="orthogonal" renderorder="right-down" tileheight="16" tilewidth="16" width="2">
	<!--Add tilesets as much as needed-->
	<tileset firstgid="1" tileheight="16" tilewidth="16">
		<image source="../metatiles/Metatiles_06a_5020.tmx"/>
	</tileset>
	<layer height="156" id="1" name="blocks" width="2">
		<data encoding="csv">
42, 42,
42, 42,
6, 20,
13, 30,
21, 28,
31, 22,
29, 12,
53, 12,
6, 20,
13, 28,
21, 23,
29, 22,
25, 25,
25, 25,
25, 19,
25, 28,
21, 23,
31, 22,
25, 25,
25, 3,
67, 27,
68, 5,
25, 25,
27, 25,
13, 23,
13, 23,
3, 15,
15, 42,
42, 14,
42, 42,
4, 5,
6, 21,
25, 12,
25, 12,
13, 28,
13, 23,
42, 42,
6, 20,
6, 20,
21, 30,
20, 21,
31, 29,
30, 31,
22, 25,
19, 7,
28, 12,
21, 30,
28, 22,
31, 22,
25, 25,
25, 25,
5, 27,
3, 57,
15, 13,
27, 25,
23, 25,
3, 15,
12, 42,
42, 13,
42, 13,
23, 25,
23, 25,
3, 15,
19, 7,
22, 3,
25, 12,
15, 42,
42, 42,
42, 13,
42, 14,
46, 25,
61, 27,
28, 12,
25, 12,
13, 46,
14, 5,
25, 28,
25, 25,
19, 20,
30, 69,
20, 21,
70, 31,
28, 22,
22, 25,
42, 13,
6, 60,
27, 25,
61, 27,
66, 71,
25, 8,
71, 71,
11, 4,
25, 72,
63, 73,
13, 36,
13, 38,
37, 22,
39, 25,
25, 28,
25, 47,
19, 7,
29, 19,
13, 28,
18, 23,
13, 23,
13, 78,
25, 74,
27, 25,
47, 40,
25, 41,
16, 46,
17, 5,
13, 23,
14, 4,
66, 25,
4, 4,
25, 25,
4, 4,
79, 27,
4, 4,
12, 14,
15, 42,
28, 22,
23, 25,
64, 20,
29, 54,
20, 20,
30, 40,
7, 13,
12, 62,
23, 25,
61, 27,
8, 59,
28, 12,
22, 25,
25, 25,
47, 41,
25, 25,
19, 21,
30, 31,
29, 22,
22, 66,
25, 12,
4, 15,
5, 27,
14, 4,
25, 47,
4, 4,
3, 4,
15, 42,
4, 15,
42, 42,
13, 23,
13, 1,
1, 27,
4, 4</data>
	</layer>
</map>
