<?xml version="1.0" ?>
<map height="64" orientation="orthogonal" renderorder="right-down" tileheight="16" tilewidth="16" width="2">
	<!--Add tilesets as much as needed-->
	<tileset firstgid="1" tileheight="16" tilewidth="16">
		<image source="../metatiles/Metatiles_057_739a.tmx"/>
	</tileset>
	<layer height="64" id="1" name="blocks" width="2">
		<data encoding="csv">
4, 12,
29, 29,
12, 4,
29, 29,
36, 37,
36, 37,
38, 39,
38, 39,
4, 4,
29, 29,
12, 10,
29, 29,
12, 6,
17, 12,
26, 26,
30, 30,
27, 53,
27, 46,
41, 42,
47, 48,
43, 44,
49, 50,
54, 1,
51, 13,
3, 34,
15, 1,
34, 4,
3, 34,
23, 10,
23, 4,
30, 30,
30, 30,
27, 34,
27, 34,
34, 1,
34, 13,
3, 34,
15, 34,
34, 13,
34, 34,
15, 34,
34, 1,
5, 29,
3, 34,
30, 30,
66, 32,
27, 34,
33, 34,
34, 34,
1, 3,
34, 34,
34, 34,
15, 34,
16, 29,
67, 67,
29, 29,
27, 34,
29, 29,
13, 15,
29, 29,
34, 34,
29, 29,
22, 10,
11, 4</data>
	</layer>
</map>
