<?xml version="1.0" ?>
<map height="72" orientation="orthogonal" renderorder="right-down" tileheight="16" tilewidth="16" width="2">
	<!--Add tilesets as much as needed-->
	<tileset firstgid="1" tileheight="16" tilewidth="16">
		<image source="../metatiles/Metatiles_053_6f49.tmx"/>
	</tileset>
	<layer height="72" id="1" name="blocks" width="2">
		<data encoding="csv">
31, 31,
31, 31,
31, 31,
31, 16,
13, 13,
18, 18,
31, 31,
15, 31,
12, 19,
16, 23,
32, 33,
35, 36,
17, 11,
28, 15,
31, 12,
31, 12,
19, 24,
23, 30,
37, 38,
21, 21,
37, 38,
21, 22,
21, 17,
21, 21,
11, 31,
11, 31,
23, 21,
23, 21,
21, 21,
21, 21,
21, 30,
21, 21,
8, 21,
12, 26,
22, 5,
26, 5,
21, 22,
26, 26,
21, 6,
6, 31,
12, 31,
31, 8,
31, 5,
27, 5,
31, 6,
27, 15,
8, 21,
12, 23,
22, 17,
21, 21,
15, 31,
17, 11,
31, 8,
31, 31,
21, 21,
8, 21,
21, 11,
22, 11,
31, 31,
13, 16,
16, 23,
19, 24,
21, 11,
21, 11,
18, 19,
23, 21,
24, 21,
21, 21,
21, 11,
6, 31,
23, 22,
23, 21</data>
	</layer>
</map>
