<?xml version="1.0" ?>
<map height="70" orientation="orthogonal" renderorder="right-down" tileheight="16" tilewidth="16" width="2">
	<!--Add tilesets as much as needed-->
	<tileset firstgid="1" tileheight="16" tilewidth="16">
		<image source="../metatiles/Metatiles_064_6e7f.tmx"/>
	</tileset>
	<layer height="70" id="1" name="blocks" width="2">
		<data encoding="csv">
35, 35,
35, 35,
35, 1,
35, 22,
1, 42,
22, 30,
1, 35,
22, 35,
45, 22,
22, 24,
22, 37,
47, 47,
22, 46,
25, 22,
35, 22,
35, 22,
22, 30,
22, 37,
22, 35,
22, 35,
35, 34,
35, 41,
42, 1,
22, 22,
42, 1,
22, 33,
34, 1,
41, 22,
48, 35,
49, 35,
45, 2,
22, 22,
2, 2,
22, 24,
2, 40,
25, 22,
2, 2,
25, 22,
2, 46,
22, 22,
35, 29,
35, 36,
22, 29,
22, 36,
22, 22,
22, 22,
30, 22,
37, 22,
30, 35,
37, 35,
35, 5,
35, 51,
19, 50,
26, 44,
1, 42,
22, 44,
5, 35,
51, 35,
45, 44,
22, 22,
22, 22,
11, 22,
44, 35,
22, 35,
35, 22,
35, 44,
22, 22,
44, 44,
51, 35,
44, 35</data>
	</layer>
</map>
