<?xml version="1.0" ?>
<map height="66" orientation="orthogonal" renderorder="right-down" tileheight="16" tilewidth="16" width="2">
	<!--Add tilesets as much as needed-->
	<tileset firstgid="1" tileheight="16" tilewidth="16">
		<image source="../metatiles/Metatiles_057_5a1b.tmx"/>
	</tileset>
	<layer height="66" id="1" name="blocks" width="2">
		<data encoding="csv">
19, 16,
16, 19,
3, 1,
13, 6,
16, 19,
19, 16,
16, 19,
19, 22,
19, 5,
16, 3,
7, 6,
1, 10,
8, 11,
8, 7,
19, 8,
16, 8,
11, 18,
7, 11,
8, 7,
13, 7,
3, 7,
10, 3,
11, 19,
7, 11,
22, 19,
12, 12,
22, 13,
13, 7,
7, 1,
1, 22,
22, 16,
16, 19,
3, 1,
5, 6,
2, 2,
16, 22,
3, 1,
16, 18,
3, 11,
13, 1,
12, 12,
1, 2,
12, 13,
2, 3,
11, 19,
7, 6,
16, 18,
19, 16,
16, 22,
19, 16,
3, 6,
8, 11,
18, 19,
22, 22,
16, 19,
19, 18,
8, 7,
22, 3,
11, 13,
1, 3,
11, 22,
7, 11,
3, 1,
22, 16,
3, 1,
18, 16</data>
	</layer>
</map>
