<?xml version="1.0" ?>
<map height="348" orientation="orthogonal" renderorder="right-down" tileheight="16" tilewidth="16" width="2">
	<!--Add tilesets as much as needed-->
	<tileset firstgid="1" tileheight="16" tilewidth="16">
		<image source="../metatiles/Metatiles_064_44d1.tmx"/>
	</tileset>
	<layer height="348" id="1" name="blocks" width="2">
		<data encoding="csv">
34, 34,
34, 19,
19, 40,
28, 8,
14, 14,
8, 8,
14, 14,
8, 4,
20, 34,
15, 34,
34, 34,
34, 34,
34, 41,
34, 16,
9, 17,
37, 38,
42, 23,
23, 35,
38, 31,
39, 38,
27, 20,
7, 15,
34, 16,
34, 16,
38, 39,
39, 44,
43, 31,
35, 24,
35, 39,
31, 29,
37, 27,
37, 7,
20, 34,
27, 14,
34, 25,
34, 19,
13, 13,
14, 14,
22, 37,
46, 47,
45, 24,
13, 22,
29, 29,
48, 31,
7, 8,
31, 31,
8, 8,
2, 42,
8, 15,
29, 27,
34, 25,
14, 20,
13, 22,
34, 25,
42, 35,
13, 13,
34, 34,
14, 14,
34, 16,
14, 28,
4, 8,
32, 31,
8, 8,
32, 31,
8, 9,
31, 23,
33, 31,
31, 21,
34, 19,
14, 28,
14, 14,
4, 8,
14, 28,
8, 9,
32, 31,
33, 31,
23, 35,
21, 13,
24, 15,
13, 26,
8, 9,
23, 24,
33, 31,
31, 31,
23, 24,
29, 30,
31, 23,
23, 35,
15, 34,
15, 34,
29, 30,
22, 42,
31, 23,
23, 21,
21, 13,
26, 34,
13, 13,
34, 34,
26, 34,
34, 34,
8, 8,
31, 29,
27, 14,
7, 8,
20, 34,
27, 20,
31, 31,
22, 42,
29, 30,
31, 31,
31, 31,
31, 31,
31, 29,
35, 31,
7, 15,
29, 15,
25, 13,
34, 34,
13, 13,
34, 19,
22, 42,
28, 32,
29, 15,
31, 15,
19, 14,
28, 4,
9, 33,
33, 23,
31, 15,
24, 15,
9, 33,
32, 31,
31, 31,
31, 49,
49, 50,
50, 31,
31, 29,
31, 31,
30, 15,
21, 26,
32, 31,
32, 31,
23, 7,
29, 35,
4, 27,
37, 7,
20, 34,
15, 19,
34, 25,
34, 34,
22, 42,
25, 22,
31, 29,
37, 51,
23, 37,
35, 30,
27, 28,
7, 9,
8, 8,
33, 31,
34, 16,
34, 25,
52, 35,
22, 53,
30, 31,
37, 54,
31, 23,
23, 37,
19, 14,
16, 8,
46, 55,
8, 8,
47, 13,
15, 34,
16, 32,
16, 32,
88, 42,
23, 24,
38, 37,
39, 89,
16, 32,
28, 32,
31, 27,
23, 7,
9, 33,
24, 31,
29, 37,
23, 29,
45, 38,
38, 39,
7, 8,
56, 31,
8, 8,
31, 31,
9, 33,
31, 23,
37, 57,
21, 22,
29, 35,
42, 29,
39, 58,
35, 30,
31, 31,
23, 24,
21, 22,
15, 25,
42, 23,
13, 13,
26, 16,
34, 16,
32, 31,
32, 35,
31, 31,
31, 23,
29, 30,
21, 13,
15, 34,
26, 34,
32, 31,
59, 31,
21, 13,
15, 34,
21, 13,
27, 20,
31, 31,
35, 31,
7, 15,
37, 27,
34, 34,
14, 20,
37, 37,
22, 60,
51, 35,
37, 54,
30, 7,
23, 24,
4, 27,
29, 7,
16, 32,
25, 13,
35, 30,
13, 13,
29, 30,
13, 13,
31, 31,
61, 12,
31, 29,
42, 31,
16, 9,
16, 32,
33, 35,
35, 31,
31, 29,
21, 13,
25, 22,
34, 16,
42, 31,
32, 35,
15, 34,
27, 20,
7, 15,
31, 27,
8, 9,
32, 31,
33, 31,
31, 35,
22, 42,
16, 32,
31, 7,
23, 24,
4, 9,
31, 31,
33, 31,
31, 23,
16, 52,
25, 13,
37, 54,
13, 13,
24, 31,
13, 13,
23, 21,
13, 26,
34, 16,
19, 28,
28, 9,
9, 33,
33, 31,
31, 62,
7, 27,
37, 7,
34, 19,
34, 16,
62, 23,
23, 37,
35, 38,
45, 39,
15, 34,
27, 14,
19, 28,
28, 9,
32, 31,
33, 35,
37, 45,
35, 30,
7, 8,
23, 24,
9, 33,
31, 31,
35, 31,
31, 21,
22, 48,
25, 13,
31, 31,
13, 13,
21, 26,
26, 34,
31, 21,
31, 15,
4, 8,
33, 31,
9, 33,
35, 31,
31, 27,
31, 7,
23, 31,
35, 21,
31, 31,
13, 61,
31, 31,
55, 12,
35, 31,
42, 31,
13, 26,
34, 34,
8, 9,
32, 3,
32, 63,
65, 66,
64, 31,
67, 37,
37, 15,
68, 15,
8, 8,
1, 42,
1, 42,
23, 24,
38, 37,
39, 1</data>
	</layer>
</map>
