<?xml version="1.0" ?>
<map height="64" orientation="orthogonal" renderorder="right-down" tileheight="16" tilewidth="16" width="2">
	<!--Add tilesets as much as needed-->
	<tileset firstgid="1" tileheight="16" tilewidth="16">
		<image source="../metatiles/Metatiles_057_790b.tmx"/>
	</tileset>
	<layer height="64" id="1" name="blocks" width="2">
		<data encoding="csv">
14, 9,
9, 14,
16, 17,
21, 22,
18, 19,
23, 24,
4, 9,
25, 14,
14, 11,
9, 4,
10, 10,
11, 13,
13, 9,
9, 14,
26, 27,
31, 32,
28, 29,
33, 34,
30, 9,
35, 14,
4, 9,
9, 14,
36, 37,
4, 1,
38, 39,
3, 7,
40, 7,
5, 7,
14, 9,
7, 14,
14, 9,
4, 14,
4, 11,
9, 7,
20, 3,
11, 13,
1, 2,
11, 12,
3, 1,
20, 13,
2, 3,
11, 20,
7, 4,
2, 3,
14, 4,
7, 7,
14, 9,
3, 14,
14, 4,
9, 4,
7, 7,
9, 7,
7, 7,
7, 7,
11, 3,
9, 11,
1, 15,
12, 12,
20, 13,
13, 7,
7, 7,
9, 4,
8, 4,
20, 3</data>
	</layer>
</map>
