<?xml version="1.0" ?>
<map height="38" orientation="orthogonal" renderorder="right-down" tileheight="16" tilewidth="16" width="2">
	<!--Add tilesets as much as needed-->
	<tileset firstgid="1" tileheight="16" tilewidth="16">
		<image source="../metatiles/Metatiles_018_40d3.tmx"/>
	</tileset>
	<layer height="38" id="1" name="blocks" width="2">
		<data encoding="csv">
23, 23,
23, 13,
23, 23,
24, 10,
23, 23,
12, 2,
23, 23,
19, 5,
23, 23,
11, 2,
23, 23,
13, 23,
23, 1,
23, 3,
25, 20,
3, 3,
1, 1,
3, 3,
8, 15,
18, 3,
1, 23,
3, 23,
23, 6,
23, 16,
1, 1,
1, 1,
7, 23,
17, 23,
1, 9,
1, 1,
9, 1,
1, 1,
23, 23,
23, 23,
23, 21,
23, 23,
22, 23,
23, 23</data>
	</layer>
</map>
