<?xml version="1.0" ?>
<map height="36" orientation="orthogonal" renderorder="right-down" tileheight="16" tilewidth="16" width="2">
	<!--Add tilesets as much as needed-->
	<tileset firstgid="1" tileheight="16" tilewidth="16">
		<image source="../metatiles/Metatiles_001_5dd3.tmx"/>
	</tileset>
	<layer height="36" id="1" name="blocks" width="2">
		<data encoding="csv">
42, 42,
42, 42,
42, 42,
22, 47,
42, 42,
1, 3,
42, 42,
1, 1,
42, 42,
9, 1,
30, 49,
25, 25,
10, 11,
55, 56,
5, 21,
25, 29,
25, 25,
25, 25,
25, 25,
25, 36,
25, 25,
26, 27,
25, 25,
36, 25,
25, 25,
23, 25,
25, 36,
25, 25,
34, 35,
25, 25,
36, 25,
25, 33,
42, 37,
42, 42,
38, 42,
42, 42</data>
	</layer>
</map>
