<?xml version="1.0" ?>
<map height="58" orientation="orthogonal" renderorder="right-down" tileheight="16" tilewidth="16" width="2">
	<!--Add tilesets as much as needed-->
	<tileset firstgid="1" tileheight="16" tilewidth="16">
		<image source="../metatiles/Metatiles_053_57ac.tmx"/>
	</tileset>
	<layer height="58" id="1" name="blocks" width="2">
		<data encoding="csv">
1, 1,
1, 1,
1, 1,
1, 2,
1, 6,
8, 3,
11, 11,
11, 11,
13, 1,
4, 5,
1, 2,
2, 3,
8, 3,
14, 11,
36, 11,
7, 14,
11, 4,
11, 11,
8, 5,
15, 4,
3, 11,
11, 11,
36, 11,
7, 11,
15, 11,
16, 16,
11, 11,
16, 16,
12, 12,
12, 12,
6, 17,
3, 21,
18, 19,
22, 23,
2, 8,
3, 11,
9, 3,
7, 11,
14, 24,
11, 28,
25, 26,
29, 30,
27, 4,
31, 11,
8, 5,
11, 4,
14, 11,
11, 11,
15, 32,
11, 11,
33, 34,
11, 11,
35, 11,
11, 11,
11, 14,
14, 11,
11, 15,
16, 16</data>
	</layer>
</map>
