<?xml version="1.0" ?>
<map height="48" orientation="orthogonal" renderorder="right-down" tileheight="16" tilewidth="16" width="2">
	<!--Add tilesets as much as needed-->
	<tileset firstgid="1" tileheight="16" tilewidth="16">
		<image source="../metatiles/Metatiles_064_6709.tmx"/>
	</tileset>
	<layer height="48" id="1" name="blocks" width="2">
		<data encoding="csv">
31, 31,
31, 39,
31, 31,
40, 41,
31, 31,
7, 2,
31, 31,
6, 6,
31, 31,
42, 31,
31, 43,
31, 5,
44, 45,
4, 4,
4, 4,
4, 36,
4, 4,
34, 38,
4, 4,
35, 37,
46, 31,
4, 31,
31, 4,
31, 23,
4, 4,
24, 25,
4, 4,
4, 4,
4, 4,
37, 36,
4, 31,
4, 31,
31, 5,
31, 4,
4, 47,
4, 30,
4, 4,
4, 37,
4, 4,
38, 35,
4, 31,
34, 31,
31, 31,
31, 31,
31, 21,
31, 31,
22, 31,
31, 31</data>
	</layer>
</map>
