<?xml version="1.0" ?>
<map height="172" orientation="orthogonal" renderorder="right-down" tileheight="16" tilewidth="16" width="2">
	<!--Add tilesets as much as needed-->
	<tileset firstgid="1" tileheight="16" tilewidth="16">
		<image source="../metatiles/Metatiles_064_4f7d.tmx"/>
	</tileset>
	<layer height="172" id="1" name="blocks" width="2">
		<data encoding="csv">
12, 27,
12, 36,
21, 41,
39, 34,
16, 24,
20, 16,
12, 21,
18, 36,
27, 10,
39, 10,
12, 36,
29, 8,
39, 39,
8, 9,
39, 20,
40, 39,
22, 35,
39, 39,
39, 10,
39, 10,
23, 17,
12, 27,
17, 18,
21, 22,
36, 39,
35, 39,
39, 39,
39, 46,
7, 26,
32, 18,
12, 36,
12, 36,
34, 39,
39, 39,
39, 39,
39, 34,
7, 42,
10, 12,
21, 22,
36, 39,
29, 8,
23, 17,
8, 8,
17, 17,
8, 8,
24, 11,
30, 12,
23, 55,
62, 40,
13, 13,
11, 11,
11, 11,
23, 17,
12, 41,
18, 21,
22, 61,
21, 10,
40, 10,
23, 17,
12, 21,
18, 36,
22, 35,
39, 39,
39, 7,
34, 10,
8, 30,
17, 24,
27, 10,
39, 39,
39, 39,
34, 10,
39, 16,
11, 11,
17, 24,
35, 16,
34, 20,
45, 8,
14, 17,
8, 9,
17, 18,
40, 20,
36, 39,
21, 10,
39, 10,
39, 39,
13, 49,
5, 27,
15, 36,
21, 22,
39, 34,
35, 39,
39, 39,
12, 21,
12, 36,
27, 21,
34, 39,
16, 17,
20, 21,
18, 41,
22, 35,
21, 21,
39, 39,
39, 39,
34, 39,
39, 39,
7, 8,
29, 9,
11, 29,
40, 39,
8, 8,
7, 31,
30, 12,
13, 13,
21, 21,
32, 24,
21, 10,
11, 23,
11, 12,
17, 17,
21, 27,
17, 18,
41, 22,
63, 40,
35, 39,
64, 10,
39, 10,
11, 12,
11, 29,
36, 39,
8, 8,
34, 39,
8, 8,
39, 39,
8, 8,
7, 30,
30, 11,
29, 56,
11, 12,
13, 13,
27, 21,
13, 13,
41, 21,
13, 24,
27, 10,
39, 10,
57, 30,
11, 12,
23, 18,
36, 34,
36, 39,
11, 23,
23, 18,
18, 22,
22, 35,
39, 10,
7, 30,
35, 39,
34, 39,
39, 7,
7, 30,
30, 11,
11, 11,
10, 11,
30, 11,
18, 21,
22, 1,
1, 40,
13, 13,
1, 40,
35, 39,
1, 10,
39, 10</data>
	</layer>
</map>
