<?xml version="1.0" ?>
<map height="50" orientation="orthogonal" renderorder="right-down" tileheight="16" tilewidth="16" width="2">
	<!--Add tilesets as much as needed-->
	<tileset firstgid="1" tileheight="16" tilewidth="16">
		<image source="../metatiles/Metatiles_064_7739.tmx"/>
	</tileset>
	<layer height="50" id="1" name="blocks" width="2">
		<data encoding="csv">
31, 31,
31, 33,
31, 31,
34, 33,
31, 31,
35, 36,
31, 31,
7, 37,
31, 31,
38, 39,
31, 31,
40, 31,
31, 41,
31, 49,
42, 41,
4, 50,
43, 44,
4, 4,
4, 45,
4, 4,
46, 47,
4, 4,
48, 31,
4, 31,
31, 4,
31, 4,
4, 4,
4, 4,
4, 4,
4, 32,
4, 26,
5, 28,
27, 5,
29, 4,
4, 31,
4, 31,
31, 3,
31, 3,
32, 4,
4, 4,
4, 32,
4, 4,
4, 31,
3, 31,
31, 31,
31, 31,
31, 21,
31, 31,
22, 31,
31, 31</data>
	</layer>
</map>
