<?xml version="1.0" ?>
<map height="164" orientation="orthogonal" renderorder="right-down" tileheight="16" tilewidth="16" width="2">
	<!--Add tilesets as much as needed-->
	<tileset firstgid="1" tileheight="16" tilewidth="16">
		<image source="../metatiles/Metatiles_06a_5020.tmx"/>
	</tileset>
	<layer height="164" id="1" name="blocks" width="2">
		<data encoding="csv">
13, 29,
13, 43,
30, 36,
43, 38,
37, 50,
39, 55,
19, 20,
51, 51,
7, 6,
12, 13,
13, 48,
13, 46,
48, 45,
25, 49,
25, 25,
25, 25,
56, 56,
25, 75,
12, 13,
12, 13,
14, 4,
42, 42,
5, 27,
14, 5,
25, 25,
27, 25,
8, 11,
28, 19,
15, 13,
20, 60,
42, 6,
6, 21,
20, 21,
30, 31,
23, 25,
22, 25,
25, 30,
25, 25,
31, 29,
25, 25,
13, 28,
13, 23,
22, 25,
25, 25,
25, 25,
3, 4,
3, 5,
15, 14,
27, 25,
4, 4,
21, 29,
28, 44,
51, 36,
56, 38,
37, 19,
39, 40,
20, 7,
29, 19,
42, 42,
20, 7,
23, 48,
23, 25,
25, 41,
25, 25,
31, 12,
25, 12,
52, 27,
9, 9,
25, 47,
11, 4,
27, 25,
4, 5,
25, 12,
27, 12,
30, 31,
25, 25,
19, 7,
28, 19,
42, 42,
20, 20,
6, 21,
18, 28,
23, 12,
22, 12,
25, 25,
5, 27,
16, 23,
16, 23,
25, 12,
8, 59,
13, 23,
13, 23,
25, 8,
25, 28,
59, 42,
12, 42,
42, 42,
42, 42,
13, 23,
13, 46,
12, 42,
19, 20,
42, 42,
7, 42,
62, 61,
13, 28,
27, 25,
22, 25,
29, 28,
25, 25,
19, 20,
30, 31,
7, 42,
19, 20,
25, 25,
3, 5,
13, 53,
14, 4,
25, 25,
4, 4,
12, 14,
15, 42,
4, 5,
42, 14,
14, 4,
42, 6,
4, 5,
20, 21,
27, 25,
23, 25,
28, 12,
25, 12,
6, 21,
13, 28,
30, 31,
22, 25,
22, 25,
25, 3,
17, 5,
15, 13,
27, 12,
23, 12,
13, 23,
21, 23,
25, 3,
25, 19,
63, 64,
21, 30,
20, 21,
31, 29,
29, 22,
25, 25,
31, 22,
25, 25,
25, 25,
25, 3,
25, 12,
4, 15,
3, 4,
15, 42,
4, 15,
42, 42,
56, 56,
25, 1</data>
	</layer>
</map>
