<?xml version="1.0" ?>
<map height="166" orientation="orthogonal" renderorder="right-down" tileheight="16" tilewidth="16" width="2">
	<!--Add tilesets as much as needed-->
	<tileset firstgid="1" tileheight="16" tilewidth="16">
		<image source="../metatiles/Metatiles_06a_5020.tmx"/>
	</tileset>
	<layer height="166" id="1" name="blocks" width="2">
		<data encoding="csv">
42, 6,
6, 21,
20, 21,
30, 31,
28, 29,
22, 25,
30, 31,
25, 25,
19, 20,
30, 40,
13, 28,
13, 23,
22, 25,
25, 25,
25, 25,
25, 3,
25, 25,
5, 27,
25, 41,
25, 25,
13, 23,
13, 23,
25, 8,
25, 28,
11, 15,
12, 42,
62, 61,
13, 28,
27, 25,
50, 25,
14, 5,
42, 13,
27, 25,
23, 25,
19, 7,
29, 12,
13, 76,
13, 23,
55, 27,
25, 25,
42, 14,
42, 42,
5, 27,
13, 23,
25, 12,
25, 19,
13, 46,
65, 4,
25, 77,
4, 4,
7, 42,
19, 7,
13, 30,
13, 52,
31, 29,
27, 47,
30, 31,
47, 44,
19, 7,
28, 12,
29, 19,
47, 28,
18, 23,
16, 46,
25, 25,
25, 25,
25, 48,
66, 25,
45, 12,
49, 12,
25, 25,
45, 43,
17, 4,
12, 6,
5, 27,
60, 61,
25, 25,
27, 25,
3, 15,
12, 42,
49, 48,
43, 43,
12, 13,
12, 13,
30, 31,
23, 25,
12, 42,
12, 42,
48, 48,
4, 4,
12, 13,
15, 13,
23, 25,
23, 25,
8, 11,
28, 12,
15, 42,
42, 42,
42, 42,
42, 42,
25, 28,
25, 25,
42, 42,
42, 6,
14, 5,
20, 21,
19, 20,
29, 30,
20, 7,
31, 19,
6, 21,
13, 28,
50, 31,
55, 22,
25, 30,
25, 25,
13, 46,
13, 43,
25, 53,
45, 25,
25, 45,
25, 49,
25, 3,
44, 12,
5, 27,
14, 4,
13, 48,
14, 4,
49, 25,
4, 4,
47, 47,
4, 4,
48, 12,
4, 15,
25, 19,
25, 29,
7, 42,
12, 42,
42, 6,
20, 21,
20, 20,
30, 31,
65, 5,
12, 13,
29, 31,
25, 25,
19, 65,
28, 19,
5, 27,
21, 23,
25, 12,
25, 12,
25, 25,
4, 4,
31, 22,
25, 25,
14, 5,
42, 14,
27, 25,
4, 4,
3, 15,
15, 42,
13, 1,
13, 23,
25, 1,
4, 4</data>
	</layer>
</map>
