<?xml version="1.0" ?>
<map height="150" orientation="orthogonal" renderorder="right-down" tileheight="16" tilewidth="16" width="2">
	<!--Add tilesets as much as needed-->
	<tileset firstgid="1" tileheight="16" tilewidth="16">
		<image source="../metatiles/Metatiles_011_702d.tmx"/>
	</tileset>
	<layer height="150" id="1" name="blocks" width="2">
		<data encoding="csv">
19, 16,
16, 19,
13, 1,
3, 11,
8, 9,
8, 14,
19, 18,
16, 8,
13, 1,
7, 11,
19, 16,
22, 19,
18, 3,
16, 18,
3, 7,
22, 2,
11, 12,
3, 7,
19, 16,
6, 19,
19, 16,
15, 19,
15, 16,
16, 19,
18, 16,
16, 19,
19, 8,
16, 13,
6, 22,
11, 15,
19, 22,
11, 13,
19, 3,
16, 13,
7, 11,
7, 1,
14, 6,
9, 6,
19, 16,
18, 19,
13, 1,
3, 6,
16, 19,
19, 16,
14, 6,
2, 18,
12, 10,
2, 13,
21, 10,
11, 16,
12, 12,
3, 7,
13, 7,
7, 7,
1, 19,
11, 18,
19, 16,
10, 19,
8, 7,
13, 7,
7, 4,
7, 9,
9, 6,
14, 6,
12, 13,
3, 1,
11, 13,
2, 3,
5, 7,
7, 7,
7, 14,
7, 1,
1, 18,
18, 16,
19, 13,
16, 3,
1, 2,
11, 22,
2, 2,
16, 15,
19, 3,
22, 13,
7, 6,
7, 11,
19, 15,
16, 15,
2, 16,
15, 19,
19, 15,
18, 8,
22, 3,
11, 13,
7, 1,
7, 6,
19, 8,
18, 13,
11, 13,
7, 7,
11, 12,
7, 7,
15, 15,
11, 15,
2, 22,
16, 22,
8, 9,
13, 14,
4, 7,
9, 4,
7, 1,
1, 22,
3, 6,
16, 18,
4, 9,
9, 14,
14, 1,
9, 11,
10, 16,
16, 19,
22, 16,
16, 19,
3, 7,
13, 7,
7, 6,
1, 22,
19, 8,
16, 8,
16, 22,
19, 16,
19, 8,
16, 18,
7, 11,
3, 1,
16, 19,
19, 12,
16, 19,
19, 18,
16, 19,
19, 22,
13, 11,
2, 3,
13, 7,
1, 2,
11, 12,
2, 3,
12, 13,
7, 1,
2, 16,
16, 19,
10, 10,
11, 16</data>
	</layer>
</map>
