<?xml version="1.0" ?>
<map height="270" orientation="orthogonal" renderorder="right-down" tileheight="16" tilewidth="16" width="2">
	<!--Add tilesets as much as needed-->
	<tileset firstgid="1" tileheight="16" tilewidth="16">
		<image source="../metatiles/Metatiles_011_4782.tmx"/>
	</tileset>
	<layer height="270" id="1" name="blocks" width="2">
		<data encoding="csv">
13, 20,
20, 13,
13, 20,
20, 11,
20, 11,
18, 32,
20, 20,
32, 32,
20, 11,
32, 32,
11, 20,
32, 32,
13, 20,
20, 18,
36, 37,
39, 39,
37, 38,
39, 39,
13, 36,
20, 39,
37, 37,
39, 39,
38, 13,
39, 37,
13, 25,
20, 25,
40, 41,
43, 48,
41, 42,
45, 49,
22, 40,
29, 50,
41, 41,
45, 46,
42, 41,
47, 46,
30, 35,
30, 30,
35, 15,
35, 35,
2, 10,
8, 10,
16, 16,
35, 35,
13, 31,
20, 13,
32, 32,
11, 11,
19, 35,
27, 13,
15, 14,
13, 15,
2, 3,
16, 17,
35, 35,
35, 35,
20, 21,
32, 26,
21, 20,
32, 32,
20, 13,
19, 20,
11, 13,
13, 20,
13, 12,
38, 35,
38, 21,
39, 32,
42, 23,
47, 29,
35, 1,
35, 8,
3, 40,
10, 50,
42, 22,
47, 29,
27, 13,
27, 20,
17, 1,
35, 15,
2, 17,
16, 3,
15, 3,
1, 17,
17, 35,
30, 30,
27, 11,
27, 11,
17, 35,
35, 1,
35, 30,
3, 18,
30, 30,
32, 32,
27, 13,
33, 20,
11, 36,
32, 39,
38, 35,
39, 35,
35, 35,
35, 13,
13, 13,
36, 37,
30, 40,
30, 43,
41, 41,
48, 45,
42, 22,
49, 29,
35, 20,
35, 35,
39, 39,
40, 41,
13, 25,
20, 28,
30, 11,
12, 35,
35, 35,
1, 2,
35, 35,
3, 35,
43, 44,
4, 17,
8, 16,
15, 3,
16, 2,
35, 8,
3, 35,
17, 35,
35, 35,
13, 35,
13, 34,
20, 25,
13, 35,
20, 21,
2, 10,
15, 17,
35, 13,
35, 20,
20, 11,
1, 2,
13, 21,
37, 37,
11, 13,
38, 20,
13, 8,
20, 15,
10, 25,
17, 25,
21, 13,
13, 20,
39, 39,
41, 41,
39, 37,
42, 41,
38, 35,
42, 23,
35, 25,
35, 31,
45, 46,
1, 14,
47, 46,
6, 10,
47, 29,
8, 3,
35, 30,
35, 35,
30, 30,
30, 30,
15, 9,
35, 15,
7, 17,
17, 35,
8, 9,
15, 36,
3, 13,
37, 37,
13, 30,
38, 13,
35, 35,
3, 1,
35, 35,
2, 3,
35, 39,
35, 40,
39, 20,
42, 22,
13, 31,
20, 21,
32, 19,
11, 27,
35, 35,
13, 13,
35, 35,
35, 1,
8, 9,
9, 9,
13, 11,
20, 18,
11, 11,
32, 32,
38, 15,
39, 35,
16, 14,
35, 15,
30, 30,
13, 30,
40, 41,
43, 44,
20, 13,
21, 20,
5, 17,
35, 35,
17, 35,
35, 35,
1, 2,
15, 16,
32, 32,
13, 13,
32, 32,
21, 13,
32, 32,
13, 11,
9, 9,
14, 9,
9, 17,
10, 35,
35, 50,
35, 35,
45, 46,
35, 35,
47, 29,
11, 30,
6, 7,
7, 10,
17, 35,
35, 18,
35, 35,
32, 32,
35, 30,
32, 32,
27, 11,
30, 13,
15, 17,
35, 35,
32, 28,
35, 35,
1, 3,
8, 17,
1, 2,
15, 10,
2, 3,
8, 10,
27, 20,
27, 21,
32, 34,
21, 25,
8, 3,
15, 16,
1, 17,
17, 35,
8, 10,
15, 17,
32, 32,
11, 13,
32, 31,
13, 21,
33, 13,
13, 20</data>
	</layer>
</map>
