<?xml version="1.0" ?>
<map height="162" orientation="orthogonal" renderorder="right-down" tileheight="16" tilewidth="16" width="2">
	<!--Add tilesets as much as needed-->
	<tileset firstgid="1" tileheight="16" tilewidth="16">
		<image source="../metatiles/Metatiles_057_652a.tmx"/>
	</tileset>
	<layer height="162" id="1" name="blocks" width="2">
		<data encoding="csv">
6, 20,
13, 29,
20, 20,
30, 31,
7, 42,
12, 42,
42, 42,
42, 42,
42, 6,
42, 13,
20, 20,
29, 30,
13, 23,
13, 23,
48, 25,
25, 25,
12, 42,
12, 42,
6, 20,
13, 28,
20, 21,
30, 31,
23, 25,
22, 25,
14, 5,
42, 13,
27, 25,
23, 25,
19, 20,
30, 31,
21, 23,
29, 22,
25, 25,
25, 25,
25, 25,
25, 3,
42, 13,
42, 13,
23, 25,
23, 25,
25, 3,
25, 12,
4, 15,
42, 42,
42, 14,
42, 6,
5, 27,
21, 23,
3, 4,
15, 42,
28, 22,
23, 25,
25, 12,
25, 12,
20, 20,
31, 28,
7, 42,
19, 20,
42, 6,
7, 13,
21, 29,
28, 22,
30, 31,
25, 25,
12, 42,
19, 7,
19, 21,
30, 31,
23, 25,
22, 3,
25, 25,
5, 27,
61, 25,
62, 4,
25, 12,
3, 63,
13, 23,
21, 23,
14, 4,
42, 42,
4, 58,
6, 21,
64, 21,
30, 31,
28, 22,
22, 25,
13, 29,
13, 23,
22, 25,
25, 25,
3, 15,
12, 42,
25, 8,
25, 28,
4, 4,
12, 42,
15, 42,
42, 42,
8, 64,
30, 31,
5, 27,
20, 60,
25, 25,
27, 25,
42, 13,
6, 21,
30, 31,
23, 25,
22, 3,
25, 12,
15, 42,
42, 6,
42, 6,
20, 21,
13, 28,
13, 23,
22, 25,
25, 8,
25, 12,
9, 64,
6, 21,
21, 29,
30, 31,
22, 25,
22, 73,
25, 25,
25, 28,
25, 25,
28, 22,
25, 25,
25, 74,
4, 4,
14, 5,
42, 14,
27, 25,
4, 4,
25, 25,
4, 4,
3, 15,
15, 42,
13, 23,
14, 4,
42, 42,
42, 6,
13, 23,
65, 60,
6, 21,
13, 29,
6, 20,
13, 30,
21, 23,
31, 22,
3, 4,
12, 42,
12, 42,
15, 42,
25, 25,
47, 27,
22, 1,
25, 25,
25, 1,
4, 4</data>
	</layer>
</map>
