<?xml version="1.0" ?>
<map height="82" orientation="orthogonal" renderorder="right-down" tileheight="16" tilewidth="16" width="2">
	<!--Add tilesets as much as needed-->
	<tileset firstgid="1" tileheight="16" tilewidth="16">
		<image source="../metatiles/Metatiles_011_702d.tmx"/>
	</tileset>
	<layer height="82" id="1" name="blocks" width="2">
		<data encoding="csv">
18, 19,
12, 18,
16, 19,
19, 16,
16, 19,
19, 5,
13, 1,
7, 6,
9, 6,
14, 6,
18, 19,
22, 12,
18, 3,
12, 13,
7, 6,
1, 16,
2, 18,
18, 16,
18, 19,
22, 13,
13, 1,
7, 11,
2, 3,
18, 16,
6, 19,
18, 16,
16, 19,
19, 12,
22, 3,
12, 13,
7, 1,
1, 16,
8, 4,
22, 2,
3, 7,
8, 1,
11, 19,
3, 11,
18, 19,
12, 16,
16, 22,
19, 16,
16, 18,
19, 16,
16, 3,
19, 8,
1, 19,
11, 12,
16, 13,
19, 3,
7, 7,
1, 3,
16, 19,
19, 15,
16, 18,
19, 12,
7, 1,
7, 6,
13, 11,
3, 7,
13, 17,
7, 20,
11, 13,
7, 7,
7, 6,
1, 15,
13, 7,
3, 7,
4, 9,
7, 14,
9, 9,
14, 14,
11, 16,
4, 19,
8, 7,
8, 1,
7, 7,
3, 1,
7, 5,
3, 1,
13, 6,
3, 11</data>
	</layer>
</map>
