<?xml version="1.0" ?>
<map height="152" orientation="orthogonal" renderorder="right-down" tileheight="16" tilewidth="16" width="2">
	<!--Add tilesets as much as needed-->
	<tileset firstgid="1" tileheight="16" tilewidth="16">
		<image source="../metatiles/Metatiles_050_687d.tmx"/>
	</tileset>
	<layer height="152" id="1" name="blocks" width="2">
		<data encoding="csv">
12, 12,
12, 12,
12, 9,
12, 13,
17, 17,
25, 25,
17, 17,
25, 69,
10, 12,
16, 17,
9, 17,
18, 20,
12, 13,
12, 13,
50, 51,
3, 21,
52, 61,
5, 5,
24, 25,
5, 5,
23, 4,
5, 5,
12, 13,
12, 14,
44, 28,
7, 7,
5, 5,
7, 7,
9, 17,
13, 25,
17, 17,
25, 19,
17, 17,
25, 37,
10, 12,
11, 12,
13, 45,
13, 3,
46, 21,
5, 5,
43, 40,
5, 5,
11, 12,
11, 12,
13, 82,
13, 47,
28, 5,
3, 5,
5, 5,
35, 36,
17, 17,
19, 25,
17, 17,
25, 20,
5, 5,
5, 5,
5, 30,
5, 5,
30, 28,
5, 5,
5, 27,
5, 5,
6, 7,
34, 17,
7, 7,
17, 17,
7, 7,
17, 10,
7, 8,
12, 13,
13, 20,
13, 21,
64, 64,
65, 65,
25, 11,
81, 16,
12, 13,
17, 18,
3, 5,
3, 5,
13, 3,
13, 43,
5, 5,
28, 5,
5, 24,
5, 5,
25, 23,
5, 5,
4, 5,
5, 5,
14, 7,
12, 12,
7, 8,
12, 14,
28, 5,
7, 7,
5, 30,
7, 7,
11, 12,
15, 12,
13, 30,
14, 7,
3, 5,
8, 28,
5, 5,
5, 6,
9, 17,
13, 69,
13, 3,
13, 3,
5, 16,
5, 24,
18, 61,
23, 4,
17, 17,
20, 25,
18, 3,
23, 4,
30, 30,
5, 5,
28, 5,
5, 5,
3, 22,
3, 5,
31, 32,
24, 25,
12, 14,
12, 12,
7, 7,
12, 12,
8, 28,
13, 30,
3, 39,
5, 39,
48, 49,
53, 54,
5, 39,
5, 83,
32, 32,
19, 25,
32, 32,
25, 20,
33, 12,
16, 17,
8, 28,
14, 7,
25, 11,
1, 16,
13, 1,
13, 47,
5, 39,
5, 1</data>
	</layer>
</map>
