<?xml version="1.0" ?>
<map height="48" orientation="orthogonal" renderorder="right-down" tileheight="16" tilewidth="16" width="2">
	<!--Add tilesets as much as needed-->
	<tileset firstgid="1" tileheight="16" tilewidth="16">
		<image source="../metatiles/Metatiles_064_6436.tmx"/>
	</tileset>
	<layer height="48" id="1" name="blocks" width="2">
		<data encoding="csv">
42, 42,
42, 6,
42, 42,
20, 20,
42, 42,
20, 7,
42, 42,
42, 42,
42, 13,
6, 21,
30, 31,
23, 25,
29, 49,
25, 25,
29, 30,
25, 25,
40, 12,
41, 19,
42, 42,
7, 42,
13, 29,
13, 23,
22, 25,
1, 1,
25, 25,
27, 25,
25, 25,
25, 25,
25, 29,
25, 25,
12, 42,
12, 42,
13, 23,
14, 5,
25, 25,
25, 3,
12, 42,
15, 42,
42, 14,
42, 42,
4, 4,
42, 42,
5, 25,
13, 23,
25, 3,
25, 12,
4, 15,
42, 42</data>
	</layer>
</map>
