<?xml version="1.0" ?>
<map height="68" orientation="orthogonal" renderorder="right-down" tileheight="16" tilewidth="16" width="2">
	<!--Add tilesets as much as needed-->
	<tileset firstgid="1" tileheight="16" tilewidth="16">
		<image source="../metatiles/Metatiles_057_739a.tmx"/>
	</tileset>
	<layer height="68" id="1" name="blocks" width="2">
		<data encoding="csv">
4, 12,
29, 29,
12, 10,
29, 29,
36, 37,
36, 37,
38, 39,
38, 39,
10, 10,
29, 29,
12, 6,
17, 12,
52, 52,
18, 18,
27, 53,
27, 46,
41, 42,
47, 48,
43, 44,
49, 50,
54, 1,
51, 13,
3, 34,
8, 2,
34, 10,
3, 34,
23, 10,
23, 10,
18, 18,
18, 18,
55, 34,
56, 57,
1, 2,
8, 8,
3, 34,
15, 1,
7, 8,
8, 15,
15, 34,
34, 1,
5, 29,
3, 34,
18, 18,
60, 61,
58, 59,
62, 13,
8, 9,
8, 9,
34, 13,
34, 34,
15, 34,
1, 2,
1, 8,
8, 9,
15, 34,
16, 29,
63, 63,
29, 29,
64, 65,
29, 29,
13, 15,
29, 29,
13, 14,
29, 29,
14, 15,
29, 29,
22, 10,
11, 4</data>
	</layer>
</map>
