<?xml version="1.0" ?>
<map height="250" orientation="orthogonal" renderorder="right-down" tileheight="16" tilewidth="16" width="2">
	<!--Add tilesets as much as needed-->
	<tileset firstgid="1" tileheight="16" tilewidth="16">
		<image source="../metatiles/Metatiles_011_50f4.tmx"/>
	</tileset>
	<layer height="250" id="1" name="blocks" width="2">
		<data encoding="csv">
27, 26,
26, 27,
27, 26,
31, 30,
29, 7,
26, 29,
7, 25,
28, 29,
25, 11,
4, 21,
13, 28,
23, 30,
27, 31,
31, 15,
30, 31,
19, 19,
4, 4,
20, 4,
25, 25,
25, 4,
19, 24,
28, 29,
5, 28,
28, 27,
29, 4,
26, 29,
14, 19,
4, 4,
10, 19,
25, 28,
27, 31,
31, 4,
7, 25,
11, 13,
25, 30,
7, 4,
28, 29,
30, 31,
7, 11,
11, 8,
13, 11,
23, 21,
8, 18,
22, 23,
4, 28,
7, 30,
27, 31,
31, 2,
29, 11,
31, 16,
12, 12,
8, 22,
13, 4,
23, 25,
30, 26,
28, 27,
25, 21,
4, 4,
23, 28,
28, 27,
29, 25,
31, 3,
30, 26,
4, 30,
24, 20,
29, 14,
4, 25,
19, 10,
15, 19,
24, 5,
19, 19,
28, 29,
31, 28,
28, 27,
29, 4,
31, 7,
4, 25,
25, 25,
30, 31,
4, 4,
29, 7,
31, 11,
25, 28,
13, 30,
29, 4,
31, 4,
25, 25,
25, 28,
30, 31,
49, 7,
27, 31,
31, 11,
25, 25,
13, 7,
30, 31,
28, 29,
25, 25,
4, 25,
30, 31,
25, 11,
4, 21,
13, 3,
23, 28,
7, 30,
29, 28,
31, 30,
29, 16,
31, 21,
18, 28,
23, 30,
29, 28,
26, 27,
27, 31,
26, 29,
19, 19,
4, 4,
20, 25,
14, 10,
4, 4,
19, 19,
30, 26,
20, 30,
4, 11,
25, 21,
13, 25,
23, 28,
28, 29,
27, 31,
25, 28,
29, 30,
29, 30,
31, 4,
31, 4,
4, 25,
7, 7,
7, 50,
29, 4,
31, 25,
21, 23,
25, 51,
4, 28,
28, 27,
11, 13,
21, 23,
29, 25,
31, 25,
19, 10,
29, 25,
19, 20,
4, 14,
15, 19,
24, 9,
31, 25,
29, 25,
4, 28,
25, 30,
29, 4,
31, 11,
4, 11,
12, 8,
13, 30,
8, 13,
31, 7,
28, 29,
25, 7,
25, 25,
11, 8,
21, 22,
8, 22,
23, 4,
22, 23,
28, 29,
28, 29,
30, 26,
28, 29,
27, 26,
7, 16,
7, 21,
8, 13,
22, 23,
25, 30,
28, 29,
7, 7,
28, 29,
19, 20,
29, 14,
30, 31,
15, 19,
31, 4,
7, 28,
24, 5,
28, 29,
25, 30,
25, 25,
31, 11,
25, 21,
13, 25,
23, 4,
25, 7,
7, 25,
30, 31,
25, 25,
25, 11,
25, 21,
12, 13,
22, 23,
25, 25,
11, 13,
4, 28,
4, 30,
29, 25,
31, 4,
25, 25,
4, 7,
7, 28,
52, 30,
21, 23,
19, 10,
4, 25,
11, 13,
4, 25,
3, 25,
6, 13,
8, 18,
21, 8,
25, 21,
13, 4,
23, 28,
21, 23,
7, 25,
28, 27,
30, 26,
26, 29,
27, 31,
27, 31,
31, 1,
30, 31,
1, 7,
7, 7,
7, 1,
21, 23,
25, 1,
7, 28,
1, 30,
4, 25,
25, 25,
29, 25,
31, 25,
4, 21,
13, 25</data>
	</layer>
</map>
