<?xml version="1.0" ?>
<map height="262" orientation="orthogonal" renderorder="right-down" tileheight="16" tilewidth="16" width="2">
	<!--Add tilesets as much as needed-->
	<tileset firstgid="1" tileheight="16" tilewidth="16">
		<image source="../metatiles/Metatiles_06a_5bd3.tmx"/>
	</tileset>
	<layer height="262" id="1" name="blocks" width="2">
		<data encoding="csv">
3, 10,
3, 6,
11, 1,
10, 9,
4, 5,
19, 19,
1, 10,
19, 16,
12, 3,
18, 10,
1, 12,
3, 18,
9, 21,
7, 22,
13, 13,
23, 23,
19, 16,
15, 13,
10, 9,
6, 7,
8, 23,
8, 10,
6, 1,
12, 17,
10, 3,
1, 10,
23, 23,
11, 1,
12, 7,
18, 15,
8, 3,
21, 19,
18, 1,
16, 10,
1, 1,
6, 1,
1, 1,
1, 3,
3, 24,
11, 25,
15, 13,
23, 23,
21, 16,
7, 8,
1, 1,
3, 1,
10, 1,
1, 17,
1, 1,
1, 6,
6, 1,
12, 11,
6, 17,
12, 6,
1, 1,
16, 1,
3, 12,
10, 18,
18, 9,
9, 21,
19, 16,
2, 21,
18, 12,
16, 18,
13, 26,
23, 23,
26, 26,
23, 23,
21, 2,
15, 21,
21, 2,
2, 21,
21, 20,
22, 23,
10, 4,
10, 3,
5, 6,
1, 12,
23, 15,
6, 23,
13, 22,
23, 23,
23, 6,
6, 12,
10, 1,
1, 1,
17, 18,
1, 11,
12, 10,
18, 3,
1, 27,
9, 8,
12, 18,
18, 3,
10, 28,
1, 29,
1, 1,
9, 19,
7, 8,
21, 22,
6, 10,
12, 17,
3, 10,
10, 3,
1, 9,
6, 7,
21, 22,
8, 23,
23, 23,
10, 1,
18, 3,
1, 1,
1, 6,
1, 12,
10, 9,
19, 13,
19, 19,
13, 13,
16, 18,
21, 19,
1, 23,
1, 17,
22, 23,
23, 6,
23, 23,
10, 3,
10, 1,
3, 4,
1, 27,
5, 7,
1, 12,
16, 18,
10, 11,
1, 10,
1, 3,
1, 17,
1, 1,
1, 17,
10, 3,
11, 10,
7, 8,
7, 8,
1, 12,
6, 18,
3, 9,
9, 22,
13, 22,
17, 1,
18, 3,
1, 10,
12, 9,
18, 7,
8, 1,
8, 1,
1, 1,
17, 10,
1, 1,
1, 1,
13, 19,
23, 15,
19, 21,
13, 13,
8, 1,
21, 16,
6, 3,
12, 11,
10, 1,
10, 3,
1, 23,
10, 3,
15, 8,
23, 7,
18, 1,
16, 1,
1, 10,
1, 1,
10, 10,
1, 10,
6, 15,
12, 23,
21, 8,
15, 13,
10, 3,
6, 10,
1, 1,
10, 1,
18, 1,
4, 5,
23, 23,
6, 10,
7, 16,
7, 8,
12, 1,
18, 1,
1, 3,
17, 1,
12, 3,
18, 9,
7, 21,
21, 13,
3, 17,
10, 6,
9, 19,
7, 13,
19, 21,
13, 22,
22, 24,
23, 25,
23, 23,
1, 17,
10, 12,
1, 18,
30, 23,
23, 11,
23, 23,
1, 1,
10, 28,
1, 31,
10, 1,
3, 10,
17, 1,
1, 1,
11, 15,
1, 23,
21, 16,
15, 21,
17, 6,
16, 12,
17, 6,
1, 12,
3, 1,
4, 5,
1, 6,
17, 12,
23, 7,
10, 7,
8, 18,
8, 3,
16, 18,
13, 19,
1, 10,
16, 3,
1, 18,
10, 1,
11, 7,
9, 21,
8, 10,
22, 6,
21, 22,
22, 23,
23, 12,
6, 18,
12, 10,
18, 11,
6, 23,
12, 10,
23, 23,
3, 1,
23, 3,
17, 10,
12, 1,
18, 10</data>
	</layer>
</map>
