<?xml version="1.0" ?>
<map height="24" orientation="orthogonal" renderorder="right-down" tileheight="16" tilewidth="16" width="2">
	<!--Add tilesets as much as needed-->
	<tileset firstgid="1" tileheight="16" tilewidth="16">
		<image source="../metatiles/Metatiles_057_7b62.tmx"/>
	</tileset>
	<layer height="24" id="1" name="blocks" width="2">
		<data encoding="csv">
1, 1,
2, 2,
1, 1,
3, 4,
1, 1,
5, 6,
7, 7,
13, 13,
7, 8,
13, 14,
9, 10,
15, 16,
11, 12,
17, 18,
19, 19,
25, 25,
19, 20,
25, 25,
21, 22,
26, 27,
23, 24,
28, 29,
1, 1,
1, 1</data>
	</layer>
</map>
