<?xml version="1.0" ?>
<map height="162" orientation="orthogonal" renderorder="right-down" tileheight="16" tilewidth="16" width="2">
	<!--Add tilesets as much as needed-->
	<tileset firstgid="1" tileheight="16" tilewidth="16">
		<image source="../metatiles/Metatiles_053_6936.tmx"/>
	</tileset>
	<layer height="162" id="1" name="blocks" width="2">
		<data encoding="csv">
20, 21,
25, 24,
21, 21,
24, 24,
20, 21,
23, 24,
18, 27,
18, 33,
28, 29,
34, 35,
29, 30,
35, 36,
50, 48,
53, 51,
49, 48,
52, 51,
18, 39,
20, 42,
40, 40,
43, 44,
40, 41,
45, 46,
9, 54,
10, 26,
55, 54,
26, 26,
25, 11,
18, 50,
13, 1,
17, 26,
1, 26,
1, 26,
26, 26,
26, 26,
18, 53,
20, 30,
50, 50,
29, 31,
17, 1,
32, 50,
1, 26,
26, 17,
50, 17,
53, 27,
25, 36,
18, 39,
35, 37,
40, 40,
38, 53,
41, 9,
26, 17,
26, 26,
13, 33,
14, 39,
21, 20,
24, 23,
21, 20,
24, 25,
49, 50,
52, 53,
50, 30,
53, 36,
29, 31,
35, 37,
32, 50,
38, 53,
50, 18,
53, 20,
55, 56,
26, 15,
13, 39,
16, 47,
40, 40,
44, 45,
41, 9,
46, 10,
14, 23,
17, 26,
1, 26,
1, 1,
26, 26,
26, 20,
50, 50,
28, 29,
26, 26,
29, 30,
26, 1,
26, 26,
26, 26,
26, 17,
17, 25,
14, 18,
34, 35,
40, 40,
35, 36,
40, 41,
13, 26,
9, 26,
13, 18,
50, 18,
18, 47,
18, 13,
44, 45,
26, 26,
46, 10,
26, 26,
12, 42,
17, 17,
20, 17,
23, 11,
26, 26,
50, 50,
26, 26,
17, 26,
26, 27,
26, 33,
20, 17,
25, 11,
26, 26,
48, 49,
26, 39,
26, 42,
18, 50,
18, 53,
51, 52,
54, 55,
26, 26,
56, 26,
4, 1,
26, 26,
43, 44,
3, 1,
45, 46,
26, 26,
10, 26,
26, 26,
26, 17,
48, 49,
53, 20,
50, 25,
26, 17,
17, 13,
53, 18,
56, 18,
50, 26,
53, 26,
9, 26,
10, 26,
26, 39,
17, 42,
9, 25,
10, 18,
26, 26,
26, 1,
1, 1,
26, 17,
17, 50,
13, 53,
50, 18,
53, 18,
26, 26,
11, 26</data>
	</layer>
</map>
