<?xml version="1.0" ?>
<map height="48" orientation="orthogonal" renderorder="right-down" tileheight="16" tilewidth="16" width="2">
	<!--Add tilesets as much as needed-->
	<tileset firstgid="1" tileheight="16" tilewidth="16">
		<image source="../metatiles/Metatiles_018_45e0.tmx"/>
	</tileset>
	<layer height="48" id="1" name="blocks" width="2">
		<data encoding="csv">
42, 42,
42, 1,
42, 42,
9, 1,
42, 42,
1, 43,
42, 42,
3, 1,
42, 42,
47, 1,
42, 42,
22, 42,
42, 10,
42, 18,
11, 10,
19, 18,
11, 44,
19, 17,
54, 23,
17, 17,
49, 5,
17, 17,
30, 42,
17, 42,
42, 17,
42, 22,
17, 17,
6, 17,
17, 17,
17, 17,
36, 26,
36, 34,
27, 36,
35, 36,
17, 42,
17, 42,
42, 30,
42, 17,
14, 36,
17, 17,
24, 17,
17, 17,
42, 42,
42, 42,
42, 37,
42, 42,
38, 42,
42, 42</data>
	</layer>
</map>
