<?xml version="1.0" ?>
<map height="308" orientation="orthogonal" renderorder="right-down" tileheight="16" tilewidth="16" width="2">
	<!--Add tilesets as much as needed-->
	<tileset firstgid="1" tileheight="16" tilewidth="16">
		<image source="../metatiles/Metatiles_064_5396.tmx"/>
	</tileset>
	<layer height="308" id="1" name="blocks" width="2">
		<data encoding="csv">
1, 17,
9, 79,
17, 17,
80, 48,
17, 17,
50, 24,
17, 5,
24, 12,
46, 46,
33, 23,
46, 6,
46, 13,
11, 51,
11, 81,
52, 77,
82, 59,
53, 32,
75, 39,
8, 41,
15, 46,
46, 40,
23, 40,
23, 8,
46, 15,
11, 8,
11, 15,
46, 46,
46, 46,
46, 46,
22, 40,
40, 22,
23, 46,
46, 23,
46, 40,
40, 46,
23, 46,
46, 46,
46, 8,
11, 4,
2, 4,
46, 46,
8, 23,
40, 22,
40, 46,
46, 8,
8, 15,
8, 15,
65, 50,
47, 48,
51, 52,
10, 41,
46, 46,
15, 46,
46, 46,
23, 46,
46, 46,
15, 8,
46, 15,
83, 84,
85, 86,
54, 55,
60, 61,
17, 17,
8, 8,
17, 17,
8, 24,
17, 17,
24, 8,
17, 17,
24, 24,
15, 65,
8, 51,
48, 49,
52, 52,
50, 15,
53, 32,
8, 65,
15, 88,
87, 80,
89, 52,
48, 50,
90, 91,
15, 92,
99, 46,
59, 93,
46, 22,
94, 39,
40, 40,
4, 95,
23, 92,
96, 30,
100, 59,
97, 98,
101, 75,
46, 46,
4, 4,
23, 22,
46, 46,
42, 42,
46, 46,
49, 49,
30, 52,
50, 15,
53, 79,
8, 46,
102, 8,
8, 46,
15, 46,
46, 46,
46, 22,
23, 46,
40, 19,
56, 57,
62, 63,
58, 83,
64, 85,
84, 15,
86, 31,
22, 40,
23, 40,
65, 103,
104, 105,
17, 17,
65, 87,
17, 17,
50, 8,
17, 3,
24, 7,
15, 15,
4, 8,
88, 89,
95, 96,
52, 90,
106, 97,
91, 15,
98, 31,
8, 78,
15, 40,
46, 11,
22, 11,
31, 15,
39, 46,
92, 100,
46, 23,
59, 101,
40, 23,
75, 39,
19, 21,
42, 40,
46, 23,
4, 2,
41, 10,
46, 46,
46, 23,
22, 40,
46, 46,
22, 19,
46, 34,
27, 27,
35, 27,
20, 20,
27, 27,
21, 46,
36, 46,
19, 20,
36, 34,
46, 46,
8, 46,
46, 34,
8, 8,
35, 36,
46, 46,
46, 46,
46, 14,
32, 46,
39, 46,
46, 8,
46, 15,
65, 87,
88, 89,
80, 48,
52, 90,
50, 46,
91, 4,
19, 7,
26, 11,
46, 46,
14, 46,
81, 94,
42, 42,
66, 67,
71, 72,
7, 8,
11, 15,
15, 4,
8, 8,
8, 46,
15, 4,
46, 19,
19, 27,
21, 46,
35, 21,
4, 41,
46, 46,
11, 65,
11, 88,
26, 36,
34, 21,
46, 34,
46, 19,
21, 22,
28, 46,
11, 95,
11, 92,
96, 106,
100, 59,
31, 34,
39, 46,
20, 27,
34, 35,
28, 46,
36, 46,
46, 46,
8, 8,
41, 46,
46, 46,
16, 17,
13, 24,
46, 46,
33, 46,
68, 69,
73, 74,
70, 107,
75, 39,
94, 39,
34, 21,
46, 23,
46, 46,
46, 22,
46, 46,
40, 40,
46, 46,
40, 46,
40, 22,
4, 46,
46, 46,
21, 46,
28, 46,
23, 46,
22, 46,
46, 65,
8, 88,
15, 95,
46, 92,
96, 29,
100, 59,
95, 96,
92, 100,
106, 97,
108, 59,
46, 46,
46, 19,
46, 46,
20, 20,
19, 27,
27, 27,
106, 97,
59, 101,
98, 31,
75, 39,
26, 11,
34, 11,
23, 42,
46, 40,
42, 46,
40, 22,
46, 4,
46, 46,
46, 11,
8, 11,
50, 46,
91, 46,
22, 40,
46, 23,
40, 46,
46, 46,
46, 46,
8, 65,
46, 8,
48, 49,
15, 11,
50, 11,
46, 46,
21, 46,
15, 51,
46, 92,
52, 52,
59, 93,
53, 11,
94, 11,
46, 34,
46, 8,
36, 46,
8, 19,
8, 11,
15, 11,
17, 18,
24, 25</data>
	</layer>
</map>
