<?xml version="1.0" ?>
<map height="152" orientation="orthogonal" renderorder="right-down" tileheight="16" tilewidth="16" width="2">
	<!--Add tilesets as much as needed-->
	<tileset firstgid="1" tileheight="16" tilewidth="16">
		<image source="../metatiles/Metatiles_011_63f8.tmx"/>
	</tileset>
	<layer height="152" id="1" name="blocks" width="2">
		<data encoding="csv">
42, 6,
42, 13,
20, 20,
28, 30,
20, 20,
31, 29,
7, 42,
12, 42,
20, 20,
28, 29,
42, 13,
42, 13,
23, 25,
23, 25,
25, 25,
25, 25,
19, 20,
28, 30,
20, 21,
31, 28,
23, 25,
22, 25,
23, 48,
23, 25,
3, 4,
12, 42,
53, 9,
13, 28,
9, 9,
30, 31,
6, 54,
13, 28,
9, 9,
28, 29,
55, 20,
28, 30,
21, 64,
31, 22,
27, 25,
25, 25,
13, 23,
13, 23,
25, 3,
25, 12,
20, 20,
30, 31,
20, 20,
29, 28,
20, 20,
29, 30,
12, 42,
12, 42,
4, 4,
42, 42,
4, 5,
42, 13,
25, 25,
23, 25,
55, 20,
28, 29,
7, 6,
12, 13,
20, 21,
28, 29,
12, 13,
12, 13,
3, 4,
19, 20,
15, 42,
7, 42,
4, 53,
42, 13,
9, 9,
28, 30,
9, 9,
31, 28,
11, 15,
19, 20,
25, 12,
25, 12,
23, 25,
23, 47,
25, 25,
27, 25,
28, 30,
25, 25,
42, 13,
42, 56,
23, 25,
9, 9,
25, 25,
9, 9,
25, 12,
25, 19,
42, 13,
20, 21,
28, 30,
23, 25,
31, 28,
25, 25,
30, 31,
25, 25,
25, 28,
25, 25,
29, 28,
25, 25,
22, 25,
25, 25,
25, 25,
3, 4,
25, 25,
4, 5,
13, 23,
14, 4,
25, 25,
4, 4,
12, 42,
15, 42,
42, 13,
42, 14,
29, 28,
25, 65,
23, 25,
47, 27,
25, 25,
11, 4,
12, 14,
15, 42,
4, 5,
6, 21,
12, 42,
19, 20,
42, 42,
20, 20,
13, 29,
21, 23,
29, 30,
25, 25,
31, 22,
25, 25,
25, 25,
25, 3,
23, 25,
4, 4,
25, 12,
4, 15,
42, 42,
42, 42,
21, 1,
31, 22,
29, 28,
25, 1</data>
	</layer>
</map>
