<?xml version="1.0" ?>
<map height="110" orientation="orthogonal" renderorder="right-down" tileheight="16" tilewidth="16" width="2">
	<!--Add tilesets as much as needed-->
	<tileset firstgid="1" tileheight="16" tilewidth="16">
		<image source="../metatiles/Metatiles_057_76ed.tmx"/>
	</tileset>
	<layer height="110" id="1" name="blocks" width="2">
		<data encoding="csv">
14, 9,
9, 14,
7, 11,
7, 7,
13, 9,
7, 14,
14, 4,
4, 5,
1, 3,
6, 8,
7, 9,
7, 14,
14, 4,
4, 7,
7, 1,
7, 11,
21, 13,
13, 7,
4, 9,
9, 14,
1, 3,
11, 21,
7, 7,
3, 4,
4, 11,
4, 7,
7, 7,
1, 3,
6, 8,
11, 21,
7, 4,
2, 3,
14, 9,
7, 14,
14, 9,
4, 14,
4, 11,
9, 4,
12, 13,
9, 7,
7, 17,
7, 20,
7, 1,
1, 21,
3, 9,
8, 14,
11, 12,
7, 7,
7, 7,
7, 1,
7, 9,
3, 14,
14, 7,
9, 7,
1, 21,
6, 8,
13, 9,
9, 14,
11, 13,
7, 7,
14, 7,
4, 7,
14, 4,
7, 7,
4, 1,
17, 11,
21, 13,
13, 4,
1, 3,
6, 13,
20, 7,
9, 4,
7, 9,
9, 14,
7, 1,
7, 6,
13, 9,
3, 14,
13, 9,
4, 14,
7, 7,
7, 7,
4, 4,
7, 4,
7, 7,
9, 7,
3, 7,
12, 3,
4, 4,
9, 4,
4, 11,
9, 1,
3, 7,
8, 7,
14, 11,
9, 7,
13, 7,
7, 7,
14, 1,
7, 11,
2, 3,
12, 13,
14, 7,
7, 1,
1, 3,
21, 13,
7, 7,
9, 4,
7, 11,
9, 4</data>
	</layer>
</map>
