<?xml version="1.0" ?>
<map height="58" orientation="orthogonal" renderorder="right-down" tileheight="16" tilewidth="16" width="2">
	<!--Add tilesets as much as needed-->
	<tileset firstgid="1" tileheight="16" tilewidth="16">
		<image source="../metatiles/Metatiles_06a_5020.tmx"/>
	</tileset>
	<layer height="58" id="1" name="blocks" width="2">
		<data encoding="csv">
42, 42,
42, 42,
42, 42,
42, 6,
42, 42,
20, 20,
42, 42,
7, 42,
42, 6,
6, 21,
20, 21,
51, 40,
29, 30,
47, 25,
36, 37,
38, 39,
19, 20,
30, 31,
7, 42,
19, 7,
13, 29,
13, 51,
56, 41,
22, 25,
25, 25,
25, 44,
25, 47,
27, 25,
40, 44,
41, 48,
29, 12,
45, 12,
13, 56,
14, 5,
45, 25,
49, 25,
25, 48,
25, 25,
22, 25,
25, 25,
25, 25,
25, 25,
49, 12,
3, 15,
42, 14,
42, 42,
5, 27,
14, 4,
25, 25,
5, 27,
25, 3,
3, 15,
15, 42,
42, 42,
14, 5,
42, 13,
27, 3,
23, 12</data>
	</layer>
</map>
