<?xml version="1.0" ?>
<map height="110" orientation="orthogonal" renderorder="right-down" tileheight="16" tilewidth="16" width="2">
	<!--Add tilesets as much as needed-->
	<tileset firstgid="1" tileheight="16" tilewidth="16">
		<image source="../metatiles/Metatiles_053_5103.tmx"/>
	</tileset>
	<layer height="110" id="1" name="blocks" width="2">
		<data encoding="csv">
9, 29,
13, 31,
17, 17,
48, 32,
17, 17,
22, 22,
17, 17,
22, 25,
13, 4,
13, 4,
3, 3,
3, 3,
3, 50,
3, 24,
27, 27,
25, 22,
27, 27,
22, 37,
39, 40,
38, 11,
3, 11,
3, 11,
51, 27,
13, 22,
27, 27,
25, 25,
39, 40,
33, 11,
8, 26,
13, 4,
17, 17,
25, 22,
17, 17,
37, 48,
30, 10,
38, 11,
7, 7,
12, 12,
12, 12,
9, 29,
12, 12,
17, 17,
12, 12,
30, 10,
13, 36,
13, 4,
25, 25,
3, 3,
33, 11,
3, 11,
13, 61,
13, 4,
62, 11,
3, 52,
13, 4,
53, 27,
21, 11,
27, 45,
3, 6,
3, 11,
7, 54,
12, 13,
31, 32,
4, 3,
22, 22,
3, 3,
3, 11,
3, 16,
12, 13,
17, 18,
4, 3,
4, 3,
3, 3,
55, 27,
3, 24,
3, 3,
22, 23,
3, 3,
5, 3,
3, 3,
43, 25,
3, 3,
13, 4,
14, 7,
3, 3,
7, 7,
13, 4,
18, 4,
20, 11,
3, 11,
23, 5,
3, 3,
7, 15,
12, 12,
3, 3,
27, 27,
3, 11,
27, 45,
13, 4,
46, 4,
22, 25,
3, 3,
47, 5,
3, 3,
3, 11,
7, 15,
13, 1,
13, 4,
1, 11,
3, 52</data>
	</layer>
</map>
