<?xml version="1.0" ?>
<map height="42" orientation="orthogonal" renderorder="right-down" tileheight="16" tilewidth="16" width="2">
	<!--Add tilesets as much as needed-->
	<tileset firstgid="1" tileheight="16" tilewidth="16">
		<image source="../metatiles/Metatiles_057_7cee.tmx"/>
	</tileset>
	<layer height="42" id="1" name="blocks" width="2">
		<data encoding="csv">
1, 1,
2, 3,
1, 1,
4, 5,
1, 1,
6, 7,
1, 1,
8, 9,
1, 1,
10, 11,
1, 1,
1, 1,
12, 13,
22, 23,
14, 15,
24, 22,
16, 17,
25, 26,
18, 19,
27, 28,
20, 21,
29, 30,
31, 32,
41, 42,
33, 34,
43, 44,
35, 36,
45, 46,
37, 38,
47, 47,
39, 40,
47, 47,
48, 49,
1, 1,
50, 51,
1, 1,
52, 53,
1, 1,
54, 46,
1, 1,
47, 47,
1, 1</data>
	</layer>
</map>
