<?xml version="1.0" ?>
<map height="64" orientation="orthogonal" renderorder="right-down" tileheight="16" tilewidth="16" width="2">
	<!--Add tilesets as much as needed-->
	<tileset firstgid="1" tileheight="16" tilewidth="16">
		<image source="../metatiles/Metatiles_064_74d6.tmx"/>
	</tileset>
	<layer height="64" id="1" name="blocks" width="2">
		<data encoding="csv">
13, 11,
20, 13,
11, 20,
11, 13,
13, 20,
20, 13,
13, 20,
20, 21,
21, 20,
21, 18,
18, 36,
33, 39,
37, 37,
39, 39,
37, 38,
39, 39,
32, 19,
21, 31,
21, 20,
19, 13,
13, 25,
20, 25,
35, 40,
35, 43,
41, 41,
44, 45,
41, 42,
46, 47,
22, 30,
29, 35,
27, 20,
27, 11,
35, 35,
35, 12,
1, 3,
8, 17,
35, 35,
35, 1,
1, 3,
9, 10,
27, 11,
27, 13,
11, 25,
11, 31,
35, 35,
32, 19,
15, 3,
35, 8,
35, 15,
3, 18,
16, 17,
32, 32,
27, 20,
33, 21,
13, 11,
20, 21,
13, 27,
20, 27,
35, 15,
35, 35,
17, 25,
35, 25,
13, 21,
20, 13</data>
	</layer>
</map>
