<?xml version="1.0" ?>
<map height="276" orientation="orthogonal" renderorder="right-down" tileheight="16" tilewidth="16" width="2">
	<!--Add tilesets as much as needed-->
	<tileset firstgid="1" tileheight="16" tilewidth="16">
		<image source="../metatiles/Metatiles_06a_5bd3.tmx"/>
	</tileset>
	<layer height="276" id="1" name="blocks" width="2">
		<data encoding="csv">
10, 3,
17, 10,
1, 10,
1, 1,
1, 1,
4, 5,
3, 11,
1, 10,
6, 1,
12, 9,
1, 3,
1, 1,
10, 1,
1, 3,
6, 1,
12, 17,
10, 1,
3, 1,
18, 7,
9, 21,
10, 1,
1, 32,
11, 1,
1, 9,
18, 9,
19, 13,
19, 19,
13, 22,
13, 13,
24, 23,
10, 25,
10, 28,
9, 21,
7, 8,
22, 23,
23, 6,
23, 23,
10, 1,
25, 9,
28, 7,
3, 29,
17, 9,
7, 8,
21, 22,
3, 12,
6, 18,
1, 6,
1, 12,
31, 14,
9, 8,
10, 3,
19, 16,
6, 1,
12, 1,
4, 5,
11, 1,
10, 10,
1, 3,
17, 1,
10, 1,
21, 8,
21, 21,
18, 10,
16, 3,
1, 6,
10, 12,
1, 1,
1, 6,
10, 3,
1, 3,
21, 13,
8, 23,
13, 19,
23, 15,
16, 18,
13, 19,
1, 12,
16, 18,
11, 10,
1, 6,
8, 10,
22, 6,
6, 23,
12, 17,
23, 15,
10, 23,
13, 19,
23, 7,
16, 12,
8, 18,
23, 12,
10, 18,
18, 11,
10, 1,
1, 3,
17, 1,
6, 7,
12, 7,
8, 1,
8, 10,
6, 7,
12, 15,
8, 23,
21, 16,
12, 10,
18, 17,
3, 18,
10, 9,
7, 22,
8, 23,
18, 23,
3, 10,
15, 21,
23, 7,
16, 1,
8, 6,
1, 7,
1, 15,
8, 17,
21, 16,
1, 11,
10, 10,
8, 12,
8, 18,
6, 23,
12, 6,
15, 13,
23, 23,
18, 23,
1, 17,
7, 16,
15, 8,
18, 12,
1, 18,
1, 10,
10, 1,
4, 5,
1, 1,
23, 7,
1, 7,
16, 1,
8, 11,
10, 3,
1, 10,
10, 3,
6, 10,
1, 1,
1, 10,
11, 10,
1, 3,
18, 15,
10, 23,
8, 6,
14, 12,
12, 17,
18, 10,
3, 1,
1, 3,
1, 1,
10, 3,
6, 10,
12, 9,
14, 18,
22, 1,
16, 1,
7, 16,
1, 10,
6, 17,
18, 14,
9, 8,
23, 17,
6, 3,
15, 8,
23, 7,
18, 11,
16, 10,
12, 1,
18, 9,
12, 10,
18, 1,
6, 15,
12, 23,
21, 19,
15, 13,
19, 21,
13, 22,
22, 1,
23, 6,
6, 10,
12, 1,
22, 6,
23, 12,
10, 17,
10, 10,
11, 3,
1, 6,
18, 9,
9, 21,
21, 22,
22, 23,
1, 18,
1, 1,
3, 1,
4, 5,
1, 12,
17, 18,
7, 8,
7, 8,
23, 6,
1, 12,
17, 1,
10, 10,
10, 1,
9, 26,
3, 10,
10, 1,
16, 18,
21, 19,
10, 9,
19, 13,
8, 23,
22, 6,
10, 10,
4, 5,
1, 15,
3, 23,
13, 13,
23, 23,
22, 23,
23, 11,
23, 12,
1, 18,
18, 10,
1, 3,
10, 15,
6, 23,
21, 22,
30, 23,
1, 12,
10, 18,
1, 1,
10, 11,
12, 3,
18, 9,
23, 1,
19, 16,
11, 6,
3, 12,
33, 34,
1, 3,
1, 10,
26, 26,
9, 2,
21, 21,
21, 2,
21, 21,
16, 18,
21, 26,
17, 10,
26, 26,
23, 23,
17, 6,
15, 2,
23, 15,
21, 2,
13, 22,
23, 23,
3, 10,
33, 12,
1, 18,
1, 23,
3, 1,
23, 23,
1, 1,
10, 1,
10, 10</data>
	</layer>
</map>
