<?xml version="1.0" ?>
<map height="42" orientation="orthogonal" renderorder="right-down" tileheight="16" tilewidth="16" width="2">
	<!--Add tilesets as much as needed-->
	<tileset firstgid="1" tileheight="16" tilewidth="16">
		<image source="../metatiles/Metatiles_050_5eab.tmx"/>
	</tileset>
	<layer height="42" id="1" name="blocks" width="2">
		<data encoding="csv">
19, 19,
19, 15,
19, 19,
15, 15,
19, 19,
20, 21,
19, 19,
10, 10,
19, 19,
15, 19,
19, 18,
19, 13,
18, 18,
13, 13,
22, 23,
13, 13,
24, 13,
13, 13,
18, 19,
13, 19,
19, 15,
19, 18,
15, 15,
18, 18,
25, 13,
24, 13,
13, 13,
13, 13,
15, 19,
18, 19,
19, 9,
19, 12,
25, 13,
17, 13,
13, 19,
13, 19,
19, 19,
19, 19,
19, 13,
19, 19,
13, 19,
19, 19</data>
	</layer>
</map>
