<?xml version="1.0" ?>
<map height="56" orientation="orthogonal" renderorder="right-down" tileheight="16" tilewidth="16" width="2">
	<!--Add tilesets as much as needed-->
	<tileset firstgid="1" tileheight="16" tilewidth="16">
		<image source="../metatiles/Metatiles_050_6ef2.tmx"/>
	</tileset>
	<layer height="56" id="1" name="blocks" width="2">
		<data encoding="csv">
23, 27,
29, 33,
21, 21,
22, 23,
21, 21,
24, 25,
21, 21,
25, 26,
21, 21,
23, 27,
22, 23,
28, 29,
46, 47,
49, 50,
28, 29,
51, 52,
30, 31,
36, 37,
31, 32,
38, 39,
29, 33,
53, 54,
48, 46,
50, 49,
55, 16,
16, 19,
10, 8,
16, 18,
42, 43,
3, 7,
44, 45,
7, 1,
6, 10,
18, 16,
16, 55,
19, 16,
19, 16,
16, 19,
8, 7,
13, 7,
7, 11,
7, 1,
16, 19,
19, 16,
19, 16,
15, 19,
19, 16,
18, 19,
3, 7,
13, 7,
1, 10,
11, 15,
16, 19,
19, 18,
16, 19,
19, 10</data>
	</layer>
</map>
