<?xml version="1.0" ?>
<map height="96" orientation="orthogonal" renderorder="right-down" tileheight="16" tilewidth="16" width="2">
	<!--Add tilesets as much as needed-->
	<tileset firstgid="1" tileheight="16" tilewidth="16">
		<image source="../metatiles/Metatiles_064_7a99.tmx"/>
	</tileset>
	<layer height="96" id="1" name="blocks" width="2">
		<data encoding="csv">
19, 16,
16, 19,
19, 16,
18, 19,
19, 16,
22, 19,
12, 13,
3, 7,
11, 13,
7, 1,
11, 13,
3, 1,
11, 13,
2, 2,
19, 12,
22, 3,
13, 1,
7, 11,
2, 22,
18, 16,
16, 18,
19, 16,
1, 2,
11, 16,
16, 19,
19, 16,
8, 7,
8, 7,
1, 19,
11, 12,
18, 19,
13, 6,
16, 19,
19, 18,
19, 18,
16, 13,
3, 1,
18, 16,
3, 11,
18, 2,
13, 6,
3, 11,
19, 3,
16, 13,
7, 1,
7, 11,
13, 7,
3, 7,
6, 19,
11, 16,
19, 3,
16, 22,
7, 1,
3, 11,
22, 19,
12, 16,
16, 3,
19, 16,
1, 19,
18, 16,
1, 19,
11, 16,
16, 19,
19, 25,
18, 19,
26, 26,
22, 3,
16, 8,
1, 19,
11, 18,
16, 27,
19, 29,
28, 28,
30, 31,
28, 28,
30, 27,
19, 13,
16, 3,
7, 11,
7, 7,
13, 5,
7, 7,
7, 7,
7, 7,
11, 27,
1, 27,
19, 18,
26, 26,
3, 7,
26, 26,
1, 3,
26, 26,
7, 1,
26, 26,
18, 27,
26, 28</data>
	</layer>
</map>
