<?xml version="1.0" ?>
<map height="174" orientation="orthogonal" renderorder="right-down" tileheight="16" tilewidth="16" width="2">
	<!--Add tilesets as much as needed-->
	<tileset firstgid="1" tileheight="16" tilewidth="16">
		<image source="../metatiles/Metatiles_064_6166.tmx"/>
	</tileset>
	<layer height="174" id="1" name="blocks" width="2">
		<data encoding="csv">
14, 12,
14, 16,
11, 14,
7, 14,
20, 20,
20, 20,
14, 16,
14, 16,
9, 14,
9, 5,
20, 20,
35, 20,
20, 34,
20, 14,
13, 13,
12, 10,
14, 16,
36, 4,
9, 10,
18, 9,
5, 13,
11, 12,
35, 20,
5, 13,
34, 6,
6, 11,
16, 9,
17, 9,
20, 14,
20, 36,
16, 9,
4, 18,
9, 9,
9, 9,
10, 11,
9, 9,
12, 17,
9, 9,
9, 9,
9, 3,
20, 20,
34, 13,
36, 4,
13, 40,
18, 9,
13, 13,
9, 9,
13, 39,
9, 3,
13, 37,
13, 37,
20, 20,
20, 34,
13, 6,
13, 13,
10, 11,
13, 13,
12, 15,
35, 20,
14, 20,
6, 15,
11, 21,
12, 11,
17, 9,
17, 9,
9, 9,
9, 21,
9, 9,
5, 13,
10, 12,
9, 9,
3, 13,
3, 4,
37, 36,
18, 9,
4, 18,
5, 35,
12, 14,
3, 13,
37, 20,
37, 20,
20, 20,
36, 39,
20, 14,
38, 18,
11, 17,
9, 14,
9, 14,
20, 34,
34, 6,
13, 6,
10, 12,
3, 37,
14, 20,
14, 15,
14, 21,
11, 12,
26, 27,
10, 11,
28, 29,
12, 14,
53, 14,
14, 54,
14, 16,
18, 9,
9, 9,
9, 14,
3, 37,
20, 20,
20, 34,
34, 13,
6, 12,
9, 43,
9, 10,
13, 13,
14, 34,
37, 20,
13, 13,
34, 6,
6, 15,
11, 17,
16, 9,
36, 4,
20, 14,
18, 9,
16, 9,
5, 6,
10, 12,
10, 12,
17, 9,
11, 21,
9, 9,
20, 36,
20, 20,
4, 18,
36, 13,
9, 9,
13, 13,
13, 13,
20, 20,
6, 11,
11, 17,
14, 20,
37, 20,
35, 14,
5, 6,
16, 9,
16, 9,
9, 3,
3, 37,
10, 12,
9, 9,
5, 13,
10, 11,
35, 34,
5, 6,
13, 35,
15, 14,
47, 18,
49, 13,
9, 9,
13, 4,
9, 9,
18, 9,
12, 10,
9, 9,
21, 14,
9, 14,
8, 14,
13, 37,
12, 14,
1, 14,
14, 1,
14, 16</data>
	</layer>
</map>
