<?xml version="1.0" ?>
<map height="348" orientation="orthogonal" renderorder="right-down" tileheight="16" tilewidth="16" width="2">
	<!--Add tilesets as much as needed-->
	<tileset firstgid="1" tileheight="16" tilewidth="16">
		<image source="../metatiles/Metatiles_011_5790.tmx"/>
	</tileset>
	<layer height="348" id="1" name="blocks" width="2">
		<data encoding="csv">
6, 6,
5, 5,
6, 6,
6, 6,
5, 6,
6, 6,
6, 5,
6, 6,
6, 6,
6, 9,
6, 9,
11, 17,
6, 15,
5, 15,
2, 3,
22, 22,
9, 3,
15, 17,
22, 22,
17, 22,
28, 39,
32, 23,
3, 38,
28, 39,
14, 17,
38, 22,
22, 22,
22, 21,
14, 39,
24, 23,
32, 29,
32, 29,
32, 28,
32, 32,
39, 17,
23, 23,
24, 27,
30, 31,
30, 29,
30, 29,
29, 32,
29, 32,
29, 29,
29, 33,
37, 31,
33, 35,
30, 33,
34, 17,
36, 33,
38, 38,
33, 32,
14, 36,
29, 15,
29, 15,
22, 20,
3, 17,
17, 17,
22, 22,
39, 39,
22, 22,
17, 14,
3, 14,
29, 23,
36, 29,
23, 23,
29, 29,
28, 14,
32, 23,
24, 5,
30, 6,
30, 12,
30, 11,
6, 6,
11, 10,
34, 3,
17, 22,
22, 16,
22, 3,
5, 6,
10, 6,
22, 22,
38, 17,
16, 6,
24, 6,
6, 6,
5, 6,
39, 14,
23, 23,
6, 6,
10, 6,
6, 6,
6, 5,
6, 6,
9, 11,
28, 17,
32, 23,
21, 3,
27, 28,
9, 11,
38, 17,
17, 3,
22, 22,
32, 29,
36, 33,
31, 32,
35, 32,
14, 14,
14, 17,
39, 3,
24, 23,
22, 22,
28, 21,
22, 22,
22, 22,
20, 36,
3, 16,
30, 29,
30, 33,
32, 27,
33, 35,
29, 29,
29, 29,
34, 14,
15, 17,
17, 20,
22, 22,
36, 33,
3, 22,
33, 33,
22, 22,
22, 22,
14, 14,
22, 22,
3, 22,
16, 29,
24, 33,
29, 29,
33, 29,
23, 26,
33, 26,
30, 15,
34, 38,
38, 36,
39, 3,
33, 29,
17, 36,
29, 29,
29, 34,
15, 22,
17, 22,
17, 39,
22, 3,
17, 22,
22, 22,
22, 25,
22, 16,
33, 28,
13, 32,
14, 17,
15, 14,
3, 22,
38, 14,
22, 22,
24, 23,
24, 23,
30, 33,
13, 32,
22, 36,
23, 15,
29, 23,
39, 24,
23, 30,
30, 33,
34, 22,
34, 22,
22, 17,
30, 35,
34, 20,
17, 11,
3, 17,
10, 6,
14, 10,
29, 37,
29, 37,
15, 17,
15, 22,
3, 22,
22, 22,
22, 22,
22, 17,
44, 38,
17, 39,
7, 7,
29, 30,
19, 24,
23, 30,
23, 23,
33, 33,
23, 28,
29, 32,
14, 24,
23, 30,
29, 30,
33, 34,
33, 34,
22, 17,
17, 38,
38, 39,
36, 32,
16, 32,
29, 30,
29, 37,
22, 22,
21, 22,
39, 14,
24, 23,
24, 32,
30, 32,
29, 37,
29, 29,
28, 22,
32, 23,
22, 17,
23, 28,
17, 3,
17, 17,
22, 22,
17, 14,
29, 29,
37, 37,
32, 29,
32, 37,
24, 23,
30, 29,
37, 37,
30, 34,
33, 34,
3, 17,
17, 36,
17, 16,
32, 29,
37, 37,
30, 33,
30, 15,
30, 15,
30, 15,
45, 22,
22, 22,
22, 25,
3, 16,
7, 7,
30, 30,
7, 19,
30, 28,
30, 28,
30, 32,
14, 14,
23, 23,
30, 30,
30, 30,
30, 32,
30, 32,
22, 16,
21, 24,
29, 30,
29, 30,
15, 22,
15, 22,
17, 17,
17, 24,
27, 30,
31, 30,
13, 33,
15, 16,
28, 21,
32, 27,
24, 30,
30, 30,
35, 34,
20, 3,
22, 3,
17, 17,
36, 37,
22, 11,
32, 31,
36, 35,
37, 30,
29, 30,
22, 17,
17, 22,
17, 22,
14, 24,
22, 22,
23, 23,
22, 20,
28, 22,
36, 30,
24, 30,
23, 30,
29, 30,
32, 23,
32, 29,
22, 24,
23, 30,
27, 23,
31, 29,
30, 11,
34, 22,
36, 29,
38, 36,
29, 30,
37, 34,
35, 33,
20, 17,
34, 22,
22, 22,
22, 17,
22, 17,
39, 38,
22, 39,
30, 15,
34, 14,
17, 22,
22, 24,
22, 22,
26, 23,
14, 38,
28, 39,
15, 24,
23, 30,
23, 30,
33, 34,
33, 33,
17, 8,
26, 33,
22, 14,
29, 23,
36, 33,
37, 34,
34, 38,
38, 14,
39, 17,
1, 3,
22, 22,
1, 38,
17, 39,
1, 22,
22, 22</data>
	</layer>
</map>
