<?xml version="1.0" ?>
<map height="50" orientation="orthogonal" renderorder="right-down" tileheight="16" tilewidth="16" width="2">
	<!--Add tilesets as much as needed-->
	<tileset firstgid="1" tileheight="16" tilewidth="16">
		<image source="../metatiles/Metatiles_064_6709.tmx"/>
	</tileset>
	<layer height="50" id="1" name="blocks" width="2">
		<data encoding="csv">
31, 31,
31, 42,
31, 31,
40, 2,
31, 31,
7, 6,
31, 31,
41, 48,
31, 31,
7, 2,
31, 31,
6, 31,
31, 46,
31, 5,
44, 4,
25, 5,
4, 4,
4, 4,
45, 47,
4, 23,
5, 4,
49, 49,
4, 31,
50, 31,
31, 4,
31, 32,
30, 5,
4, 4,
4, 4,
4, 3,
4, 4,
4, 52,
51, 31,
3, 31,
31, 33,
31, 3,
4, 32,
4, 33,
4, 3,
4, 4,
4, 53,
4, 32,
32, 31,
33, 31,
31, 31,
31, 31,
31, 21,
31, 31,
22, 31,
31, 31</data>
	</layer>
</map>
