<?xml version="1.0" ?>
<map height="48" orientation="orthogonal" renderorder="right-down" tileheight="16" tilewidth="16" width="2">
	<!--Add tilesets as much as needed-->
	<tileset firstgid="1" tileheight="16" tilewidth="16">
		<image source="../metatiles/Metatiles_011_6cd9.tmx"/>
	</tileset>
	<layer height="48" id="1" name="blocks" width="2">
		<data encoding="csv">
31, 31,
31, 38,
31, 31,
38, 32,
31, 31,
14, 1,
31, 31,
32, 34,
31, 31,
32, 33,
31, 31,
32, 31,
31, 8,
31, 4,
9, 3,
4, 4,
19, 10,
4, 4,
25, 37,
39, 4,
15, 35,
20, 4,
15, 31,
20, 31,
31, 5,
31, 5,
26, 27,
28, 29,
5, 4,
5, 4,
39, 4,
30, 4,
4, 4,
4, 4,
5, 31,
4, 31,
31, 4,
31, 4,
4, 4,
4, 3,
4, 31,
3, 31,
31, 31,
31, 31,
31, 21,
31, 31,
22, 31,
31, 31</data>
	</layer>
</map>
