<?xml version="1.0" ?>
<map height="132" orientation="orthogonal" renderorder="right-down" tileheight="16" tilewidth="16" width="2">
	<!--Add tilesets as much as needed-->
	<tileset firstgid="1" tileheight="16" tilewidth="16">
		<image source="../metatiles/Metatiles_06a_7171.tmx"/>
	</tileset>
	<layer height="132" id="1" name="blocks" width="2">
		<data encoding="csv">
5, 6,
11, 12,
11, 12,
1, 2,
9, 10,
1, 1,
13, 14,
19, 20,
15, 16,
21, 22,
17, 5,
23, 11,
6, 7,
12, 4,
1, 2,
5, 6,
25, 26,
30, 31,
27, 28,
32, 33,
29, 7,
34, 7,
7, 7,
7, 7,
11, 12,
3, 5,
4, 7,
6, 7,
3, 11,
1, 4,
12, 7,
1, 7,
7, 7,
7, 4,
7, 13,
7, 19,
2, 3,
1, 13,
8, 1,
14, 15,
9, 10,
16, 17,
4, 7,
7, 7,
7, 19,
7, 25,
20, 21,
26, 18,
22, 23,
28, 29,
9, 10,
4, 1,
7, 5,
1, 11,
6, 30,
12, 4,
31, 32,
7, 7,
33, 34,
7, 5,
7, 8,
6, 2,
7, 11,
7, 7,
12, 1,
5, 6,
14, 15,
20, 21,
16, 17,
22, 23,
7, 7,
4, 7,
7, 4,
7, 7,
11, 12,
7, 7,
1, 9,
5, 6,
10, 5,
4, 11,
6, 7,
12, 7,
1, 25,
4, 30,
11, 12,
8, 13,
1, 4,
14, 15,
7, 7,
16, 17,
2, 19,
8, 25,
20, 21,
26, 27,
7, 7,
1, 7,
1, 30,
2, 4,
33, 34,
7, 7,
7, 4,
5, 6,
7, 7,
5, 6,
7, 7,
2, 1,
4, 7,
8, 1,
11, 12,
9, 10,
26, 24,
31, 32,
28, 29,
33, 34,
11, 12,
4, 2,
4, 13,
7, 19,
7, 8,
7, 1,
7, 25,
7, 30,
26, 27,
31, 32,
4, 1,
9, 10,
4, 7,
5, 6,
7, 7,
1, 3,
7, 7,
1, 8</data>
	</layer>
</map>
