<?xml version="1.0" ?>
<map height="48" orientation="orthogonal" renderorder="right-down" tileheight="16" tilewidth="16" width="2">
	<!--Add tilesets as much as needed-->
	<tileset firstgid="1" tileheight="16" tilewidth="16">
		<image source="../metatiles/Metatiles_06e_509c.tmx"/>
	</tileset>
	<layer height="48" id="1" name="blocks" width="2">
		<data encoding="csv">
17, 17,
17, 17,
17, 17,
17, 27,
17, 26,
28, 1,
26, 17,
1, 29,
17, 17,
30, 17,
13, 1,
10, 8,
2, 8,
3, 11,
8, 5,
11, 4,
1, 6,
8, 9,
17, 17,
25, 17,
31, 11,
7, 11,
14, 11,
11, 11,
11, 11,
11, 11,
11, 31,
11, 7,
25, 17,
25, 17,
32, 14,
18, 32,
11, 11,
33, 16,
11, 11,
16, 32,
15, 33,
33, 19,
22, 17,
17, 17,
17, 18,
17, 17,
18, 20,
17, 17,
20, 18,
17, 17,
18, 17,
17, 17</data>
	</layer>
</map>
