<?xml version="1.0" ?>
<map height="56" orientation="orthogonal" renderorder="right-down" tileheight="16" tilewidth="16" width="2">
	<!--Add tilesets as much as needed-->
	<tileset firstgid="1" tileheight="16" tilewidth="16">
		<image source="../metatiles/Metatiles_053_4a1b.tmx"/>
	</tileset>
	<layer height="56" id="1" name="blocks" width="2">
		<data encoding="csv">
24, 24,
26, 5,
24, 5,
6, 11,
6, 25,
12, 23,
25, 5,
23, 11,
6, 24,
12, 5,
24, 24,
6, 30,
27, 11,
27, 17,
12, 17,
18, 31,
18, 31,
1, 2,
32, 17,
3, 4,
18, 11,
33, 17,
12, 20,
18, 20,
27, 31,
27, 31,
36, 36,
36, 36,
7, 8,
13, 14,
9, 10,
15, 16,
32, 32,
35, 36,
33, 20,
32, 20,
28, 29,
24, 27,
37, 36,
31, 36,
36, 36,
36, 34,
19, 21,
20, 24,
24, 28,
24, 24,
29, 37,
28, 22,
36, 36,
29, 37,
36, 36,
36, 19,
36, 19,
22, 21,
21, 24,
24, 24</data>
	</layer>
</map>
