<?xml version="1.0" ?>
<map height="36" orientation="orthogonal" renderorder="right-down" tileheight="16" tilewidth="16" width="2">
	<!--Add tilesets as much as needed-->
	<tileset firstgid="1" tileheight="16" tilewidth="16">
		<image source="../metatiles/Metatiles_06a_75fc.tmx"/>
	</tileset>
	<layer height="36" id="1" name="blocks" width="2">
		<data encoding="csv">
42, 42,
42, 42,
48, 48,
54, 62,
46, 69,
70, 71,
46, 46,
1, 2,
48, 48,
62, 54,
60, 65,
43, 43,
72, 43,
73, 43,
43, 43,
43, 73,
65, 60,
43, 24,
44, 43,
75, 76,
74, 43,
77, 43,
43, 74,
43, 77,
43, 43,
75, 76,
43, 43,
42, 43,
43, 43,
43, 43,
43, 43,
43, 42,
42, 37,
42, 42,
38, 42,
42, 42</data>
	</layer>
</map>
