<?xml version="1.0" ?>
<map height="56" orientation="orthogonal" renderorder="right-down" tileheight="16" tilewidth="16" width="2">
	<!--Add tilesets as much as needed-->
	<tileset firstgid="1" tileheight="16" tilewidth="16">
		<image source="../metatiles/Metatiles_050_6027.tmx"/>
	</tileset>
	<layer height="56" id="1" name="blocks" width="2">
		<data encoding="csv">
34, 14,
34, 24,
5, 5,
3, 46,
19, 45,
21, 28,
18, 15,
47, 22,
5, 5,
46, 4,
10, 34,
20, 34,
34, 24,
34, 24,
8, 48,
45, 18,
18, 18,
18, 51,
18, 49,
18, 18,
48, 50,
52, 18,
20, 34,
20, 34,
27, 30,
7, 1,
31, 11,
13, 53,
12, 33,
54, 7,
32, 27,
2, 13,
39, 42,
44, 1,
13, 16,
13, 55,
17, 7,
17, 7,
13, 36,
2, 13,
7, 41,
7, 13,
13, 30,
42, 41,
32, 6,
13, 13,
13, 37,
38, 13,
56, 35,
56, 13,
13, 13,
40, 35,
13, 40,
43, 13,
13, 57,
42, 57</data>
	</layer>
</map>
