<?xml version="1.0" ?>
<map height="130" orientation="orthogonal" renderorder="right-down" tileheight="16" tilewidth="16" width="2">
	<!--Add tilesets as much as needed-->
	<tileset firstgid="1" tileheight="16" tilewidth="16">
		<image source="../metatiles/Metatiles_011_63f8.tmx"/>
	</tileset>
	<layer height="130" id="1" name="blocks" width="2">
		<data encoding="csv">
42, 6,
42, 13,
20, 20,
30, 31,
20, 20,
28, 29,
7, 42,
12, 42,
42, 13,
42, 13,
23, 25,
23, 25,
25, 25,
25, 25,
12, 42,
19, 7,
3, 5,
12, 13,
25, 25,
23, 25,
29, 12,
25, 12,
12, 14,
12, 42,
5, 25,
13, 23,
25, 19,
25, 29,
12, 42,
19, 20,
13, 23,
50, 5,
6, 20,
13, 30,
20, 7,
31, 12,
66, 27,
23, 25,
12, 42,
12, 42,
13, 47,
13, 23,
27, 12,
25, 12,
19, 20,
28, 29,
21, 23,
28, 22,
25, 12,
25, 12,
7, 13,
12, 13,
19, 21,
30, 31,
23, 25,
22, 25,
3, 4,
51, 20,
4, 4,
20, 20,
4, 15,
20, 7,
29, 28,
25, 48,
12, 13,
12, 13,
25, 25,
3, 53,
12, 14,
55, 20,
30, 31,
67, 27,
28, 29,
25, 25,
23, 25,
68, 27,
25, 25,
25, 3,
42, 14,
42, 42,
4, 4,
42, 42,
15, 14,
42, 42,
4, 15,
42, 42,
25, 3,
25, 12,
57, 29,
13, 23,
30, 31,
25, 25,
28, 12,
25, 12,
13, 48,
13, 23,
28, 30,
25, 25,
31, 12,
25, 19,
13, 23,
54, 9,
25, 25,
58, 25,
25, 25,
4, 5,
25, 28,
25, 25,
29, 30,
25, 25,
31, 22,
25, 25,
42, 13,
42, 14,
23, 25,
4, 4,
25, 25,
4, 4,
25, 12,
4, 15,
23, 25,
69, 27,
1, 27,
23, 25,
30, 31,
1, 27,
23, 25,
1, 27,
23, 25,
1, 27</data>
	</layer>
</map>
