<?xml version="1.0" ?>
<map height="214" orientation="orthogonal" renderorder="right-down" tileheight="16" tilewidth="16" width="2">
	<!--Add tilesets as much as needed-->
	<tileset firstgid="1" tileheight="16" tilewidth="16">
		<image source="../metatiles/Metatiles_053_53ba.tmx"/>
	</tileset>
	<layer height="214" id="1" name="blocks" width="2">
		<data encoding="csv">
26, 7,
35, 37,
7, 7,
38, 38,
7, 7,
39, 17,
7, 7,
37, 38,
7, 7,
39, 37,
8, 43,
8, 50,
43, 41,
47, 48,
42, 11,
51, 20,
41, 42,
45, 46,
42, 43,
49, 50,
8, 58,
8, 10,
55, 56,
22, 12,
57, 30,
13, 14,
53, 54,
44, 22,
55, 56,
22, 31,
57, 58,
32, 33,
8, 19,
8, 29,
12, 3,
31, 4,
33, 31,
14, 12,
14, 22,
23, 22,
22, 22,
22, 22,
22, 22,
10, 2,
8, 19,
8, 37,
19, 31,
38, 38,
3, 4,
39, 33,
33, 22,
22, 10,
10, 10,
11, 2,
2, 59,
1, 2,
42, 22,
51, 20,
10, 10,
59, 2,
2, 1,
1, 2,
12, 14,
21, 33,
7, 5,
39, 15,
22, 22,
60, 22,
6, 7,
16, 37,
7, 27,
39, 36,
42, 10,
51, 20,
10, 43,
19, 50,
42, 8,
51, 8,
55, 56,
22, 22,
57, 30,
22, 22,
29, 58,
12, 14,
57, 8,
19, 8,
22, 22,
59, 10,
22, 12,
22, 31,
4, 3,
3, 37,
13, 14,
38, 38,
29, 8,
39, 8,
2, 11,
1, 2,
10, 10,
1, 11,
22, 22,
10, 22,
31, 43,
22, 50,
10, 10,
1, 59,
22, 58,
22, 22,
55, 56,
22, 40,
8, 58,
8, 22,
57, 30,
14, 22,
2, 1,
59, 2,
59, 12,
1, 31,
23, 59,
33, 2,
22, 22,
19, 22,
21, 14,
21, 33,
10, 10,
22, 10,
2, 1,
11, 2,
8, 37,
8, 41,
38, 38,
42, 43,
38, 39,
41, 42,
10, 10,
12, 14,
2, 59,
10, 2,
8, 45,
8, 53,
46, 47,
54, 55,
48, 49,
56, 57,
20, 22,
30, 22,
21, 23,
31, 32,
22, 22,
14, 22,
8, 11,
8, 19,
22, 22,
19, 12,
12, 33,
23, 22,
22, 22,
19, 19,
31, 14,
22, 21,
24, 7,
16, 17,
7, 7,
17, 17,
59, 1,
1, 2,
2, 1,
1, 59,
12, 14,
31, 3,
29, 8,
13, 8,
2, 1,
1, 11,
11, 10,
10, 19,
19, 22,
29, 19,
22, 31,
22, 22,
3, 8,
21, 8,
2, 1,
59, 10,
10, 10,
19, 19,
37, 38,
41, 42,
38, 38,
43, 41,
39, 22,
42, 22,
31, 8,
22, 8,
29, 29,
22, 11,
45, 46,
53, 54,
47, 48,
55, 56,
49, 20,
57, 30,
19, 8,
29, 8,
22, 12,
12, 3,
13, 14,
4, 3,
5, 22,
15, 60,
31, 6,
22, 16,
7, 25,
17, 34</data>
	</layer>
</map>
