<?xml version="1.0" ?>
<map height="174" orientation="orthogonal" renderorder="right-down" tileheight="16" tilewidth="16" width="2">
	<!--Add tilesets as much as needed-->
	<tileset firstgid="1" tileheight="16" tilewidth="16">
		<image source="../metatiles/Metatiles_057_652a.tmx"/>
	</tileset>
	<layer height="174" id="1" name="blocks" width="2">
		<data encoding="csv">
42, 42,
42, 6,
32, 33,
32, 33,
20, 20,
28, 30,
20, 20,
31, 29,
7, 42,
19, 20,
42, 42,
7, 42,
42, 13,
42, 13,
66, 35,
23, 25,
67, 25,
25, 25,
25, 25,
25, 25,
30, 31,
25, 25,
12, 42,
19, 20,
23, 25,
23, 25,
3, 4,
12, 42,
4, 5,
42, 13,
27, 25,
23, 25,
19, 20,
30, 31,
20, 65,
28, 29,
11, 5,
12, 14,
27, 25,
4, 4,
42, 14,
42, 42,
5, 27,
13, 23,
25, 25,
47, 27,
12, 42,
12, 6,
6, 20,
21, 28,
42, 42,
42, 42,
14, 5,
42, 14,
25, 25,
4, 4,
12, 13,
15, 13,
29, 75,
23, 25,
6, 20,
13, 30,
21, 30,
31, 22,
31, 29,
25, 25,
19, 7,
28, 19,
13, 23,
21, 23,
25, 25,
3, 4,
25, 25,
5, 27,
25, 28,
25, 25,
12, 42,
12, 42,
29, 22,
25, 25,
25, 3,
25, 12,
15, 42,
42, 42,
14, 5,
42, 13,
19, 7,
29, 12,
3, 15,
15, 42,
25, 12,
25, 12,
20, 20,
30, 31,
7, 42,
19, 7,
42, 6,
42, 13,
21, 23,
29, 22,
27, 76,
25, 25,
28, 12,
25, 12,
3, 15,
12, 42,
20, 20,
31, 30,
7, 13,
19, 65,
23, 25,
11, 4,
6, 21,
13, 29,
23, 25,
22, 25,
13, 23,
13, 23,
4, 4,
42, 42,
25, 19,
25, 30,
20, 7,
31, 19,
42, 14,
20, 20,
4, 4,
7, 42,
25, 30,
25, 25,
14, 4,
42, 42,
4, 5,
42, 14,
25, 47,
4, 4,
12, 42,
15, 42,
48, 25,
58, 9,
25, 12,
9, 64,
20, 21,
30, 31,
19, 42,
29, 12,
21, 28,
28, 22,
28, 22,
25, 25,
25, 3,
25, 19,
4, 4,
20, 20,
4, 15,
7, 42,
4, 4,
6, 20,
15, 42,
20, 20,
13, 29,
13, 23,
25, 25,
25, 3,
13, 23,
14, 4,
48, 25,
4, 4,
25, 12,
4, 15,
29, 1,
23, 25,
27, 1,
25, 25</data>
	</layer>
</map>
