<?xml version="1.0" ?>
<map height="46" orientation="orthogonal" renderorder="right-down" tileheight="16" tilewidth="16" width="2">
	<!--Add tilesets as much as needed-->
	<tileset firstgid="1" tileheight="16" tilewidth="16">
		<image source="../metatiles/Metatiles_011_6cd9.tmx"/>
	</tileset>
	<layer height="46" id="1" name="blocks" width="2">
		<data encoding="csv">
31, 31,
31, 13,
31, 31,
12, 32,
31, 31,
1, 32,
31, 31,
11, 33,
31, 31,
14, 38,
31, 31,
38, 31,
31, 18,
31, 4,
17, 10,
4, 4,
36, 3,
4, 4,
16, 35,
4, 4,
19, 8,
4, 4,
9, 31,
4, 31,
31, 4,
31, 4,
4, 4,
4, 4,
5, 26,
5, 28,
27, 5,
29, 5,
4, 23,
4, 4,
24, 31,
4, 31,
31, 4,
31, 3,
4, 31,
3, 31,
31, 31,
31, 31,
31, 21,
31, 31,
22, 31,
31, 31</data>
	</layer>
</map>
