<?xml version="1.0" ?>
<map height="80" orientation="orthogonal" renderorder="right-down" tileheight="16" tilewidth="16" width="2">
	<!--Add tilesets as much as needed-->
	<tileset firstgid="1" tileheight="16" tilewidth="16">
		<image source="../metatiles/Metatiles_064_7a99.tmx"/>
	</tileset>
	<layer height="80" id="1" name="blocks" width="2">
		<data encoding="csv">
16, 19,
19, 16,
16, 13,
19, 3,
1, 19,
6, 16,
16, 19,
19, 18,
16, 8,
19, 13,
11, 19,
7, 11,
11, 13,
3, 1,
11, 12,
3, 1,
13, 7,
3, 7,
7, 7,
7, 7,
6, 19,
11, 13,
18, 19,
11, 22,
16, 18,
19, 16,
16, 22,
19, 16,
16, 3,
19, 16,
1, 3,
18, 8,
7, 7,
1, 3,
7, 6,
7, 11,
16, 15,
19, 16,
22, 15,
22, 16,
3, 7,
22, 3,
16, 19,
19, 13,
18, 19,
11, 12,
11, 19,
7, 6,
8, 7,
18, 3,
7, 7,
7, 1,
1, 16,
16, 19,
15, 19,
13, 11,
16, 19,
19, 22,
15, 13,
13, 7,
7, 11,
7, 1,
19, 16,
16, 19,
11, 13,
7, 7,
7, 11,
7, 4,
19, 18,
25, 26,
2, 3,
16, 18,
1, 3,
16, 18,
9, 9,
14, 14,
25, 26,
27, 28,
28, 28,
28, 28</data>
	</layer>
</map>
