<?xml version="1.0" ?>
<map height="34" orientation="orthogonal" renderorder="right-down" tileheight="16" tilewidth="16" width="2">
	<!--Add tilesets as much as needed-->
	<tileset firstgid="1" tileheight="16" tilewidth="16">
		<image source="../metatiles/Metatiles_001_5dd3.tmx"/>
	</tileset>
	<layer height="34" id="1" name="blocks" width="2">
		<data encoding="csv">
42, 42,
42, 42,
42, 42,
1, 3,
42, 42,
47, 1,
42, 42,
43, 9,
42, 42,
22, 6,
15, 16,
24, 25,
49, 23,
25, 25,
53, 5,
25, 25,
30, 14,
25, 25,
25, 36,
25, 36,
26, 27,
34, 35,
36, 25,
36, 25,
6, 22,
14, 30,
25, 25,
25, 25,
25, 25,
25, 23,
42, 37,
42, 42,
38, 42,
42, 42</data>
	</layer>
</map>
