<?xml version="1.0" ?>
<map height="48" orientation="orthogonal" renderorder="right-down" tileheight="16" tilewidth="16" width="2">
	<!--Add tilesets as much as needed-->
	<tileset firstgid="1" tileheight="16" tilewidth="16">
		<image source="../metatiles/Metatiles_018_4254.tmx"/>
	</tileset>
	<layer height="48" id="1" name="blocks" width="2">
		<data encoding="csv">
22, 22,
22, 15,
22, 22,
14, 13,
22, 22,
23, 10,
22, 22,
9, 10,
22, 22,
10, 9,
22, 22,
9, 22,
22, 11,
22, 26,
24, 8,
27, 7,
25, 20,
27, 26,
19, 20,
27, 26,
20, 19,
27, 26,
19, 22,
27, 22,
22, 9,
22, 19,
9, 6,
19, 26,
26, 27,
27, 26,
9, 9,
19, 19,
10, 10,
20, 20,
26, 22,
27, 22,
22, 4,
22, 12,
3, 4,
21, 21,
3, 22,
12, 22,
22, 22,
22, 22,
22, 17,
22, 22,
18, 22,
22, 22</data>
	</layer>
</map>
