<?xml version="1.0" ?>
<map height="230" orientation="orthogonal" renderorder="right-down" tileheight="16" tilewidth="16" width="2">
	<!--Add tilesets as much as needed-->
	<tileset firstgid="1" tileheight="16" tilewidth="16">
		<image source="../metatiles/Metatiles_011_50f4.tmx"/>
	</tileset>
	<layer height="230" id="1" name="blocks" width="2">
		<data encoding="csv">
27, 26,
26, 27,
27, 31,
26, 29,
30, 26,
28, 27,
27, 26,
31, 30,
29, 4,
31, 7,
11, 12,
21, 23,
13, 11,
21, 22,
13, 25,
23, 25,
27, 31,
31, 4,
30, 26,
4, 30,
29, 3,
31, 25,
28, 29,
30, 31,
4, 4,
28, 29,
19, 19,
28, 29,
20, 4,
14, 19,
4, 15,
19, 24,
19, 10,
9, 25,
19, 20,
4, 14,
30, 31,
19, 20,
21, 23,
25, 25,
4, 28,
28, 27,
29, 28,
26, 27,
4, 25,
25, 25,
25, 7,
7, 7,
27, 31,
31, 7,
30, 31,
53, 7,
30, 26,
7, 30,
25, 28,
7, 30,
29, 11,
31, 21,
12, 13,
22, 23,
54, 28,
7, 30,
29, 28,
31, 30,
4, 28,
4, 30,
27, 31,
31, 15,
29, 25,
31, 11,
4, 28,
13, 30,
29, 14,
26, 29,
29, 55,
31, 25,
7, 28,
25, 30,
29, 21,
31, 4,
23, 4,
25, 25,
30, 31,
25, 25,
28, 29,
27, 31,
3, 4,
25, 28,
30, 31,
29, 4,
28, 29,
30, 26,
26, 29,
27, 31,
25, 30,
11, 13,
31, 4,
4, 4,
7, 11,
25, 21,
7, 30,
11, 12,
31, 4,
28, 29,
21, 22,
28, 29,
12, 13,
21, 23,
25, 4,
25, 28,
21, 23,
28, 29,
19, 24,
5, 28,
5, 28,
29, 30,
29, 25,
31, 25,
4, 4,
25, 25,
4, 4,
11, 12,
4, 30,
13, 4,
26, 29,
30, 31,
4, 25,
4, 25,
16, 8,
21, 23,
23, 25,
28, 29,
11, 13,
21, 23,
25, 25,
28, 29,
30, 31,
28, 29,
31, 4,
13, 7,
11, 13,
21, 8,
30, 26,
13, 30,
21, 13,
4, 16,
7, 28,
13, 30,
7, 21,
28, 29,
23, 4,
25, 28,
30, 31,
19, 19,
25, 4,
25, 4,
4, 30,
15, 19,
31, 4,
19, 19,
10, 19,
25, 4,
24, 5,
28, 29,
7, 25,
28, 29,
25, 7,
25, 25,
11, 13,
16, 18,
4, 16,
4, 21,
18, 4,
23, 4,
30, 31,
15, 19,
25, 30,
10, 19,
31, 28,
20, 30,
20, 4,
14, 20,
25, 4,
25, 15,
15, 19,
24, 5,
24, 9,
28, 29,
25, 4,
3, 4,
14, 19,
28, 29,
4, 14,
28, 29,
10, 24,
25, 4,
5, 4,
4, 4,
30, 31,
7, 11,
11, 13,
22, 23,
25, 11,
7, 21,
12, 12,
22, 22,
12, 23,
23, 28,
7, 7,
29, 28,
30, 26,
29, 30,
29, 30,
31, 4,
26, 27,
30, 31,
30, 31,
1, 7,
1, 28,
7, 30,
29, 1,
31, 25,
25, 4,
25, 4,
25, 4,
25, 28,
29, 25,
31, 25,
29, 25,
31, 25</data>
	</layer>
</map>
