<?xml version="1.0" ?>
<map height="46" orientation="orthogonal" renderorder="right-down" tileheight="16" tilewidth="16" width="2">
	<!--Add tilesets as much as needed-->
	<tileset firstgid="1" tileheight="16" tilewidth="16">
		<image source="../metatiles/Metatiles_017_4849.tmx"/>
	</tileset>
	<layer height="46" id="1" name="blocks" width="2">
		<data encoding="csv">
16, 3,
19, 13,
1, 16,
11, 19,
16, 18,
19, 16,
16, 3,
19, 16,
7, 5,
3, 1,
16, 19,
19, 16,
13, 11,
3, 7,
18, 19,
11, 12,
16, 2,
19, 18,
3, 7,
16, 3,
11, 19,
7, 11,
16, 16,
19, 19,
19, 16,
16, 19,
2, 2,
16, 16,
8, 1,
13, 11,
5, 16,
1, 19,
19, 8,
18, 8,
11, 16,
1, 19,
18, 19,
12, 13,
12, 12,
7, 1,
12, 13,
2, 3,
2, 3,
16, 16,
1, 16,
16, 19</data>
	</layer>
</map>
