<?xml version="1.0" ?>
<map height="34" orientation="orthogonal" renderorder="right-down" tileheight="16" tilewidth="16" width="2">
	<!--Add tilesets as much as needed-->
	<tileset firstgid="1" tileheight="16" tilewidth="16">
		<image source="../metatiles/Metatiles_053_644a.tmx"/>
	</tileset>
	<layer height="34" id="1" name="blocks" width="2">
		<data encoding="csv">
42, 42,
42, 42,
50, 48,
57, 69,
48, 48,
9, 1,
48, 48,
2, 52,
49, 50,
53, 56,
64, 68,
43, 70,
43, 46,
43, 43,
44, 59,
43, 43,
60, 63,
70, 43,
45, 71,
72, 73,
43, 43,
43, 43,
71, 45,
73, 47,
44, 43,
42, 47,
43, 43,
43, 46,
43, 44,
44, 42,
42, 37,
42, 42,
38, 42,
42, 42</data>
	</layer>
</map>
