<?xml version="1.0" ?>
<map height="32" orientation="orthogonal" renderorder="right-down" tileheight="16" tilewidth="16" width="2">
	<!--Add tilesets as much as needed-->
	<tileset firstgid="1" tileheight="16" tilewidth="16">
		<image source="../metatiles/Metatiles_001_5219.tmx"/>
	</tileset>
	<layer height="32" id="1" name="blocks" width="2">
		<data encoding="csv">
42, 42,
42, 42,
42, 42,
1, 3,
42, 42,
1, 50,
42, 42,
1, 51,
42, 42,
6, 22,
5, 23,
45, 45,
52, 53,
45, 45,
52, 54,
45, 45,
14, 30,
45, 45,
45, 46,
45, 46,
43, 44,
47, 48,
46, 45,
46, 45,
45, 45,
45, 45,
45, 45,
45, 23,
42, 37,
42, 42,
38, 42,
42, 42</data>
	</layer>
</map>
