<?xml version="1.0" ?>
<map height="50" orientation="orthogonal" renderorder="right-down" tileheight="16" tilewidth="16" width="2">
	<!--Add tilesets as much as needed-->
	<tileset firstgid="1" tileheight="16" tilewidth="16">
		<image source="../metatiles/Metatiles_06a_6eef.tmx"/>
	</tileset>
	<layer height="50" id="1" name="blocks" width="2">
		<data encoding="csv">
14, 14,
14, 33,
32, 14,
14, 14,
14, 33,
34, 14,
14, 14,
14, 14,
34, 14,
14, 14,
14, 14,
35, 14,
14, 14,
34, 14,
28, 10,
1, 17,
28, 23,
22, 27,
28, 28,
37, 3,
23, 28,
22, 27,
10, 36,
17, 14,
14, 4,
14, 11,
8, 3,
15, 9,
16, 9,
16, 9,
38, 9,
9, 9,
9, 2,
9, 9,
32, 14,
39, 14,
21, 3,
26, 9,
37, 9,
38, 3,
9, 14,
9, 14,
14, 33,
14, 14,
14, 40,
14, 14,
14, 14,
41, 14,
36, 14,
14, 14</data>
	</layer>
</map>
