<?xml version="1.0" ?>
<map height="50" orientation="orthogonal" renderorder="right-down" tileheight="16" tilewidth="16" width="2">
	<!--Add tilesets as much as needed-->
	<tileset firstgid="1" tileheight="16" tilewidth="16">
		<image source="../metatiles/Metatiles_064_7278.tmx"/>
	</tileset>
	<layer height="50" id="1" name="blocks" width="2">
		<data encoding="csv">
42, 42,
42, 6,
6, 20,
21, 28,
20, 20,
29, 30,
20, 20,
31, 29,
20, 7,
40, 19,
42, 42,
7, 42,
42, 13,
42, 13,
28, 43,
23, 25,
44, 45,
25, 25,
46, 25,
25, 25,
41, 28,
25, 25,
12, 42,
12, 42,
23, 25,
23, 25,
25, 25,
25, 25,
43, 44,
25, 25,
45, 46,
25, 25,
42, 13,
42, 14,
43, 44,
5, 25,
25, 47,
25, 25,
25, 25,
25, 3,
12, 42,
15, 42,
42, 42,
42, 42,
14, 4,
42, 42,
4, 4,
42, 42,
4, 15,
42, 42</data>
	</layer>
</map>
