<?xml version="1.0" ?>
<map height="46" orientation="orthogonal" renderorder="right-down" tileheight="16" tilewidth="16" width="2">
	<!--Add tilesets as much as needed-->
	<tileset firstgid="1" tileheight="16" tilewidth="16">
		<image source="../metatiles/Metatiles_064_6ba5.tmx"/>
	</tileset>
	<layer height="46" id="1" name="blocks" width="2">
		<data encoding="csv">
35, 35,
35, 8,
35, 35,
44, 8,
35, 35,
16, 48,
35, 35,
48, 16,
35, 35,
8, 44,
35, 35,
34, 35,
35, 10,
35, 3,
22, 22,
42, 22,
22, 49,
22, 22,
49, 22,
22, 22,
3, 3,
22, 22,
41, 35,
22, 35,
35, 18,
35, 34,
45, 22,
2, 33,
22, 22,
22, 22,
22, 35,
22, 35,
35, 41,
35, 22,
22, 50,
22, 40,
29, 22,
36, 22,
30, 35,
37, 35,
35, 35,
35, 35,
35, 24,
35, 35,
25, 35,
35, 35</data>
	</layer>
</map>
