<?xml version="1.0" ?>
<map height="332" orientation="orthogonal" renderorder="right-down" tileheight="16" tilewidth="16" width="2">
	<!--Add tilesets as much as needed-->
	<tileset firstgid="1" tileheight="16" tilewidth="16">
		<image source="../metatiles/Metatiles_06a_4484.tmx"/>
	</tileset>
	<layer height="332" id="1" name="blocks" width="2">
		<data encoding="csv">
4, 6,
6, 6,
6, 40,
6, 42,
41, 6,
43, 6,
6, 6,
5, 6,
6, 6,
6, 6,
5, 6,
6, 4,
6, 6,
6, 9,
6, 9,
11, 22,
11, 11,
14, 22,
6, 6,
6, 5,
9, 3,
15, 22,
45, 3,
3, 22,
22, 17,
22, 22,
5, 6,
7, 7,
6, 6,
7, 7,
15, 17,
19, 22,
22, 3,
17, 22,
6, 5,
6, 6,
28, 3,
32, 23,
22, 14,
28, 22,
14, 17,
17, 22,
5, 6,
6, 9,
6, 6,
11, 11,
6, 6,
11, 10,
11, 22,
17, 22,
2, 3,
22, 22,
22, 22,
22, 22,
11, 11,
17, 49,
11, 11,
14, 17,
17, 17,
3, 22,
22, 17,
17, 22,
22, 3,
22, 22,
17, 17,
3, 17,
14, 22,
17, 3,
22, 17,
22, 14,
22, 22,
44, 3,
3, 44,
22, 24,
3, 45,
24, 28,
3, 17,
3, 24,
14, 3,
23, 23,
24, 23,
30, 29,
23, 30,
29, 30,
6, 4,
6, 6,
10, 5,
22, 11,
6, 6,
10, 6,
17, 22,
3, 22,
16, 6,
24, 6,
24, 26,
30, 26,
30, 10,
34, 17,
5, 6,
6, 6,
34, 3,
28, 14,
17, 14,
22, 3,
16, 5,
16, 12,
5, 6,
6, 18,
32, 29,
32, 29,
32, 23,
32, 29,
23, 23,
29, 29,
9, 11,
15, 17,
36, 33,
14, 45,
32, 29,
36, 33,
29, 29,
33, 33,
6, 5,
6, 9,
15, 22,
22, 3,
17, 14,
22, 17,
3, 22,
17, 17,
17, 22,
22, 3,
6, 15,
4, 15,
14, 22,
22, 17,
22, 22,
22, 17,
17, 3,
3, 3,
44, 3,
16, 23,
6, 28,
6, 32,
3, 22,
23, 26,
24, 28,
30, 32,
45, 3,
23, 23,
24, 29,
30, 29,
30, 32,
30, 32,
29, 29,
29, 29,
30, 29,
30, 33,
29, 30,
33, 34,
30, 32,
34, 36,
33, 33,
14, 17,
34, 17,
17, 44,
14, 17,
3, 3,
22, 22,
22, 24,
3, 22,
23, 28,
3, 22,
22, 17,
24, 30,
30, 30,
29, 32,
29, 32,
23, 28,
29, 32,
45, 22,
15, 3,
30, 30,
30, 30,
29, 32,
33, 32,
32, 23,
36, 33,
28, 22,
32, 26,
24, 11,
30, 14,
10, 6,
16, 4,
3, 17,
17, 14,
36, 26,
17, 3,
34, 17,
22, 17,
16, 5,
16, 6,
22, 17,
22, 3,
22, 22,
22, 3,
17, 3,
3, 44,
3, 22,
3, 14,
3, 24,
23, 30,
30, 6,
30, 6,
6, 6,
6, 4,
44, 24,
23, 30,
26, 30,
26, 30,
29, 30,
29, 30,
30, 12,
34, 11,
6, 32,
5, 32,
29, 26,
29, 26,
30, 29,
30, 29,
6, 32,
9, 46,
29, 26,
33, 26,
30, 33,
34, 22,
15, 45,
15, 14,
14, 22,
3, 3,
17, 3,
22, 17,
22, 3,
22, 3,
44, 22,
14, 3,
15, 22,
28, 17,
28, 14,
32, 23,
17, 24,
23, 30,
22, 24,
23, 30,
30, 34,
34, 3,
17, 36,
22, 16,
14, 22,
22, 22,
22, 16,
3, 16,
38, 32,
39, 36,
22, 22,
22, 16,
14, 38,
14, 39,
14, 17,
17, 14,
36, 33,
17, 14,
3, 16,
44, 16,
30, 26,
30, 26,
38, 14,
39, 22,
17, 22,
3, 17,
8, 38,
22, 39,
30, 22,
34, 22,
3, 22,
22, 22,
14, 3,
22, 17,
26, 30,
26, 34,
33, 34,
17, 22,
16, 5,
44, 10,
29, 34,
29, 17,
17, 17,
22, 22,
17, 17,
17, 22,
22, 17,
17, 50,
3, 16,
22, 16,
33, 15,
38, 15,
22, 3,
3, 51,
22, 22,
14, 22,
22, 14,
3, 24,
39, 28,
38, 32,
3, 45,
23, 23,
39, 32,
14, 36,
30, 33,
34, 14,
33, 34,
17, 17,
36, 34,
22, 17,
1, 3,
22, 22,
11, 11,
17, 1,
22, 17,
17, 1,
22, 3,
3, 1</data>
	</layer>
</map>
