<?xml version="1.0" ?>
<map height="144" orientation="orthogonal" renderorder="right-down" tileheight="16" tilewidth="16" width="2">
	<!--Add tilesets as much as needed-->
	<tileset firstgid="1" tileheight="16" tilewidth="16">
		<image source="../metatiles/Metatiles_057_5738.tmx"/>
	</tileset>
	<layer height="144" id="1" name="blocks" width="2">
		<data encoding="csv">
52, 52,
52, 52,
52, 52,
3, 23,
52, 52,
23, 23,
52, 52,
23, 4,
52, 52,
52, 3,
17, 35,
24, 58,
35, 35,
46, 49,
35, 15,
46, 15,
23, 24,
35, 35,
35, 40,
40, 38,
49, 46,
45, 38,
50, 22,
51, 35,
23, 23,
35, 35,
38, 38,
45, 38,
38, 45,
51, 46,
8, 10,
15, 17,
49, 50,
39, 38,
38, 45,
46, 38,
9, 9,
52, 52,
6, 5,
52, 52,
3, 23,
17, 35,
24, 35,
35, 40,
35, 35,
38, 46,
35, 22,
45, 35,
4, 52,
15, 52,
24, 39,
35, 40,
38, 38,
8, 20,
38, 38,
26, 42,
46, 46,
38, 49,
15, 52,
15, 52,
38, 38,
38, 45,
59, 24,
18, 35,
35, 40,
40, 45,
51, 8,
8, 6,
6, 52,
52, 52,
25, 39,
17, 39,
38, 46,
51, 8,
15, 52,
6, 52,
52, 3,
52, 17,
4, 52,
22, 23,
3, 24,
17, 35,
39, 49,
68, 41,
35, 35,
46, 45,
35, 15,
46, 22,
52, 52,
4, 52,
17, 39,
17, 39,
38, 51,
38, 49,
46, 46,
50, 49,
45, 35,
46, 46,
22, 23,
35, 35,
38, 38,
38, 51,
11, 60,
18, 58,
61, 46,
8, 9,
5, 9,
52, 52,
10, 42,
17, 39,
38, 8,
38, 15,
62, 9,
52, 52,
17, 39,
17, 63,
49, 35,
64, 38,
35, 22,
49, 35,
5, 10,
23, 21,
42, 45,
27, 26,
38, 49,
42, 38,
35, 35,
40, 45,
35, 35,
38, 38,
40, 38,
38, 46,
50, 45,
9, 9,
38, 38,
10, 42,
38, 38,
38, 46,
46, 8,
46, 15,
9, 6,
52, 52,
39, 49,
1, 41</data>
	</layer>
</map>
