<?xml version="1.0" ?>
<map height="84" orientation="orthogonal" renderorder="right-down" tileheight="16" tilewidth="16" width="2">
	<!--Add tilesets as much as needed-->
	<tileset firstgid="1" tileheight="16" tilewidth="16">
		<image source="../metatiles/Metatiles_057_4faa.tmx"/>
	</tileset>
	<layer height="84" id="1" name="blocks" width="2">
		<data encoding="csv">
32, 24,
32, 28,
38, 38,
13, 13,
38, 36,
13, 28,
38, 38,
9, 13,
38, 38,
13, 8,
32, 28,
32, 28,
17, 6,
2, 4,
5, 28,
39, 28,
42, 12,
10, 11,
4, 19,
3, 4,
17, 43,
2, 31,
5, 28,
3, 28,
21, 22,
2, 4,
12, 3,
4, 3,
2, 3,
17, 43,
4, 34,
3, 15,
44, 4,
14, 1,
32, 28,
32, 34,
17, 45,
38, 38,
3, 3,
38, 38,
4, 3,
38, 38,
3, 4,
38, 38,
38, 38,
13, 46,
38, 36,
47, 28,
38, 29,
13, 34,
32, 32,
29, 32,
32, 32,
32, 32,
48, 49,
3, 3,
50, 28,
51, 28,
17, 15,
2, 39,
34, 29,
15, 34,
4, 3,
3, 3,
3, 28,
6, 28,
2, 4,
2, 3,
5, 15,
30, 5,
28, 32,
28, 32,
3, 52,
4, 15,
38, 35,
13, 14,
2, 3,
1, 4,
3, 24,
24, 23,
23, 32,
32, 32,
3, 24,
38, 23</data>
	</layer>
</map>
