<?xml version="1.0" ?>
<map height="46" orientation="orthogonal" renderorder="right-down" tileheight="16" tilewidth="16" width="2">
	<!--Add tilesets as much as needed-->
	<tileset firstgid="1" tileheight="16" tilewidth="16">
		<image source="../metatiles/Metatiles_050_5c49.tmx"/>
	</tileset>
	<layer height="46" id="1" name="blocks" width="2">
		<data encoding="csv">
35, 35,
35, 8,
35, 35,
15, 8,
35, 35,
16, 45,
35, 35,
32, 46,
35, 35,
9, 15,
35, 35,
34, 35,
35, 10,
35, 3,
42, 42,
42, 42,
42, 47,
42, 42,
48, 49,
42, 40,
42, 42,
43, 43,
41, 35,
43, 35,
35, 2,
35, 42,
33, 42,
49, 42,
42, 44,
50, 42,
35, 42,
35, 42,
49, 42,
40, 42,
3, 35,
30, 35,
35, 42,
35, 35,
42, 42,
35, 35,
42, 24,
35, 42,
25, 42,
42, 35,
37, 35,
35, 35</data>
	</layer>
</map>
