<?xml version="1.0" ?>
<map height="48" orientation="orthogonal" renderorder="right-down" tileheight="16" tilewidth="16" width="2">
	<!--Add tilesets as much as needed-->
	<tileset firstgid="1" tileheight="16" tilewidth="16">
		<image source="../metatiles/Metatiles_011_6cd9.tmx"/>
	</tileset>
	<layer height="48" id="1" name="blocks" width="2">
		<data encoding="csv">
31, 31,
31, 12,
31, 31,
13, 11,
31, 31,
34, 32,
31, 31,
1, 33,
31, 31,
32, 13,
31, 31,
32, 31,
31, 17,
31, 4,
18, 16,
4, 4,
37, 3,
4, 4,
36, 35,
4, 4,
25, 18,
30, 4,
10, 31,
4, 31,
31, 5,
31, 5,
26, 27,
28, 29,
5, 4,
5, 4,
4, 4,
4, 4,
4, 4,
25, 4,
4, 31,
4, 31,
31, 4,
31, 4,
39, 4,
30, 3,
4, 31,
3, 31,
31, 31,
31, 31,
31, 21,
31, 31,
22, 31,
31, 31</data>
	</layer>
</map>
