<?xml version="1.0" ?>
<map height="86" orientation="orthogonal" renderorder="right-down" tileheight="16" tilewidth="16" width="2">
	<!--Add tilesets as much as needed-->
	<tileset firstgid="1" tileheight="16" tilewidth="16">
		<image source="../metatiles/Metatiles_053_5103.tmx"/>
	</tileset>
	<layer height="86" id="1" name="blocks" width="2">
		<data encoding="csv">
9, 29,
13, 31,
17, 17,
32, 22,
17, 17,
22, 22,
30, 17,
33, 25,
13, 4,
13, 4,
3, 3,
3, 3,
3, 6,
3, 11,
34, 35,
13, 31,
27, 27,
32, 22,
27, 27,
22, 25,
3, 11,
3, 11,
7, 7,
12, 12,
17, 29,
25, 36,
17, 17,
22, 37,
30, 10,
38, 11,
27, 27,
25, 22,
27, 27,
22, 37,
39, 40,
38, 11,
8, 26,
41, 4,
41, 4,
41, 4,
8, 26,
13, 4,
41, 4,
13, 4,
3, 11,
3, 42,
12, 12,
17, 17,
3, 43,
3, 3,
37, 32,
3, 3,
3, 11,
3, 16,
13, 4,
44, 27,
3, 3,
27, 27,
3, 24,
3, 3,
22, 22,
3, 3,
25, 25,
3, 3,
13, 4,
14, 7,
3, 3,
7, 7,
3, 3,
7, 8,
3, 3,
26, 3,
21, 11,
27, 45,
13, 4,
46, 4,
47, 5,
3, 3,
3, 3,
39, 40,
3, 11,
7, 15,
33, 11,
3, 11,
12, 12,
12, 12</data>
	</layer>
</map>
