<?xml version="1.0" ?>
<map height="92" orientation="orthogonal" renderorder="right-down" tileheight="16" tilewidth="16" width="2">
	<!--Add tilesets as much as needed-->
	<tileset firstgid="1" tileheight="16" tilewidth="16">
		<image source="../metatiles/Metatiles_011_63f8.tmx"/>
	</tileset>
	<layer height="92" id="1" name="blocks" width="2">
		<data encoding="csv">
42, 6,
42, 13,
20, 20,
28, 29,
20, 20,
30, 31,
7, 6,
19, 21,
42, 13,
42, 13,
23, 25,
23, 25,
25, 25,
25, 25,
30, 31,
25, 25,
22, 25,
25, 25,
3, 5,
12, 13,
25, 25,
23, 25,
42, 56,
42, 13,
58, 25,
29, 22,
8, 9,
30, 31,
59, 56,
12, 13,
9, 9,
30, 31,
12, 13,
12, 13,
70, 27,
23, 25,
20, 20,
29, 28,
7, 6,
12, 13,
7, 42,
12, 42,
19, 21,
30, 31,
48, 25,
22, 25,
12, 42,
12, 42,
25, 25,
3, 5,
9, 9,
29, 28,
59, 56,
19, 21,
9, 58,
30, 31,
25, 8,
22, 29,
59, 42,
12, 42,
42, 13,
42, 14,
23, 25,
4, 5,
20, 21,
30, 31,
23, 8,
22, 29,
9, 9,
28, 29,
23, 25,
22, 25,
42, 14,
42, 42,
4, 4,
42, 42,
15, 14,
42, 42,
3, 5,
12, 14,
25, 25,
4, 4,
12, 42,
15, 42,
59, 6,
12, 13,
47, 27,
22, 25,
15, 42,
42, 42,
1, 27,
23, 25</data>
	</layer>
</map>
