<?xml version="1.0" ?>
<map height="34" orientation="orthogonal" renderorder="right-down" tileheight="16" tilewidth="16" width="2">
	<!--Add tilesets as much as needed-->
	<tileset firstgid="1" tileheight="16" tilewidth="16">
		<image source="../metatiles/Metatiles_011_685e.tmx"/>
	</tileset>
	<layer height="34" id="1" name="blocks" width="2">
		<data encoding="csv">
35, 35,
35, 35,
35, 35,
8, 15,
35, 35,
45, 8,
35, 35,
16, 32,
35, 35,
42, 34,
11, 23,
23, 23,
44, 6,
44, 13,
7, 39,
14, 17,
43, 41,
22, 31,
23, 23,
24, 25,
44, 17,
40, 22,
22, 22,
22, 22,
22, 38,
22, 22,
22, 31,
22, 38,
3, 3,
35, 35,
18, 22,
35, 35,
22, 22,
35, 35</data>
	</layer>
</map>
