<?xml version="1.0" ?>
<map height="206" orientation="orthogonal" renderorder="right-down" tileheight="16" tilewidth="16" width="2">
	<!--Add tilesets as much as needed-->
	<tileset firstgid="1" tileheight="16" tilewidth="16">
		<image source="../metatiles/Metatiles_053_4698.tmx"/>
	</tileset>
	<layer height="206" id="1" name="blocks" width="2">
		<data encoding="csv">
51, 19,
3, 25,
20, 19,
26, 25,
20, 52,
26, 36,
52, 7,
36, 13,
8, 5,
14, 11,
51, 51,
51, 51,
9, 30,
9, 38,
31, 30,
40, 40,
31, 38,
40, 40,
40, 41,
40, 40,
73, 12,
41, 34,
5, 51,
11, 51,
9, 38,
9, 38,
40, 21,
40, 12,
16, 16,
52, 5,
22, 39,
9, 38,
44, 43,
40, 32,
11, 51,
11, 51,
42, 34,
44, 43,
36, 11,
41, 11,
15, 16,
51, 51,
16, 16,
51, 51,
17, 51,
51, 51,
15, 16,
3, 52,
22, 39,
27, 38,
40, 11,
40, 11,
51, 3,
51, 9,
19, 20,
25, 26,
52, 5,
36, 11,
9, 36,
9, 38,
35, 37,
40, 40,
51, 9,
51, 9,
30, 31,
38, 33,
38, 11,
39, 11,
3, 19,
9, 25,
7, 8,
13, 14,
52, 5,
36, 12,
51, 51,
5, 51,
30, 31,
40, 40,
38, 40,
40, 40,
41, 34,
44, 41,
16, 16,
5, 51,
16, 22,
51, 9,
39, 44,
38, 40,
12, 5,
34, 11,
11, 51,
12, 5,
51, 9,
51, 18,
38, 40,
47, 39,
41, 11,
42, 11,
15, 22,
51, 9,
39, 40,
38, 40,
34, 12,
41, 34,
5, 9,
11, 9,
35, 37,
38, 40,
44, 11,
40, 11,
51, 9,
51, 15,
38, 40,
22, 39,
44, 43,
33, 39,
11, 9,
11, 15,
38, 40,
16, 16,
32, 11,
16, 17,
33, 39,
40, 40,
21, 17,
11, 3,
51, 9,
7, 62,
16, 16,
51, 3,
17, 9,
52, 27,
13, 14,
38, 40,
52, 27,
36, 35,
36, 35,
37, 40,
37, 40,
40, 40,
40, 40,
21, 16,
40, 11,
16, 17,
38, 40,
38, 50,
40, 40,
6, 6,
40, 21,
6, 28,
17, 3,
56, 27,
52, 52,
36, 36,
38, 34,
38, 40,
36, 36,
40, 40,
36, 57,
40, 40,
58, 63,
40, 40,
37, 44,
40, 40,
32, 40,
16, 16,
40, 40,
16, 16,
40, 21,
16, 17,
9, 38,
15, 16,
11, 51,
17, 51,
51, 51,
51, 3,
51, 3,
52, 27,
5, 51,
12, 5,
36, 35,
74, 39,
37, 33,
40, 44,
5, 9,
11, 15,
38, 40,
16, 22,
40, 40,
39, 40,
44, 41,
40, 44,
41, 75,
40, 41,
40, 40,
40, 32,
41, 11,
64, 11,
21, 17,
17, 51,
1, 12,
41, 34,
36, 35,
1, 39,
41, 1,
40, 41</data>
	</layer>
</map>
