<?xml version="1.0" ?>
<map height="40" orientation="orthogonal" renderorder="right-down" tileheight="16" tilewidth="16" width="2">
	<!--Add tilesets as much as needed-->
	<tileset firstgid="1" tileheight="16" tilewidth="16">
		<image source="../metatiles/Metatiles_06a_689e.tmx"/>
	</tileset>
	<layer height="40" id="1" name="blocks" width="2">
		<data encoding="csv">
42, 42,
42, 42,
42, 42,
42, 6,
42, 42,
20, 7,
6, 20,
21, 30,
20, 21,
31, 29,
49, 19,
22, 28,
20, 20,
30, 31,
20, 21,
28, 29,
29, 22,
25, 25,
25, 25,
25, 25,
5, 25,
14, 4,
25, 25,
4, 5,
25, 25,
25, 3,
25, 25,
4, 4,
42, 14,
42, 42,
4, 15,
42, 42,
49, 19,
22, 30,
20, 7,
31, 19,
25, 29,
25, 25,
25, 3,
4, 15</data>
	</layer>
</map>
