<?xml version="1.0" ?>
<map height="174" orientation="orthogonal" renderorder="right-down" tileheight="16" tilewidth="16" width="2">
	<!--Add tilesets as much as needed-->
	<tileset firstgid="1" tileheight="16" tilewidth="16">
		<image source="../metatiles/Metatiles_050_687d.tmx"/>
	</tileset>
	<layer height="174" id="1" name="blocks" width="2">
		<data encoding="csv">
12, 12,
12, 12,
12, 9,
12, 13,
17, 17,
37, 60,
17, 17,
25, 20,
10, 12,
16, 17,
12, 12,
10, 12,
17, 18,
25, 23,
40, 61,
4, 22,
3, 74,
3, 5,
24, 25,
5, 47,
11, 12,
11, 12,
12, 13,
12, 13,
30, 5,
76, 28,
5, 62,
5, 77,
5, 5,
28, 5,
5, 5,
5, 5,
12, 14,
12, 12,
7, 7,
12, 63,
7, 7,
17, 17,
7, 8,
10, 13,
28, 5,
78, 28,
11, 9,
11, 13,
25, 20,
4, 22,
11, 14,
11, 12,
7, 7,
12, 12,
15, 13,
12, 13,
30, 28,
3, 5,
5, 5,
5, 44,
9, 17,
13, 20,
17, 17,
20, 25,
17, 17,
64, 25,
17, 17,
25, 25,
10, 12,
11, 12,
45, 46,
75, 28,
65, 3,
5, 5,
5, 44,
5, 5,
12, 13,
12, 14,
43, 28,
7, 7,
5, 6,
7, 15,
7, 8,
12, 13,
28, 5,
3, 5,
3, 21,
3, 5,
3, 22,
3, 5,
4, 5,
5, 5,
3, 5,
4, 5,
3, 5,
47, 28,
5, 27,
5, 80,
3, 5,
3, 5,
6, 7,
11, 12,
15, 12,
12, 12,
13, 30,
13, 3,
28, 5,
5, 5,
16, 10,
24, 11,
13, 3,
13, 66,
5, 6,
5, 11,
8, 28,
13, 3,
5, 16,
5, 24,
13, 67,
13, 3,
68, 16,
5, 24,
14, 8,
12, 13,
16, 17,
24, 25,
18, 3,
23, 4,
3, 5,
8, 30,
5, 6,
27, 11,
14, 7,
12, 12,
7, 15,
12, 12,
5, 5,
5, 43,
7, 7,
12, 9,
15, 12,
17, 17,
12, 12,
17, 10,
20, 25,
4, 5,
25, 16,
27, 24,
12, 12,
17, 17,
5, 43,
5, 5,
24, 25,
5, 35,
25, 25,
36, 27,
7, 8,
12, 14,
28, 5,
7, 8,
5, 47,
5, 21,
45, 46,
79, 28,
3, 1,
3, 5,
45, 46,
1, 28,
30, 5,
1, 28,
5, 62,
5, 1,
28, 5,
1, 28,
45, 46,
1, 28,
5, 27,
5, 1</data>
	</layer>
</map>
