<?xml version="1.0" ?>
<map height="144" orientation="orthogonal" renderorder="right-down" tileheight="16" tilewidth="16" width="2">
	<!--Add tilesets as much as needed-->
	<tileset firstgid="1" tileheight="16" tilewidth="16">
		<image source="../metatiles/Metatiles_050_687d.tmx"/>
	</tileset>
	<layer height="144" id="1" name="blocks" width="2">
		<data encoding="csv">
12, 12,
12, 12,
12, 9,
12, 13,
17, 17,
20, 25,
17, 18,
20, 23,
3, 30,
4, 5,
30, 28,
47, 45,
5, 5,
46, 28,
12, 13,
12, 13,
27, 28,
3, 5,
5, 5,
5, 5,
3, 5,
43, 44,
84, 35,
28, 5,
36, 28,
5, 5,
12, 14,
12, 12,
7, 8,
12, 13,
3, 5,
30, 28,
17, 17,
25, 20,
10, 12,
11, 12,
30, 28,
5, 5,
16, 17,
24, 20,
5, 5,
5, 45,
5, 30,
46, 47,
5, 37,
5, 40,
37, 27,
40, 47,
11, 12,
11, 12,
5, 35,
5, 5,
5, 85,
5, 5,
5, 5,
5, 30,
6, 7,
11, 12,
15, 12,
12, 12,
9, 17,
13, 20,
17, 17,
25, 25,
17, 17,
19, 25,
10, 14,
11, 12,
7, 7,
12, 12,
8, 28,
13, 3,
13, 3,
13, 3,
86, 30,
5, 5,
16, 17,
24, 64,
47, 65,
88, 28,
13, 3,
13, 30,
21, 5,
5, 5,
5, 5,
45, 46,
14, 7,
12, 12,
8, 28,
13, 35,
5, 5,
36, 27,
89, 47,
27, 26,
5, 6,
5, 11,
12, 12,
9, 17,
12, 12,
17, 10,
5, 16,
5, 70,
17, 17,
71, 25,
13, 20,
13, 3,
25, 11,
5, 11,
5, 5,
28, 5,
11, 12,
16, 17,
13, 21,
18, 3,
5, 11,
5, 11,
28, 5,
3, 5,
24, 25,
5, 5,
23, 4,
5, 5,
12, 13,
12, 14,
3, 5,
7, 7,
5, 5,
7, 7,
44, 11,
7, 15,
87, 30,
5, 5,
1, 35,
28, 5,
5, 1,
5, 5,
1, 30,
5, 5,
1, 30,
5, 5,
47, 65,
1, 28,
1, 47,
27, 26</data>
	</layer>
</map>
