<?xml version="1.0" ?>
<map height="108" orientation="orthogonal" renderorder="right-down" tileheight="16" tilewidth="16" width="2">
	<!--Add tilesets as much as needed-->
	<tileset firstgid="1" tileheight="16" tilewidth="16">
		<image source="../metatiles/Metatiles_057_652a.tmx"/>
	</tileset>
	<layer height="108" id="1" name="blocks" width="2">
		<data encoding="csv">
42, 6,
42, 13,
20, 20,
29, 40,
20, 20,
36, 37,
20, 20,
68, 69,
32, 33,
32, 33,
7, 42,
12, 42,
42, 13,
42, 13,
23, 41,
23, 25,
38, 39,
25, 25,
56, 57,
25, 25,
32, 33,
34, 35,
12, 42,
12, 42,
23, 25,
23, 25,
25, 25,
25, 25,
25, 40,
25, 41,
42, 13,
42, 14,
23, 25,
4, 5,
25, 25,
27, 25,
25, 3,
25, 19,
15, 42,
7, 42,
42, 42,
42, 42,
25, 28,
25, 25,
19, 7,
29, 12,
42, 42,
6, 32,
42, 42,
33, 20,
42, 14,
20, 20,
4, 5,
20, 70,
27, 25,
5, 27,
25, 12,
25, 12,
13, 32,
13, 66,
33, 40,
35, 41,
68, 69,
56, 57,
29, 12,
22, 12,
13, 23,
14, 5,
25, 12,
27, 12,
13, 23,
13, 23,
23, 12,
23, 12,
25, 25,
25, 3,
50, 51,
4, 4,
3, 15,
15, 6,
42, 13,
20, 21,
25, 19,
25, 30,
20, 20,
31, 29,
7, 13,
19, 21,
30, 31,
23, 25,
22, 12,
25, 12,
13, 23,
14, 4,
25, 25,
5, 27,
30, 31,
25, 25,
22, 25,
25, 25,
25, 12,
3, 15,
25, 25,
4, 4,
48, 25,
4, 4,
12, 42,
15, 42</data>
	</layer>
</map>
