<?xml version="1.0" ?>
<map height="32" orientation="orthogonal" renderorder="right-down" tileheight="16" tilewidth="16" width="2">
	<!--Add tilesets as much as needed-->
	<tileset firstgid="1" tileheight="16" tilewidth="16">
		<image source="../metatiles/Metatiles_001_5219.tmx"/>
	</tileset>
	<layer height="32" id="1" name="blocks" width="2">
		<data encoding="csv">
42, 42,
42, 42,
42, 42,
22, 6,
42, 42,
22, 3,
42, 42,
50, 9,
42, 42,
1, 1,
30, 14,
45, 45,
30, 52,
45, 45,
53, 23,
45, 45,
13, 21,
45, 29,
46, 43,
46, 47,
44, 46,
48, 46,
45, 45,
45, 45,
45, 45,
10, 11,
45, 45,
23, 45,
57, 58,
45, 45,
37, 38,
42, 42</data>
	</layer>
</map>
