<?xml version="1.0" ?>
<map height="270" orientation="orthogonal" renderorder="right-down" tileheight="16" tilewidth="16" width="2">
	<!--Add tilesets as much as needed-->
	<tileset firstgid="1" tileheight="16" tilewidth="16">
		<image source="../metatiles/Metatiles_06a_5bd3.tmx"/>
	</tileset>
	<layer height="270" id="1" name="blocks" width="2">
		<data encoding="csv">
3, 17,
10, 9,
4, 5,
16, 10,
10, 6,
1, 12,
1, 11,
10, 1,
10, 3,
1, 3,
1, 15,
1, 24,
21, 19,
7, 13,
16, 18,
13, 19,
1, 17,
19, 19,
9, 19,
13, 13,
11, 25,
10, 28,
14, 23,
7, 16,
23, 15,
3, 23,
13, 22,
23, 23,
23, 23,
6, 1,
1, 31,
10, 17,
7, 8,
15, 8,
10, 1,
1, 6,
1, 3,
1, 1,
12, 10,
18, 10,
10, 3,
1, 10,
23, 7,
1, 7,
16, 12,
8, 18,
3, 1,
1, 10,
1, 3,
4, 5,
1, 1,
9, 19,
4, 5,
16, 11,
1, 6,
1, 12,
10, 17,
3, 10,
19, 19,
13, 22,
13, 13,
24, 23,
13, 19,
23, 15,
1, 10,
16, 3,
23, 23,
11, 1,
25, 1,
28, 10,
1, 23,
1, 17,
23, 7,
6, 7,
8, 1,
8, 1,
1, 1,
10, 1,
38, 10,
1, 17,
12, 7,
9, 8,
22, 10,
23, 1,
17, 10,
10, 1,
1, 1,
3, 1,
1, 18,
1, 11,
7, 8,
7, 8,
6, 3,
12, 10,
11, 6,
10, 12,
3, 7,
9, 8,
22, 1,
23, 1,
10, 3,
11, 10,
1, 18,
6, 9,
7, 22,
8, 23,
10, 1,
1, 10,
1, 1,
1, 6,
3, 6,
1, 12,
12, 7,
18, 7,
8, 6,
8, 12,
17, 4,
1, 1,
5, 12,
11, 18,
1, 18,
9, 19,
10, 15,
10, 23,
8, 18,
7, 16,
1, 10,
1, 3,
1, 9,
6, 7,
21, 2,
2, 21,
3, 17,
10, 3,
12, 15,
18, 23,
21, 2,
15, 21,
1, 1,
1, 1,
1, 17,
1, 1,
15, 8,
23, 7,
3, 6,
16, 12,
10, 17,
1, 6,
3, 1,
1, 6,
1, 7,
10, 7,
8, 18,
22, 11,
10, 12,
16, 18,
3, 12,
1, 18,
9, 8,
7, 22,
23, 3,
1, 10,
21, 16,
2, 8,
1, 3,
6, 1,
1, 9,
1, 7,
8, 23,
8, 6,
17, 1,
1, 1,
21, 22,
22, 23,
12, 1,
18, 1,
1, 7,
17, 7,
8, 12,
8, 18,
10, 3,
4, 5,
10, 3,
10, 1,
15, 8,
24, 7,
1, 1,
16, 1,
6, 7,
12, 7,
25, 15,
28, 23,
8, 17,
7, 16,
6, 1,
12, 4,
18, 7,
5, 15,
11, 1,
1, 3,
31, 1,
1, 6,
18, 3,
16, 1,
1, 23,
10, 17,
3, 10,
10, 17,
1, 12,
10, 18,
10, 15,
3, 23,
21, 16,
15, 13,
3, 10,
19, 19,
1, 3,
17, 1,
1, 10,
1, 1,
1, 1,
1, 11,
23, 24,
1, 25,
15, 13,
23, 23,
10, 11,
3, 10,
1, 1,
1, 17,
6, 15,
12, 23,
8, 10,
7, 16,
17, 1,
6, 1,
1, 6,
16, 12,
4, 5,
10, 1,
18, 3,
1, 9,
12, 1,
18, 3,
8, 18,
8, 10,
1, 1,
1, 9,
9, 21,
21, 22,
22, 6,
23, 12,
11, 1,
3, 1,
21, 19,
21, 13,
19, 21,
13, 22,
22, 23,
23, 6,
3, 18,
1, 10,
1, 1,
1, 3,
22, 23,
23, 10,
23, 23,
3, 1,
11, 12,
10, 18</data>
	</layer>
</map>
