<?xml version="1.0" ?>
<map height="124" orientation="orthogonal" renderorder="right-down" tileheight="16" tilewidth="16" width="2">
	<!--Add tilesets as much as needed-->
	<tileset firstgid="1" tileheight="16" tilewidth="16">
		<image source="../metatiles/Metatiles_053_4698.tmx"/>
	</tileset>
	<layer height="124" id="1" name="blocks" width="2">
		<data encoding="csv">
51, 51,
51, 51,
9, 38,
9, 38,
40, 11,
40, 11,
51, 3,
51, 9,
27, 38,
35, 37,
40, 19,
40, 25,
20, 51,
26, 5,
52, 27,
36, 35,
38, 40,
37, 40,
40, 30,
40, 44,
31, 11,
41, 19,
51, 9,
51, 9,
38, 40,
38, 40,
40, 40,
40, 40,
44, 25,
40, 30,
38, 40,
78, 39,
40, 44,
40, 40,
9, 36,
9, 33,
36, 36,
39, 40,
25, 26,
30, 31,
5, 51,
12, 5,
9, 38,
15, 16,
40, 40,
22, 39,
44, 41,
40, 44,
34, 11,
41, 11,
51, 51,
20, 5,
15, 16,
51, 51,
22, 39,
9, 38,
42, 12,
42, 34,
52, 5,
36, 11,
26, 11,
31, 11,
9, 38,
15, 22,
44, 43,
39, 40,
41, 11,
42, 11,
41, 11,
79, 11,
51, 51,
51, 3,
51, 15,
19, 20,
22, 39,
27, 38,
42, 11,
44, 11,
51, 9,
51, 15,
38, 40,
16, 22,
40, 40,
39, 40,
40, 40,
40, 21,
51, 15,
51, 51,
16, 22,
51, 9,
39, 40,
38, 40,
50, 68,
34, 13,
16, 16,
51, 51,
22, 39,
15, 22,
44, 11,
16, 17,
35, 37,
38, 40,
8, 5,
14, 11,
69, 43,
38, 40,
40, 40,
21, 16,
40, 11,
16, 17,
41, 12,
40, 67,
56, 27,
58, 63,
11, 51,
11, 51,
40, 44,
39, 40,
17, 51,
51, 51,
38, 40,
1, 39,
41, 11,
1, 11</data>
	</layer>
</map>
