<?xml version="1.0" ?>
<map height="38" orientation="orthogonal" renderorder="right-down" tileheight="16" tilewidth="16" width="2">
	<!--Add tilesets as much as needed-->
	<tileset firstgid="1" tileheight="16" tilewidth="16">
		<image source="../metatiles/Metatiles_001_4f0a.tmx"/>
	</tileset>
	<layer height="38" id="1" name="blocks" width="2">
		<data encoding="csv">
23, 23,
23, 10,
23, 23,
13, 25,
23, 23,
12, 2,
23, 23,
19, 25,
23, 23,
11, 13,
23, 23,
5, 23,
23, 26,
23, 3,
24, 27,
3, 3,
24, 24,
3, 3,
8, 27,
18, 3,
15, 23,
3, 23,
23, 9,
23, 24,
24, 24,
24, 24,
9, 23,
24, 23,
23, 6,
23, 16,
7, 23,
17, 23,
23, 23,
23, 23,
23, 21,
23, 23,
22, 23,
23, 23</data>
	</layer>
</map>
