<?xml version="1.0" ?>
<map height="48" orientation="orthogonal" renderorder="right-down" tileheight="16" tilewidth="16" width="2">
	<!--Add tilesets as much as needed-->
	<tileset firstgid="1" tileheight="16" tilewidth="16">
		<image source="../metatiles/Metatiles_001_5219.tmx"/>
	</tileset>
	<layer height="48" id="1" name="blocks" width="2">
		<data encoding="csv">
42, 42,
42, 9,
42, 42,
1, 50,
42, 42,
3, 1,
42, 42,
51, 9,
42, 42,
1, 6,
42, 42,
22, 42,
42, 10,
42, 57,
11, 53,
58, 45,
52, 5,
45, 45,
54, 15,
45, 45,
16, 14,
45, 45,
30, 42,
49, 42,
42, 45,
42, 45,
45, 45,
24, 45,
45, 45,
45, 45,
46, 43,
46, 47,
44, 46,
48, 46,
45, 42,
45, 42,
42, 45,
42, 23,
45, 45,
23, 45,
45, 42,
23, 42,
42, 42,
42, 42,
42, 37,
42, 42,
38, 42,
42, 42</data>
	</layer>
</map>
