<?xml version="1.0" ?>
<map height="52" orientation="orthogonal" renderorder="right-down" tileheight="16" tilewidth="16" width="2">
	<!--Add tilesets as much as needed-->
	<tileset firstgid="1" tileheight="16" tilewidth="16">
		<image source="../metatiles/Metatiles_06a_7be9.tmx"/>
	</tileset>
	<layer height="52" id="1" name="blocks" width="2">
		<data encoding="csv">
31, 31,
16, 10,
36, 27,
39, 31,
28, 37,
31, 32,
37, 27,
31, 31,
28, 38,
31, 40,
31, 31,
11, 15,
20, 14,
17, 18,
11, 25,
12, 33,
26, 22,
34, 30,
10, 25,
11, 33,
26, 10,
34, 13,
14, 19,
18, 12,
15, 16,
19, 1,
5, 3,
2, 5,
3, 3,
3, 3,
3, 15,
17, 19,
14, 6,
18, 12,
3, 3,
5, 3,
3, 11,
3, 1,
13, 14,
2, 18,
16, 14,
20, 18,
6, 11,
15, 16,
3, 3,
17, 5,
3, 3,
3, 13,
3, 3,
15, 16,
15, 16,
19, 20</data>
	</layer>
</map>
