<?xml version="1.0" ?>
<map height="50" orientation="orthogonal" renderorder="right-down" tileheight="16" tilewidth="16" width="2">
	<!--Add tilesets as much as needed-->
	<tileset firstgid="1" tileheight="16" tilewidth="16">
		<image source="../metatiles/Metatiles_050_6c67.tmx"/>
	</tileset>
	<layer height="50" id="1" name="blocks" width="2">
		<data encoding="csv">
35, 35,
35, 5,
35, 35,
19, 16,
35, 35,
9, 48,
35, 35,
49, 50,
35, 35,
16, 15,
35, 35,
5, 35,
35, 12,
35, 29,
26, 22,
17, 22,
45, 46,
22, 22,
46, 46,
22, 22,
47, 22,
22, 22,
12, 44,
51, 22,
35, 36,
35, 45,
22, 22,
46, 47,
22, 22,
22, 22,
17, 35,
52, 35,
35, 22,
35, 45,
33, 2,
40, 22,
53, 35,
54, 35,
35, 22,
35, 35,
17, 22,
35, 35,
22, 24,
35, 22,
25, 22,
22, 35,
22, 22,
35, 35,
3, 35,
35, 35</data>
	</layer>
</map>
