<?xml version="1.0" ?>
<map height="50" orientation="orthogonal" renderorder="right-down" tileheight="16" tilewidth="16" width="2">
	<!--Add tilesets as much as needed-->
	<tileset firstgid="1" tileheight="16" tilewidth="16">
		<image source="../metatiles/Metatiles_017_4441.tmx"/>
	</tileset>
	<layer height="50" id="1" name="blocks" width="2">
		<data encoding="csv">
31, 31,
31, 31,
31, 16,
12, 19,
18, 18,
24, 2,
18, 15,
20, 17,
31, 31,
11, 31,
31, 31,
31, 12,
16, 23,
19, 24,
21, 21,
22, 5,
22, 30,
21, 28,
15, 31,
17, 11,
31, 12,
31, 12,
26, 26,
31, 31,
26, 11,
31, 11,
31, 12,
31, 31,
23, 27,
8, 22,
30, 5,
21, 21,
27, 27,
22, 30,
27, 11,
6, 31,
12, 23,
31, 7,
22, 21,
8, 21,
21, 29,
6, 7,
11, 31,
31, 31,
18, 18,
24, 1,
26, 5,
31, 31,
26, 5,
31, 5</data>
	</layer>
</map>
