<?xml version="1.0" ?>
<map height="126" orientation="orthogonal" renderorder="right-down" tileheight="16" tilewidth="16" width="2">
	<!--Add tilesets as much as needed-->
	<tileset firstgid="1" tileheight="16" tilewidth="16">
		<image source="../metatiles/Metatiles_050_687d.tmx"/>
	</tileset>
	<layer height="126" id="1" name="blocks" width="2">
		<data encoding="csv">
9, 17,
13, 20,
17, 17,
25, 25,
17, 17,
19, 25,
17, 17,
25, 20,
10, 12,
11, 12,
13, 21,
13, 3,
5, 5,
5, 5,
5, 43,
5, 5,
11, 12,
11, 12,
14, 7,
12, 12,
7, 7,
9, 17,
7, 7,
17, 17,
7, 8,
17, 18,
28, 5,
3, 5,
16, 17,
24, 25,
12, 12,
12, 12,
13, 20,
13, 30,
25, 25,
28, 5,
25, 23,
5, 5,
4, 5,
5, 5,
12, 12,
9, 17,
13, 3,
18, 3,
5, 5,
5, 6,
5, 5,
7, 8,
5, 5,
28, 5,
6, 7,
11, 12,
13, 20,
13, 3,
23, 4,
5, 5,
5, 11,
5, 11,
12, 13,
12, 13,
3, 5,
3, 5,
12, 12,
17, 17,
9, 17,
18, 25,
17, 17,
37, 37,
17, 10,
20, 11,
40, 40,
5, 2,
30, 11,
47, 11,
18, 3,
23, 4,
5, 5,
8, 28,
13, 43,
14, 7,
28, 5,
7, 7,
22, 11,
7, 15,
7, 7,
12, 12,
7, 15,
12, 12,
13, 3,
13, 3,
5, 11,
7, 15,
3, 5,
30, 28,
5, 16,
5, 24,
17, 29,
20, 11,
7, 8,
12, 13,
27, 11,
5, 11,
12, 14,
12, 12,
8, 28,
13, 72,
5, 5,
26, 28,
26, 11,
73, 11,
30, 16,
5, 24,
27, 27,
5, 26,
3, 5,
44, 28,
5, 5,
5, 22,
15, 12,
12, 12,
40, 40,
5, 1,
8, 28,
13, 1,
26, 11,
1, 11</data>
	</layer>
</map>
