<?xml version="1.0" ?>
<map height="148" orientation="orthogonal" renderorder="right-down" tileheight="16" tilewidth="16" width="2">
	<!--Add tilesets as much as needed-->
	<tileset firstgid="1" tileheight="16" tilewidth="16">
		<image source="../metatiles/Metatiles_064_6166.tmx"/>
	</tileset>
	<layer height="148" id="1" name="blocks" width="2">
		<data encoding="csv">
20, 14,
34, 6,
12, 10,
16, 9,
11, 12,
9, 9,
5, 13,
10, 11,
13, 13,
12, 15,
14, 11,
14, 16,
17, 9,
9, 3,
9, 9,
13, 13,
9, 9,
13, 4,
9, 9,
18, 9,
9, 21,
9, 9,
14, 16,
14, 16,
3, 37,
14, 20,
20, 20,
20, 20,
20, 36,
20, 20,
13, 4,
20, 36,
18, 9,
13, 13,
5, 13,
10, 12,
13, 13,
10, 15,
35, 20,
14, 20,
14, 16,
36, 4,
14, 20,
14, 20,
35, 34,
5, 6,
13, 13,
12, 10,
6, 15,
11, 21,
10, 11,
26, 27,
12, 11,
28, 29,
12, 11,
9, 9,
17, 9,
9, 9,
9, 9,
9, 9,
9, 9,
13, 39,
9, 3,
13, 6,
38, 18,
11, 17,
9, 3,
9, 14,
37, 20,
20, 20,
34, 6,
14, 11,
10, 12,
17, 9,
20, 20,
34, 13,
14, 16,
6, 16,
3, 13,
14, 20,
13, 4,
20, 14,
18, 9,
16, 9,
5, 13,
10, 10,
13, 13,
11, 10,
13, 35,
15, 14,
20, 14,
20, 14,
16, 9,
16, 9,
21, 14,
9, 14,
34, 13,
14, 12,
13, 40,
11, 10,
39, 13,
14, 34,
39, 38,
6, 11,
18, 14,
17, 14,
5, 6,
10, 11,
12, 17,
17, 9,
9, 14,
9, 14,
36, 4,
20, 14,
9, 9,
9, 3,
3, 37,
37, 20,
14, 15,
14, 21,
14, 20,
41, 13,
20, 20,
13, 13,
20, 20,
13, 35,
9, 9,
9, 43,
3, 42,
44, 20,
12, 10,
17, 7,
11, 14,
18, 14,
9, 10,
9, 9,
5, 45,
12, 5,
14, 16,
40, 38,
9, 14,
3, 37,
13, 13,
20, 20,
4, 18,
36, 13,
14, 20,
37, 20</data>
	</layer>
</map>
