<?xml version="1.0" ?>
<map height="140" orientation="orthogonal" renderorder="right-down" tileheight="16" tilewidth="16" width="2">
	<!--Add tilesets as much as needed-->
	<tileset firstgid="1" tileheight="16" tilewidth="16">
		<image source="../metatiles/Metatiles_06a_5020.tmx"/>
	</tileset>
	<layer height="140" id="1" name="blocks" width="2">
		<data encoding="csv">
6, 20,
13, 30,
20, 20,
31, 29,
7, 42,
12, 42,
42, 6,
42, 13,
20, 20,
30, 31,
13, 23,
13, 23,
52, 27,
25, 25,
12, 42,
19, 7,
42, 13,
6, 21,
2, 27,
23, 25,
14, 5,
42, 13,
27, 25,
23, 25,
28, 19,
25, 30,
21, 28,
31, 22,
22, 25,
25, 25,
42, 14,
42, 42,
5, 27,
14, 5,
25, 25,
27, 25,
25, 25,
25, 25,
25, 25,
25, 3,
42, 42,
42, 42,
4, 5,
42, 13,
3, 57,
19, 21,
58, 21,
16, 28,
29, 30,
22, 25,
36, 37,
38, 39,
29, 40,
44, 41,
12, 42,
12, 42,
16, 23,
16, 23,
48, 45,
25, 49,
16, 46,
17, 4,
25, 25,
5, 27,
25, 8,
25, 28,
9, 9,
30, 31,
59, 42,
12, 42,
12, 42,
15, 42,
14, 5,
42, 14,
27, 25,
5, 27,
19, 7,
25, 12,
20, 20,
29, 28,
7, 42,
19, 20,
14, 4,
20, 7,
5, 27,
13, 23,
25, 12,
25, 12,
6, 60,
13, 29,
61, 27,
31, 22,
30, 31,
25, 25,
6, 20,
13, 50,
21, 23,
29, 22,
25, 3,
4, 15,
13, 55,
13, 23,
45, 25,
49, 25,
25, 12,
4, 15,
47, 12,
43, 12,
13, 46,
14, 4,
25, 25,
4, 4,
48, 12,
4, 15,
28, 30,
25, 25,
31, 19,
25, 28,
5, 27,
14, 4,
8, 59,
28, 12,
14, 5,
42, 62,
27, 25,
61, 27,
20, 21,
30, 31,
28, 22,
22, 25,
42, 13,
42, 13,
23, 25,
23, 25,
25, 25,
3, 4,
3, 15,
15, 42,
1, 27,
23, 25</data>
	</layer>
</map>
