<?xml version="1.0" ?>
<map height="146" orientation="orthogonal" renderorder="right-down" tileheight="16" tilewidth="16" width="2">
	<!--Add tilesets as much as needed-->
	<tileset firstgid="1" tileheight="16" tilewidth="16">
		<image source="../metatiles/Metatiles_057_5738.tmx"/>
	</tileset>
	<layer height="146" id="1" name="blocks" width="2">
		<data encoding="csv">
3, 24,
17, 35,
39, 49,
45, 38,
15, 52,
22, 4,
52, 52,
52, 52,
17, 39,
17, 39,
38, 45,
38, 38,
35, 22,
49, 35,
4, 52,
15, 3,
52, 52,
23, 23,
5, 9,
52, 3,
9, 10,
23, 21,
42, 49,
26, 42,
22, 24,
35, 35,
35, 35,
50, 38,
52, 17,
52, 17,
35, 35,
39, 38,
35, 40,
38, 38,
38, 45,
51, 46,
38, 38,
8, 9,
52, 17,
3, 24,
39, 45,
39, 8,
51, 8,
9, 6,
9, 9,
52, 52,
6, 52,
52, 52,
52, 3,
52, 17,
23, 23,
35, 35,
4, 52,
22, 4,
52, 17,
23, 24,
39, 38,
39, 38,
45, 38,
38, 46,
35, 22,
38, 35,
4, 52,
15, 52,
35, 35,
38, 45,
40, 45,
38, 51,
55, 26,
18, 35,
46, 38,
46, 45,
15, 52,
15, 52,
38, 38,
9, 9,
51, 55,
9, 25,
56, 39,
35, 57,
51, 46,
46, 8,
15, 52,
6, 52,
39, 45,
40, 38,
8, 6,
15, 52,
17, 35,
17, 39,
40, 22,
38, 35,
23, 4,
35, 15,
17, 39,
5, 10,
38, 38,
42, 38,
49, 22,
45, 35,
52, 17,
52, 5,
39, 38,
10, 66,
38, 51,
51, 46,
46, 15,
67, 15,
5, 9,
52, 52,
9, 6,
52, 52,
24, 39,
35, 40,
45, 8,
51, 22,
6, 52,
4, 52,
39, 38,
39, 45,
49, 35,
38, 49,
15, 52,
15, 3,
39, 38,
39, 46,
28, 27,
35, 35,
29, 24,
35, 35,
35, 35,
40, 45,
52, 5,
52, 52,
10, 42,
5, 9,
46, 38,
9, 10,
45, 38,
42, 51,
46, 38,
8, 9,
39, 38,
10, 1,
46, 15,
1, 15</data>
	</layer>
</map>
