<?xml version="1.0" ?>
<map height="74" orientation="orthogonal" renderorder="right-down" tileheight="16" tilewidth="16" width="2">
	<!--Add tilesets as much as needed-->
	<tileset firstgid="1" tileheight="16" tilewidth="16">
		<image source="../metatiles/Metatiles_053_5103.tmx"/>
	</tileset>
	<layer height="74" id="1" name="blocks" width="2">
		<data encoding="csv">
9, 29,
13, 31,
17, 17,
48, 32,
17, 17,
22, 22,
13, 4,
13, 4,
3, 3,
3, 3,
3, 6,
3, 11,
34, 35,
13, 36,
27, 27,
22, 37,
27, 27,
48, 32,
3, 11,
3, 11,
8, 26,
13, 4,
17, 17,
37, 48,
30, 10,
38, 11,
9, 17,
13, 37,
21, 11,
3, 11,
39, 40,
33, 11,
2, 11,
3, 11,
3, 11,
3, 42,
13, 4,
44, 27,
3, 43,
3, 3,
22, 25,
3, 3,
13, 57,
44, 27,
3, 3,
27, 27,
25, 25,
3, 3,
22, 22,
3, 3,
13, 4,
14, 7,
3, 3,
7, 7,
56, 11,
27, 45,
13, 4,
46, 4,
20, 11,
3, 11,
25, 22,
3, 3,
47, 5,
3, 3,
3, 11,
27, 45,
3, 11,
7, 15,
1, 11,
3, 11,
1, 11,
27, 45,
13, 1,
44, 27</data>
	</layer>
</map>
