<?xml version="1.0" ?>
<map height="324" orientation="orthogonal" renderorder="right-down" tileheight="16" tilewidth="16" width="2">
	<!--Add tilesets as much as needed-->
	<tileset firstgid="1" tileheight="16" tilewidth="16">
		<image source="../metatiles/Metatiles_057_40f6.tmx"/>
	</tileset>
	<layer height="324" id="1" name="blocks" width="2">
		<data encoding="csv">
6, 6,
6, 6,
6, 6,
5, 6,
5, 6,
6, 6,
6, 5,
6, 6,
6, 6,
6, 5,
6, 6,
5, 9,
5, 6,
11, 11,
6, 6,
10, 6,
6, 6,
6, 9,
7, 7,
6, 6,
7, 19,
6, 28,
22, 22,
22, 22,
25, 7,
24, 6,
7, 49,
9, 50,
6, 32,
6, 32,
23, 23,
29, 29,
30, 5,
30, 6,
15, 14,
28, 22,
6, 6,
11, 10,
6, 9,
6, 15,
11, 17,
17, 22,
11, 11,
17, 22,
10, 6,
22, 10,
5, 28,
11, 32,
22, 22,
26, 28,
22, 22,
3, 24,
22, 3,
28, 22,
22, 25,
24, 23,
14, 32,
51, 52,
26, 32,
26, 32,
23, 30,
29, 30,
32, 23,
32, 29,
30, 29,
30, 33,
53, 54,
3, 17,
55, 52,
22, 57,
33, 34,
58, 59,
52, 33,
60, 24,
34, 56,
28, 22,
5, 9,
11, 22,
11, 14,
61, 60,
10, 6,
16, 6,
7, 19,
6, 32,
22, 22,
23, 26,
3, 61,
28, 22,
62, 6,
24, 5,
63, 52,
15, 17,
33, 26,
64, 56,
32, 23,
36, 33,
30, 6,
30, 6,
17, 22,
22, 22,
3, 22,
22, 22,
16, 33,
24, 33,
29, 29,
29, 29,
30, 11,
30, 15,
32, 29,
32, 29,
5, 32,
9, 36,
29, 33,
34, 64,
34, 14,
14, 47,
52, 33,
64, 56,
15, 22,
15, 22,
22, 22,
3, 22,
2, 22,
22, 22,
23, 26,
33, 26,
15, 22,
23, 23,
24, 23,
30, 48,
28, 24,
32, 30,
5, 9,
6, 15,
64, 56,
22, 3,
33, 33,
53, 65,
34, 17,
66, 22,
52, 34,
64, 56,
28, 22,
32, 23,
3, 22,
28, 22,
22, 22,
22, 24,
16, 30,
23, 30,
32, 29,
52, 33,
33, 34,
15, 53,
52, 33,
67, 56,
22, 64,
22, 17,
33, 34,
3, 22,
68, 69,
17, 22,
70, 22,
22, 22,
17, 22,
28, 22,
22, 22,
23, 23,
22, 24,
23, 30,
52, 33,
17, 64,
32, 23,
52, 29,
29, 29,
29, 32,
29, 34,
29, 28,
28, 22,
32, 26,
24, 29,
30, 29,
30, 36,
30, 15,
33, 12,
38, 11,
6, 5,
10, 6,
32, 26,
52, 26,
30, 33,
30, 28,
71, 72,
73, 74,
39, 38,
17, 39,
16, 6,
24, 6,
22, 16,
22, 24,
30, 32,
34, 32,
23, 28,
29, 32,
22, 16,
23, 23,
30, 6,
30, 5,
23, 30,
33, 71,
15, 52,
75, 22,
33, 32,
64, 52,
29, 29,
33, 33,
30, 6,
34, 10,
3, 76,
17, 22,
17, 64,
22, 22,
56, 85,
22, 22,
22, 16,
14, 24,
6, 15,
6, 28,
22, 22,
24, 23,
22, 3,
23, 28,
5, 32,
6, 32,
23, 26,
29, 26,
30, 29,
30, 29,
29, 32,
29, 32,
29, 26,
33, 26,
30, 33,
34, 16,
29, 32,
34, 36,
15, 86,
28, 22,
64, 77,
17, 22,
56, 22,
22, 87,
17, 16,
22, 24,
15, 38,
15, 39,
24, 78,
30, 30,
22, 25,
22, 16,
7, 7,
29, 30,
7, 7,
29, 32,
29, 30,
29, 30,
29, 32,
33, 32,
33, 34,
15, 38,
79, 52,
80, 64,
33, 32,
56, 36,
52, 33,
38, 64,
33, 34,
56, 8,
38, 39,
39, 17,
22, 22,
16, 23,
39, 38,
3, 39,
38, 17,
39, 14,
22, 38,
17, 39,
22, 36,
38, 16,
19, 81,
28, 22,
3, 22,
23, 26,
22, 22,
28, 22,
16, 30,
24, 30,
30, 30,
30, 30,
32, 29,
33, 33,
33, 34,
15, 3,
64, 82,
22, 53,
52, 33,
83, 84,
22, 22,
28, 24,
22, 17,
22, 22,
22, 16,
24, 23,
32, 30,
32, 30,
1, 22,
22, 22,
56, 1,
22, 22,
15, 1,
28, 22,
56, 22,
22, 1</data>
	</layer>
</map>
