<?xml version="1.0" ?>
<map height="100" orientation="orthogonal" renderorder="right-down" tileheight="16" tilewidth="16" width="2">
	<!--Add tilesets as much as needed-->
	<tileset firstgid="1" tileheight="16" tilewidth="16">
		<image source="../metatiles/Metatiles_069_49ab.tmx"/>
	</tileset>
	<layer height="100" id="1" name="blocks" width="2">
		<data encoding="csv">
6, 6,
6, 37,
14, 35,
38, 39,
6, 6,
40, 4,
6, 36,
5, 6,
6, 7,
6, 39,
8, 6,
6, 6,
6, 6,
6, 41,
36, 9,
6, 15,
10, 11,
16, 17,
12, 13,
18, 19,
14, 6,
20, 6,
6, 6,
6, 6,
21, 22,
6, 6,
23, 24,
31, 32,
25, 26,
33, 34,
27, 28,
6, 29,
42, 6,
30, 6,
43, 6,
6, 41,
44, 6,
6, 46,
45, 6,
47, 48,
41, 6,
6, 6,
6, 7,
6, 6,
8, 6,
6, 50,
6, 6,
51, 6,
6, 49,
6, 6,
6, 43,
29, 30,
6, 6,
6, 29,
41, 6,
30, 6,
6, 52,
6, 6,
53, 54,
6, 6,
6, 55,
6, 6,
43, 6,
6, 6,
6, 6,
6, 57,
6, 56,
6, 6,
6, 44,
6, 6,
6, 6,
6, 58,
6, 29,
6, 6,
30, 6,
49, 6,
59, 6,
6, 6,
6, 44,
21, 60,
6, 6,
61, 53,
6, 6,
54, 6,
6, 6,
62, 6,
6, 6,
6, 7,
6, 6,
8, 6,
6, 6,
6, 62,
49, 6,
6, 6,
35, 6,
6, 6,
6, 6,
6, 52,
6, 6,
53, 54</data>
	</layer>
</map>
