<?xml version="1.0" ?>
<map height="58" orientation="orthogonal" renderorder="right-down" tileheight="16" tilewidth="16" width="2">
	<!--Add tilesets as much as needed-->
	<tileset firstgid="1" tileheight="16" tilewidth="16">
		<image source="../metatiles/Metatiles_050_78f8.tmx"/>
	</tileset>
	<layer height="58" id="1" name="blocks" width="2">
		<data encoding="csv">
16, 19,
19, 16,
16, 8,
19, 8,
1, 19,
6, 16,
16, 8,
19, 16,
11, 19,
3, 11,
8, 1,
8, 11,
18, 19,
12, 16,
18, 19,
8, 11,
16, 3,
19, 8,
1, 19,
11, 22,
16, 19,
19, 22,
8, 1,
13, 6,
7, 11,
1, 3,
12, 13,
1, 2,
7, 6,
2, 16,
16, 18,
19, 16,
16, 22,
19, 16,
22, 19,
13, 11,
8, 7,
15, 2,
1, 3,
22, 16,
7, 1,
3, 11,
22, 19,
12, 18,
8, 7,
22, 3,
7, 11,
7, 7,
22, 19,
11, 13,
2, 3,
6, 16,
3, 1,
22, 16,
2, 3,
18, 16,
6, 19,
22, 16</data>
	</layer>
</map>
