<?xml version="1.0" ?>
<map height="48" orientation="orthogonal" renderorder="right-down" tileheight="16" tilewidth="16" width="2">
	<!--Add tilesets as much as needed-->
	<tileset firstgid="1" tileheight="16" tilewidth="16">
		<image source="../metatiles/Metatiles_06a_6eef.tmx"/>
	</tileset>
	<layer height="48" id="1" name="blocks" width="2">
		<data encoding="csv">
14, 44,
14, 14,
14, 14,
14, 14,
42, 14,
14, 14,
33, 14,
14, 14,
40, 14,
14, 14,
42, 14,
14, 4,
28, 28,
37, 27,
23, 28,
27, 27,
28, 23,
27, 22,
25, 10,
9, 17,
14, 14,
14, 45,
14, 11,
33, 14,
38, 3,
37, 9,
9, 9,
9, 9,
9, 16,
9, 16,
14, 14,
32, 14,
40, 14,
14, 36,
38, 9,
14, 14,
9, 9,
41, 14,
9, 16,
9, 14,
9, 9,
14, 14,
14, 14,
35, 14,
36, 14,
14, 14,
41, 14,
14, 14</data>
	</layer>
</map>
