<?xml version="1.0" ?>
<map height="132" orientation="orthogonal" renderorder="right-down" tileheight="16" tilewidth="16" width="2">
	<!--Add tilesets as much as needed-->
	<tileset firstgid="1" tileheight="16" tilewidth="16">
		<image source="../metatiles/Metatiles_017_4441.tmx"/>
	</tileset>
	<layer height="132" id="1" name="blocks" width="2">
		<data encoding="csv">
13, 13,
18, 18,
31, 31,
11, 31,
31, 12,
31, 12,
21, 22,
21, 21,
21, 21,
21, 21,
29, 28,
21, 30,
11, 31,
11, 31,
31, 12,
31, 31,
7, 7,
31, 31,
8, 22,
12, 23,
21, 21,
21, 22,
15, 13,
17, 18,
31, 31,
31, 31,
12, 23,
31, 8,
22, 21,
21, 21,
30, 25,
21, 21,
23, 21,
23, 21,
17, 15,
22, 17,
31, 31,
15, 13,
12, 23,
16, 23,
21, 11,
21, 11,
23, 21,
7, 8,
17, 18,
21, 22,
19, 24,
25, 21,
22, 11,
6, 31,
13, 31,
18, 11,
8, 29,
31, 8,
21, 21,
30, 21,
15, 31,
17, 11,
28, 11,
21, 11,
7, 8,
31, 12,
21, 5,
26, 5,
21, 11,
26, 11,
31, 31,
31, 13,
7, 7,
13, 13,
7, 7,
13, 31,
8, 21,
12, 23,
16, 18,
19, 24,
41, 18,
21, 25,
18, 11,
28, 11,
12, 23,
12, 23,
21, 21,
22, 21,
32, 11,
28, 11,
12, 23,
31, 7,
8, 28,
31, 7,
28, 29,
7, 7,
30, 11,
7, 31,
21, 15,
21, 17,
13, 13,
18, 14,
13, 16,
18, 19,
31, 31,
24, 5,
31, 11,
27, 11,
21, 28,
21, 21,
30, 11,
28, 11,
29, 21,
8, 22,
21, 21,
21, 30,
10, 9,
17, 18,
9, 7,
18, 11,
7, 31,
31, 31,
21, 21,
7, 7,
22, 21,
7, 7,
33, 11,
7, 31,
1, 11,
28, 11,
1, 11,
7, 31,
42, 18,
21, 25,
31, 5,
24, 5</data>
	</layer>
</map>
