<?xml version="1.0" ?>
<map height="184" orientation="orthogonal" renderorder="right-down" tileheight="16" tilewidth="16" width="2">
	<!--Add tilesets as much as needed-->
	<tileset firstgid="1" tileheight="16" tilewidth="16">
		<image source="../metatiles/Metatiles_017_4441.tmx"/>
	</tileset>
	<layer height="184" id="1" name="blocks" width="2">
		<data encoding="csv">
31, 16,
12, 19,
18, 18,
28, 35,
18, 15,
28, 17,
31, 31,
11, 12,
13, 13,
18, 18,
16, 47,
19, 24,
12, 23,
12, 26,
5, 21,
26, 26,
21, 29,
26, 26,
11, 12,
11, 12,
23, 21,
23, 21,
21, 21,
22, 21,
12, 23,
12, 23,
5, 27,
21, 22,
27, 27,
30, 10,
11, 16,
16, 19,
23, 22,
24, 21,
6, 7,
11, 31,
31, 7,
31, 31,
8, 21,
12, 23,
21, 17,
22, 22,
19, 24,
21, 21,
21, 25,
30, 6,
11, 31,
31, 31,
31, 31,
31, 13,
31, 7,
13, 13,
7, 7,
13, 13,
7, 7,
13, 16,
9, 13,
18, 18,
15, 13,
17, 18,
31, 31,
11, 31,
12, 18,
12, 23,
18, 11,
36, 11,
21, 21,
21, 22,
21, 25,
21, 21,
22, 30,
21, 22,
16, 23,
19, 24,
21, 11,
22, 11,
8, 29,
31, 7,
22, 21,
7, 7,
21, 21,
8, 22,
22, 21,
21, 21,
21, 21,
21, 21,
21, 11,
21, 11,
31, 31,
31, 31,
7, 8,
31, 16,
21, 5,
26, 26,
22, 11,
26, 11,
16, 19,
19, 24,
24, 5,
21, 21,
27, 11,
21, 11,
18, 18,
21, 29,
18, 18,
21, 22,
18, 19,
21, 21,
24, 21,
21, 22,
21, 22,
21, 21,
12, 23,
31, 8,
21, 21,
22, 6,
21, 21,
7, 8,
22, 6,
22, 11,
7, 7,
31, 13,
23, 15,
24, 17,
13, 16,
45, 19,
23, 6,
24, 11,
7, 31,
31, 31,
12, 23,
12, 37,
21, 21,
20, 21,
21, 21,
21, 25,
22, 11,
30, 11,
12, 38,
12, 23,
7, 7,
31, 31,
21, 22,
21, 6,
21, 11,
7, 31,
8, 22,
12, 23,
21, 15,
21, 17,
18, 18,
30, 28,
11, 31,
11, 31,
21, 28,
21, 21,
15, 31,
17, 11,
20, 21,
22, 21,
21, 21,
30, 21,
7, 8,
31, 12,
21, 21,
23, 21,
8, 21,
12, 21,
18, 18,
28, 1,
18, 11,
1, 11,
12, 23,
12, 1,
12, 1,
12, 23,
13, 16,
46, 19,
16, 48,
19, 24,
21, 5,
26, 5,
5, 21,
5, 26</data>
	</layer>
</map>
