<?xml version="1.0" ?>
<map height="344" orientation="orthogonal" renderorder="right-down" tileheight="16" tilewidth="16" width="2">
	<!--Add tilesets as much as needed-->
	<tileset firstgid="1" tileheight="16" tilewidth="16">
		<image source="../metatiles/Metatiles_06a_4484.tmx"/>
	</tileset>
	<layer height="344" id="1" name="blocks" width="2">
		<data encoding="csv">
6, 6,
6, 5,
6, 6,
6, 6,
6, 5,
6, 6,
5, 6,
6, 6,
6, 6,
6, 9,
4, 9,
11, 45,
11, 11,
3, 22,
11, 11,
22, 3,
6, 15,
6, 15,
45, 3,
45, 3,
22, 17,
22, 22,
22, 22,
22, 17,
6, 28,
5, 32,
3, 45,
15, 3,
3, 22,
17, 22,
22, 3,
3, 44,
6, 32,
9, 32,
23, 28,
29, 32,
3, 24,
26, 30,
23, 23,
29, 29,
4, 6,
6, 6,
10, 6,
44, 11,
6, 6,
11, 10,
6, 6,
5, 6,
9, 11,
15, 3,
3, 44,
3, 44,
17, 16,
3, 16,
6, 6,
6, 4,
15, 22,
15, 22,
44, 3,
24, 23,
22, 24,
23, 30,
28, 3,
32, 26,
30, 29,
30, 29,
29, 30,
29, 30,
6, 6,
10, 6,
9, 14,
15, 17,
32, 26,
36, 26,
5, 6,
9, 11,
6, 6,
11, 11,
6, 6,
10, 5,
6, 4,
6, 6,
40, 41,
42, 43,
3, 22,
22, 22,
22, 3,
3, 22,
44, 11,
22, 17,
11, 10,
3, 25,
6, 4,
7, 7,
22, 17,
17, 22,
22, 22,
22, 22,
17, 14,
3, 17,
22, 16,
44, 24,
28, 3,
32, 23,
45, 24,
23, 30,
23, 30,
29, 30,
6, 5,
10, 6,
29, 30,
33, 34,
32, 29,
36, 33,
33, 34,
17, 17,
16, 6,
16, 6,
6, 5,
4, 6,
15, 36,
15, 17,
33, 29,
17, 29,
26, 30,
26, 30,
29, 29,
33, 33,
6, 9,
6, 15,
3, 22,
22, 17,
17, 36,
22, 17,
26, 34,
22, 3,
17, 17,
22, 17,
5, 15,
6, 28,
3, 22,
22, 3,
45, 3,
3, 22,
22, 22,
24, 23,
3, 22,
28, 44,
6, 32,
6, 32,
47, 23,
48, 29,
30, 29,
30, 33,
32, 23,
32, 29,
9, 36,
15, 3,
26, 33,
22, 17,
33, 33,
22, 3,
34, 17,
22, 17,
36, 33,
14, 14,
30, 33,
34, 17,
33, 34,
3, 17,
16, 6,
16, 5,
15, 22,
28, 22,
17, 3,
22, 22,
17, 22,
22, 3,
16, 28,
24, 32,
24, 6,
30, 11,
44, 16,
22, 24,
30, 32,
30, 32,
34, 14,
15, 3,
36, 33,
44, 3,
33, 32,
17, 36,
23, 30,
33, 30,
34, 36,
17, 16,
15, 45,
28, 22,
3, 17,
3, 22,
17, 14,
17, 22,
33, 34,
17, 3,
3, 16,
44, 16,
22, 3,
23, 23,
17, 22,
3, 22,
17, 3,
22, 24,
17, 3,
23, 23,
24, 6,
30, 5,
24, 26,
30, 26,
30, 6,
34, 10,
30, 26,
34, 22,
33, 34,
3, 22,
14, 17,
17, 22,
22, 16,
17, 16,
22, 3,
22, 22,
22, 3,
17, 22,
22, 16,
3, 24,
22, 22,
28, 22,
22, 17,
3, 24,
24, 23,
30, 29,
15, 3,
28, 45,
17, 22,
3, 17,
3, 17,
22, 3,
28, 45,
32, 23,
3, 22,
23, 23,
24, 28,
30, 32,
22, 24,
26, 30,
32, 29,
32, 29,
29, 29,
29, 29,
38, 17,
39, 14,
36, 33,
17, 22,
33, 33,
3, 17,
34, 36,
38, 17,
26, 34,
22, 22,
17, 38,
38, 39,
38, 14,
39, 38,
39, 14,
14, 17,
17, 38,
14, 39,
3, 16,
22, 16,
36, 33,
14, 17,
33, 32,
52, 36,
28, 22,
29, 23,
38, 38,
39, 39,
22, 17,
17, 38,
14, 22,
22, 14,
3, 22,
22, 14,
38, 39,
39, 17,
36, 33,
3, 44,
3, 17,
38, 17,
17, 22,
17, 3,
3, 22,
38, 38,
22, 22,
17, 14,
17, 38,
17, 39,
39, 38,
17, 39,
14, 22,
17, 14,
26, 34,
22, 38,
36, 33,
17, 14,
33, 34,
38, 22,
14, 3,
17, 22,
17, 39,
14, 17,
39, 17,
17, 3,
22, 22,
22, 38,
3, 38,
22, 39,
17, 14,
22, 22,
3, 53,
22, 14,
14, 22,
17, 3,
3, 39,
38, 17,
22, 22,
38, 14,
39, 22,
38, 14,
38, 14,
39, 3,
33, 32,
1, 36,
3, 1,
22, 14</data>
	</layer>
</map>
