<?xml version="1.0" ?>
<map height="342" orientation="orthogonal" renderorder="right-down" tileheight="16" tilewidth="16" width="2">
	<!--Add tilesets as much as needed-->
	<tileset firstgid="1" tileheight="16" tilewidth="16">
		<image source="../metatiles/Metatiles_050_4824.tmx"/>
	</tileset>
	<layer height="342" id="1" name="blocks" width="2">
		<data encoding="csv">
11, 12,
34, 33,
33, 11,
34, 31,
12, 11,
29, 29,
12, 34,
29, 29,
33, 11,
32, 34,
5, 6,
11, 12,
24, 43,
34, 17,
9, 7,
17, 17,
9, 44,
18, 8,
44, 22,
9, 28,
33, 34,
29, 30,
31, 29,
26, 26,
29, 32,
26, 26,
34, 18,
28, 30,
21, 44,
9, 37,
26, 27,
34, 23,
5, 6,
11, 3,
33, 23,
6, 34,
25, 26,
31, 30,
42, 26,
14, 22,
33, 11,
31, 29,
12, 24,
29, 30,
21, 19,
9, 44,
14, 22,
13, 22,
34, 24,
33, 24,
7, 9,
43, 14,
19, 20,
9, 44,
14, 9,
19, 21,
37, 33,
19, 28,
12, 11,
33, 31,
11, 12,
32, 34,
33, 11,
5, 6,
12, 30,
24, 2,
24, 7,
30, 13,
8, 8,
14, 20,
43, 28,
20, 9,
11, 5,
22, 11,
6, 19,
12, 17,
7, 20,
39, 17,
21, 16,
17, 34,
18, 15,
24, 35,
22, 34,
22, 31,
33, 23,
29, 29,
26, 28,
34, 25,
29, 29,
26, 26,
30, 15,
26, 42,
38, 26,
27, 5,
26, 26,
6, 34,
33, 23,
5, 6,
34, 31,
24, 7,
30, 15,
8, 21,
22, 11,
22, 34,
12, 33,
31, 30,
24, 13,
30, 13,
15, 16,
15, 28,
33, 24,
29, 30,
7, 8,
15, 16,
14, 28,
14, 9,
11, 12,
22, 33,
34, 30,
24, 7,
13, 15,
14, 21,
22, 5,
22, 11,
20, 15,
18, 19,
28, 29,
20, 8,
30, 13,
8, 35,
15, 16,
21, 5,
5, 6,
4, 12,
33, 17,
29, 32,
18, 13,
24, 13,
15, 16,
43, 22,
17, 11,
5, 6,
12, 33,
5, 6,
26, 26,
33, 30,
38, 21,
26, 42,
37, 32,
26, 26,
11, 12,
28, 29,
11, 12,
29, 29,
30, 7,
7, 20,
8, 8,
21, 16,
16, 18,
34, 33,
25, 26,
31, 32,
26, 26,
34, 33,
17, 33,
31, 29,
34, 30,
30, 7,
7, 9,
20, 46,
34, 30,
24, 14,
43, 14,
20, 47,
16, 17,
22, 5,
18, 7,
6, 18,
8, 9,
14, 15,
24, 35,
30, 15,
16, 17,
22, 34,
5, 4,
11, 12,
12, 24,
33, 30,
14, 15,
21, 37,
26, 42,
24, 15,
26, 28,
22, 25,
30, 26,
27, 7,
42, 26,
9, 22,
24, 15,
24, 14,
28, 33,
9, 22,
23, 34,
34, 31,
15, 28,
14, 8,
24, 19,
33, 18,
14, 28,
19, 20,
30, 7,
20, 20,
8, 20,
21, 16,
20, 20,
17, 18,
17, 17,
5, 6,
17, 17,
33, 5,
17, 5,
6, 11,
6, 34,
3, 6,
22, 24,
22, 24,
7, 14,
19, 20,
14, 8,
20, 14,
8, 8,
14, 15,
21, 22,
16, 33,
22, 34,
32, 23,
17, 17,
34, 33,
18, 19,
34, 17,
20, 21,
17, 17,
22, 24,
34, 24,
33, 23,
28, 29,
34, 34,
29, 29,
33, 31,
30, 26,
32, 33,
9, 22,
33, 34,
34, 31,
25, 26,
29, 29,
26, 26,
29, 32,
27, 33,
34, 24,
15, 28,
19, 20,
8, 8,
21, 40,
8, 9,
43, 20,
28, 30,
20, 20,
17, 17,
6, 5,
17, 34,
6, 5,
17, 17,
6, 23,
33, 30,
30, 7,
7, 8,
20, 20,
8, 15,
20, 15,
16, 17,
28, 29,
33, 5,
32, 11,
7, 15,
19, 15,
18, 19,
33, 39,
8, 8,
18, 19,
9, 22,
48, 22,
41, 13,
26, 42,
38, 26,
27, 31,
26, 26,
29, 29,
28, 39,
25, 26,
39, 34,
26, 26,
30, 13,
7, 14,
38, 43,
35, 20,
8, 9,
20, 20,
10, 7,
8, 15,
13, 14,
20, 20,
15, 16,
21, 22,
17, 18,
34, 24,
13, 15,
13, 15,
17, 17,
33, 34,
17, 5,
5, 4,
6, 24,
12, 24,
22, 33,
22, 5,
12, 30,
24, 1,
7, 9,
20, 1,
43, 14,
20, 1,
9, 22,
1, 22,
38, 43,
14, 20,
24, 14,
30, 15,
18, 15,
24, 14,
30, 13,
8, 14</data>
	</layer>
</map>
