<?xml version="1.0" ?>
<map height="344" orientation="orthogonal" renderorder="right-down" tileheight="16" tilewidth="16" width="2">
	<!--Add tilesets as much as needed-->
	<tileset firstgid="1" tileheight="16" tilewidth="16">
		<image source="../metatiles/Metatiles_050_5656.tmx"/>
	</tileset>
	<layer height="344" id="1" name="blocks" width="2">
		<data encoding="csv">
1, 17,
9, 8,
17, 5,
24, 12,
22, 46,
33, 23,
6, 17,
13, 24,
17, 17,
24, 24,
11, 15,
11, 8,
4, 41,
19, 21,
22, 40,
40, 40,
4, 65,
19, 51,
48, 49,
52, 52,
26, 28,
34, 36,
40, 40,
40, 40,
34, 79,
46, 46,
59, 80,
40, 34,
8, 46,
15, 37,
40, 40,
38, 40,
40, 46,
40, 19,
11, 65,
11, 83,
81, 82,
84, 29,
48, 50,
85, 86,
8, 46,
15, 46,
40, 26,
40, 26,
17, 65,
24, 51,
50, 54,
53, 60,
55, 56,
61, 62,
57, 58,
63, 64,
17, 17,
8, 8,
50, 66,
53, 66,
87, 54,
87, 54,
55, 56,
55, 56,
57, 58,
57, 58,
15, 15,
8, 42,
88, 66,
27, 66,
87, 60,
87, 60,
61, 62,
89, 90,
63, 64,
91, 64,
15, 46,
31, 46,
34, 79,
21, 4,
88, 66,
8, 71,
67, 68,
72, 73,
69, 70,
74, 75,
92, 46,
39, 19,
27, 21,
36, 34,
15, 8,
21, 15,
40, 8,
40, 15,
4, 26,
19, 36,
17, 17,
8, 24,
17, 17,
24, 8,
17, 3,
8, 7,
15, 8,
42, 15,
65, 50,
94, 95,
93, 82,
51, 52,
48, 48,
52, 52,
50, 11,
53, 11,
46, 46,
46, 46,
37, 38,
46, 46,
96, 97,
46, 46,
59, 80,
40, 46,
88, 11,
8, 11,
19, 21,
27, 36,
46, 46,
23, 40,
46, 22,
40, 40,
40, 46,
23, 46,
15, 11,
4, 11,
28, 46,
34, 21,
40, 23,
40, 46,
19, 21,
26, 27,
46, 46,
20, 21,
4, 11,
8, 11,
11, 98,
11, 79,
99, 100,
102, 59,
101, 87,
102, 75,
31, 46,
39, 46,
40, 34,
40, 46,
2, 4,
10, 41,
46, 40,
46, 40,
46, 42,
23, 46,
19, 21,
34, 36,
40, 46,
40, 46,
40, 46,
40, 40,
14, 46,
7, 8,
8, 8,
15, 15,
37, 38,
8, 8,
8, 46,
15, 4,
23, 40,
46, 46,
11, 93,
11, 51,
82, 48,
52, 52,
50, 93,
53, 51,
50, 46,
53, 32,
21, 19,
26, 27,
28, 8,
36, 15,
34, 21,
46, 34,
34, 36,
8, 8,
8, 4,
15, 41,
8, 46,
15, 8,
15, 15,
40, 40,
42, 22,
40, 40,
40, 40,
40, 19,
40, 40,
20, 21,
42, 15,
22, 40,
40, 40,
8, 40,
40, 40,
40, 23,
65, 103,
94, 105,
104, 36,
95, 106,
15, 8,
46, 15,
22, 34,
40, 40,
36, 40,
40, 40,
40, 8,
8, 15,
19, 28,
35, 36,
40, 19,
40, 26,
65, 81,
83, 84,
82, 48,
52, 85,
50, 11,
86, 11,
46, 46,
8, 46,
98, 107,
79, 72,
108, 109,
73, 74,
87, 11,
75, 11,
15, 4,
40, 40,
46, 46,
40, 40,
40, 46,
40, 37,
42, 11,
38, 11,
40, 40,
8, 4,
40, 22,
46, 40,
46, 46,
46, 19,
37, 38,
21, 46,
8, 11,
15, 11,
15, 46,
46, 46,
46, 34,
46, 46,
27, 21,
34, 36,
11, 96,
11, 8,
97, 59,
46, 40,
75, 110,
40, 40,
97, 59,
40, 40,
75, 39,
46, 46,
11, 15,
11, 93,
8, 46,
82, 48,
19, 21,
50, 35,
40, 40,
46, 40,
11, 51,
11, 96,
52, 52,
97, 59,
53, 32,
75, 39,
26, 27,
34, 35,
21, 40,
36, 40,
11, 8,
11, 15,
42, 40,
8, 8,
40, 40,
37, 38,
40, 40,
8, 8,
40, 40,
46, 4,
16, 17,
13, 24,
82, 48,
30, 85,
40, 40,
19, 20,
40, 40,
21, 46,
40, 4,
40, 4,
98, 99,
79, 102,
100, 101,
59, 102,
27, 21,
35, 36,
40, 34,
40, 40,
46, 4,
8, 8,
46, 46,
8, 8,
50, 8,
86, 15,
46, 46,
19, 21,
87, 31,
75, 39,
26, 65,
34, 51,
36, 46,
40, 40,
23, 79,
40, 40,
59, 80,
40, 37,
88, 11,
38, 11,
4, 46,
8, 8,
41, 46,
19, 21,
46, 22,
33, 46,
34, 6,
46, 13,
17, 18,
24, 25</data>
	</layer>
</map>
