<?xml version="1.0" ?>
<map height="330" orientation="orthogonal" renderorder="right-down" tileheight="16" tilewidth="16" width="2">
	<!--Add tilesets as much as needed-->
	<tileset firstgid="1" tileheight="16" tilewidth="16">
		<image source="../metatiles/Metatiles_06a_6059.tmx"/>
	</tileset>
	<layer height="330" id="1" name="blocks" width="2">
		<data encoding="csv">
20, 21,
25, 24,
21, 21,
24, 60,
21, 21,
24, 24,
21, 20,
24, 23,
18, 13,
18, 13,
13, 12,
27, 28,
14, 19,
29, 29,
19, 17,
30, 17,
17, 26,
26, 26,
17, 17,
26, 19,
18, 14,
18, 19,
33, 34,
39, 40,
35, 35,
40, 40,
36, 26,
41, 9,
26, 13,
26, 26,
13, 22,
26, 26,
18, 22,
18, 19,
42, 43,
17, 4,
44, 45,
1, 26,
46, 10,
26, 26,
26, 1,
1, 13,
1, 1,
13, 19,
20, 22,
23, 2,
1, 1,
26, 26,
1, 1,
26, 1,
26, 22,
26, 26,
21, 21,
60, 14,
48, 49,
51, 52,
49, 50,
52, 53,
21, 21,
14, 60,
19, 61,
22, 14,
12, 12,
17, 1,
51, 52,
56, 57,
52, 53,
62, 63,
12, 12,
64, 17,
61, 19,
14, 22,
17, 17,
1, 1,
1, 17,
1, 1,
1, 1,
17, 1,
1, 1,
1, 1,
17, 1,
1, 26,
26, 1,
17, 17,
1, 1,
1, 17,
1, 26,
1, 1,
19, 19,
22, 22,
17, 13,
13, 13,
17, 1,
1, 17,
13, 17,
13, 13,
20, 21,
23, 24,
21, 27,
24, 33,
28, 29,
34, 35,
29, 30,
35, 36,
21, 20,
14, 25,
13, 15,
19, 26,
16, 14,
26, 17,
14, 39,
13, 42,
40, 40,
43, 44,
40, 41,
45, 46,
12, 18,
10, 18,
22, 13,
1, 26,
13, 26,
26, 26,
26, 26,
26, 26,
2, 1,
26, 1,
17, 17,
26, 17,
17, 18,
19, 18,
26, 26,
19, 13,
26, 1,
13, 26,
26, 19,
26, 22,
22, 18,
19, 18,
22, 17,
17, 26,
26, 1,
1, 1,
26, 17,
26, 26,
22, 20,
19, 25,
26, 17,
17, 26,
17, 1,
17, 17,
26, 26,
1, 17,
26, 26,
20, 19,
26, 26,
19, 17,
26, 19,
19, 22,
26, 26,
26, 1,
17, 17,
17, 26,
25, 22,
18, 61,
22, 19,
14, 30,
17, 19,
29, 31,
22, 19,
32, 22,
18, 14,
18, 13,
13, 36,
14, 39,
35, 37,
40, 40,
38, 26,
41, 9,
26, 1,
26, 1,
18, 17,
18, 17,
26, 47,
26, 26,
26, 26,
26, 19,
26, 26,
26, 17,
26, 26,
17, 17,
26, 26,
17, 26,
26, 17,
26, 19,
27, 28,
33, 34,
29, 29,
35, 35,
30, 19,
36, 22,
19, 17,
22, 19,
26, 22,
26, 3,
39, 40,
42, 43,
40, 40,
44, 45,
41, 9,
46, 10,
19, 22,
22, 15,
26, 26,
16, 26,
26, 1,
26, 26,
1, 1,
1, 26,
19, 26,
22, 19,
26, 26,
17, 19,
26, 17,
19, 17,
26, 17,
17, 19,
26, 17,
26, 17,
19, 22,
22, 19,
19, 17,
27, 28,
19, 26,
29, 29,
26, 17,
30, 17,
22, 18,
17, 18,
17, 22,
26, 13,
17, 18,
26, 18,
26, 26,
1, 26,
42, 43,
26, 26,
26, 18,
17, 20,
19, 26,
22, 17,
2, 23,
26, 26,
18, 19,
18, 22,
17, 26,
17, 19,
26, 26,
13, 17,
26, 26,
19, 19,
26, 22,
26, 19,
19, 27,
22, 33,
26, 26,
17, 1,
26, 22,
26, 17,
13, 39,
14, 42,
9, 1,
10, 1,
26, 14,
1, 26,
17, 17,
13, 17,
26, 1,
17, 26,
1, 1,
26, 17,
26, 1,
17, 13,
19, 22,
30, 29,
19, 22,
31, 32,
26, 26,
13, 26,
17, 17,
19, 30,
26, 26,
29, 31,
36, 35,
39, 40,
37, 38,
40, 41,
14, 26,
9, 26,
26, 19,
17, 22,
22, 36,
19, 39,
47, 44,
17, 1,
45, 46,
26, 26,
10, 26,
1, 26,
22, 47,
26, 26,
1, 1,
13, 26,
19, 26,
22, 13,
26, 26,
32, 26,
26, 19,
1, 22,
26, 20,
26, 25,
46, 10,
26, 1,
1, 13,
26, 65,
26, 18,
13, 18,
26, 26,
14, 14,
19, 18,
22, 18</data>
	</layer>
</map>
