<?xml version="1.0" ?>
<map height="34" orientation="orthogonal" renderorder="right-down" tileheight="16" tilewidth="16" width="2">
	<!--Add tilesets as much as needed-->
	<tileset firstgid="1" tileheight="16" tilewidth="16">
		<image source="../metatiles/Metatiles_057_5bdd.tmx"/>
	</tileset>
	<layer height="34" id="1" name="blocks" width="2">
		<data encoding="csv">
1, 1,
1, 1,
1, 1,
1, 2,
1, 6,
8, 3,
11, 11,
11, 11,
13, 1,
4, 5,
1, 2,
2, 3,
8, 3,
14, 11,
17, 11,
7, 14,
11, 4,
11, 11,
8, 5,
15, 4,
3, 11,
14, 11,
17, 11,
7, 11,
11, 17,
11, 7,
15, 11,
16, 16,
11, 11,
16, 16,
11, 15,
16, 16,
12, 12,
12, 12</data>
	</layer>
</map>
