<?xml version="1.0" ?>
<map height="150" orientation="orthogonal" renderorder="right-down" tileheight="16" tilewidth="16" width="2">
	<!--Add tilesets as much as needed-->
	<tileset firstgid="1" tileheight="16" tilewidth="16">
		<image source="../metatiles/Metatiles_053_4698.tmx"/>
	</tileset>
	<layer height="150" id="1" name="blocks" width="2">
		<data encoding="csv">
51, 51,
51, 51,
51, 51,
51, 3,
51, 51,
52, 19,
51, 51,
20, 19,
51, 51,
20, 52,
3, 27,
9, 35,
36, 25,
65, 30,
26, 25,
31, 30,
26, 36,
31, 38,
9, 76,
9, 38,
39, 44,
40, 21,
43, 44,
16, 16,
43, 40,
22, 39,
9, 38,
9, 38,
40, 12,
40, 34,
7, 8,
13, 14,
5, 51,
12, 56,
9, 38,
27, 38,
9, 36,
9, 32,
36, 19,
42, 25,
20, 51,
26, 5,
42, 30,
44, 45,
31, 11,
41, 11,
35, 37,
40, 40,
40, 40,
40, 40,
41, 11,
44, 11,
40, 40,
40, 21,
42, 21,
16, 17,
16, 17,
51, 3,
51, 51,
19, 20,
51, 51,
52, 5,
40, 11,
40, 12,
3, 7,
27, 13,
8, 27,
14, 35,
25, 26,
30, 31,
36, 11,
66, 11,
44, 77,
40, 44,
67, 58,
43, 44,
63, 37,
43, 40,
15, 16,
51, 51,
16, 16,
51, 51,
22, 40,
18, 6,
40, 40,
6, 6,
51, 51,
7, 8,
9, 36,
27, 38,
36, 36,
40, 40,
51, 9,
51, 9,
13, 14,
38, 40,
40, 40,
16, 16,
51, 9,
51, 15,
33, 39,
16, 16,
21, 17,
17, 51,
40, 34,
40, 40,
40, 33,
40, 40,
64, 11,
40, 11,
40, 40,
6, 23,
21, 16,
17, 3,
16, 16,
52, 19,
16, 17,
20, 5,
36, 12,
40, 34,
5, 9,
12, 27,
36, 25,
38, 30,
26, 11,
31, 11,
40, 40,
16, 22,
40, 40,
39, 40,
34, 35,
40, 40,
37, 33,
40, 40,
39, 11,
40, 11,
51, 15,
51, 51,
16, 22,
51, 15,
39, 40,
16, 16,
40, 21,
16, 17,
16, 17,
51, 51,
9, 1,
9, 38,
44, 1,
40, 44</data>
	</layer>
</map>
