<?xml version="1.0" ?>
<map height="98" orientation="orthogonal" renderorder="right-down" tileheight="16" tilewidth="16" width="2">
	<!--Add tilesets as much as needed-->
	<tileset firstgid="1" tileheight="16" tilewidth="16">
		<image source="../metatiles/Metatiles_053_5103.tmx"/>
	</tileset>
	<layer height="98" id="1" name="blocks" width="2">
		<data encoding="csv">
9, 29,
13, 31,
17, 17,
48, 32,
17, 17,
22, 22,
30, 17,
33, 25,
13, 4,
13, 4,
3, 3,
3, 3,
3, 6,
3, 11,
34, 35,
13, 31,
27, 27,
48, 32,
27, 27,
22, 22,
3, 11,
3, 11,
3, 16,
3, 24,
18, 4,
23, 5,
7, 7,
12, 12,
17, 29,
25, 36,
17, 17,
37, 48,
30, 10,
38, 11,
20, 11,
3, 11,
27, 27,
22, 25,
27, 27,
25, 22,
39, 49,
33, 11,
34, 27,
13, 25,
39, 40,
33, 11,
8, 26,
13, 4,
3, 3,
3, 6,
3, 3,
8, 26,
3, 11,
3, 16,
12, 12,
17, 17,
3, 24,
3, 3,
25, 25,
3, 3,
3, 11,
3, 42,
13, 4,
44, 27,
3, 3,
27, 27,
3, 43,
3, 3,
22, 22,
3, 3,
13, 4,
14, 7,
3, 3,
7, 7,
12, 12,
30, 10,
21, 11,
3, 11,
33, 11,
58, 11,
3, 11,
27, 45,
3, 3,
39, 40,
37, 48,
3, 3,
38, 11,
59, 11,
3, 60,
7, 7,
3, 11,
7, 15,
33, 11,
1, 11,
38, 11,
1, 11,
3, 1,
7, 7</data>
	</layer>
</map>
