<?xml version="1.0" ?>
<map height="34" orientation="orthogonal" renderorder="right-down" tileheight="16" tilewidth="16" width="2">
	<!--Add tilesets as much as needed-->
	<tileset firstgid="1" tileheight="16" tilewidth="16">
		<image source="../metatiles/Metatiles_001_5219.tmx"/>
	</tileset>
	<layer height="34" id="1" name="blocks" width="2">
		<data encoding="csv">
42, 42,
42, 42,
42, 42,
22, 1,
42, 42,
50, 9,
42, 42,
51, 3,
42, 42,
22, 6,
30, 23,
45, 45,
53, 5,
45, 45,
54, 52,
45, 45,
30, 14,
45, 45,
45, 45,
24, 45,
45, 46,
45, 46,
43, 44,
47, 48,
46, 45,
46, 45,
24, 45,
45, 45,
45, 45,
45, 45,
45, 45,
33, 23,
37, 38,
42, 42</data>
	</layer>
</map>
