<?xml version="1.0" ?>
<map height="258" orientation="orthogonal" renderorder="right-down" tileheight="16" tilewidth="16" width="2">
	<!--Add tilesets as much as needed-->
	<tileset firstgid="1" tileheight="16" tilewidth="16">
		<image source="../metatiles/Metatiles_06a_5bd3.tmx"/>
	</tileset>
	<layer height="258" id="1" name="blocks" width="2">
		<data encoding="csv">
1, 6,
1, 12,
1, 10,
10, 9,
27, 17,
21, 16,
10, 3,
11, 10,
1, 18,
10, 1,
9, 2,
7, 21,
21, 2,
21, 21,
16, 18,
8, 10,
1, 17,
1, 1,
3, 6,
1, 12,
15, 2,
23, 15,
21, 2,
21, 22,
22, 6,
23, 12,
10, 1,
1, 10,
1, 18,
10, 3,
6, 23,
12, 1,
14, 23,
14, 10,
6, 18,
12, 17,
1, 1,
10, 9,
17, 10,
4, 5,
18, 11,
10, 3,
15, 16,
23, 15,
18, 3,
16, 1,
35, 13,
23, 23,
10, 3,
3, 10,
11, 1,
1, 1,
17, 1,
1, 9,
4, 5,
16, 1,
6, 3,
12, 10,
1, 10,
1, 17,
1, 3,
10, 1,
6, 15,
12, 23,
21, 16,
15, 21,
18, 1,
16, 6,
10, 1,
4, 5,
1, 1,
1, 3,
18, 10,
10, 3,
23, 7,
9, 21,
8, 12,
22, 18,
11, 10,
19, 16,
3, 1,
10, 17,
6, 9,
12, 7,
21, 22,
8, 23,
24, 1,
25, 10,
13, 13,
23, 23,
19, 16,
15, 13,
18, 7,
19, 21,
8, 10,
8, 1,
28, 1,
29, 1,
10, 3,
1, 10,
17, 1,
1, 1,
1, 6,
10, 12,
7, 16,
7, 8,
3, 1,
6, 3,
3, 1,
1, 6,
1, 18,
9, 19,
7, 8,
13, 8,
12, 10,
18, 6,
3, 12,
10, 18,
9, 19,
7, 22,
13, 22,
23, 23,
23, 7,
17, 7,
16, 12,
8, 18,
10, 9,
17, 15,
8, 23,
21, 16,
3, 10,
1, 10,
21, 16,
15, 13,
10, 23,
10, 3,
15, 8,
23, 7,
11, 1,
16, 4,
18, 1,
5, 3,
23, 23,
1, 10,
10, 1,
3, 10,
23, 6,
1, 12,
15, 21,
23, 7,
8, 11,
8, 1,
1, 18,
3, 4,
1, 15,
5, 23,
8, 1,
7, 16,
11, 6,
1, 12,
3, 1,
1, 9,
7, 8,
21, 8,
18, 10,
3, 1,
17, 18,
19, 19,
9, 19,
13, 13,
19, 13,
22, 23,
13, 21,
23, 7,
16, 1,
8, 36,
15, 22,
23, 23,
23, 23,
10, 17,
10, 7,
9, 21,
8, 11,
22, 10,
10, 17,
6, 10,
3, 7,
9, 8,
3, 11,
1, 10,
12, 9,
18, 7,
1, 18,
6, 1,
1, 17,
10, 1,
3, 1,
1, 10,
10, 7,
11, 15,
8, 10,
21, 16,
12, 1,
18, 10,
1, 1,
4, 5,
1, 23,
1, 6,
15, 21,
23, 15,
16, 1,
21, 19,
3, 18,
37, 19,
10, 12,
1, 18,
17, 23,
1, 6,
15, 13,
23, 23,
23, 23,
11, 1,
1, 10,
1, 1,
1, 1,
17, 9,
7, 8,
21, 22,
17, 3,
6, 10,
1, 11,
17, 1,
9, 21,
7, 8,
22, 23,
23, 1,
12, 11,
18, 10,
6, 1,
12, 5,
7, 8,
15, 21,
1, 6,
16, 12,
1, 1,
1, 10,
19, 16,
13, 21,
18, 1,
16, 11,
23, 15,
1, 23,
8, 18,
7, 19,
3, 1,
16, 17,
22, 10,
23, 3</data>
	</layer>
</map>
