<?xml version="1.0" ?>
<map height="148" orientation="orthogonal" renderorder="right-down" tileheight="16" tilewidth="16" width="2">
	<!--Add tilesets as much as needed-->
	<tileset firstgid="1" tileheight="16" tilewidth="16">
		<image source="../metatiles/Metatiles_064_4f7d.tmx"/>
	</tileset>
	<layer height="148" id="1" name="blocks" width="2">
		<data encoding="csv">
12, 21,
12, 36,
27, 41,
39, 34,
21, 27,
39, 39,
10, 11,
10, 11,
11, 11,
11, 11,
12, 36,
12, 36,
39, 39,
39, 39,
39, 39,
37, 38,
29, 9,
11, 12,
40, 34,
36, 39,
7, 8,
16, 17,
30, 11,
17, 17,
11, 11,
24, 11,
11, 12,
11, 29,
36, 39,
9, 40,
20, 21,
34, 39,
21, 41,
39, 39,
16, 17,
20, 21,
12, 36,
29, 9,
39, 39,
40, 39,
39, 39,
7, 9,
39, 34,
40, 39,
11, 11,
23, 17,
23, 17,
18, 21,
17, 17,
21, 21,
17, 24,
21, 16,
12, 41,
12, 36,
22, 35,
39, 39,
39, 34,
39, 39,
39, 20,
39, 39,
16, 24,
20, 10,
39, 39,
39, 7,
7, 9,
30, 48,
40, 34,
13, 6,
39, 10,
40, 10,
18, 36,
22, 35,
39, 10,
39, 10,
23, 18,
12, 22,
21, 22,
35, 39,
35, 10,
39, 10,
7, 30,
10, 11,
39, 4,
39, 20,
49, 30,
10, 11,
23, 17,
12, 27,
17, 54,
21, 5,
36, 39,
36, 7,
10, 48,
30, 12,
13, 13,
21, 27,
39, 19,
34, 20,
36, 39,
35, 39,
16, 17,
20, 41,
39, 7,
34, 10,
29, 8,
11, 11,
8, 8,
11, 11,
30, 11,
11, 11,
13, 49,
21, 10,
23, 17,
12, 41,
17, 18,
21, 22,
8, 30,
23, 17,
12, 36,
18, 35,
34, 39,
39, 39,
39, 39,
4, 13,
10, 11,
32, 24,
12, 27,
12, 36,
22, 39,
39, 39,
7, 9,
10, 12,
21, 21,
36, 34,
27, 10,
39, 10,
12, 36,
29, 8,
37, 38,
8, 8,
10, 12,
30, 29,
36, 39,
8, 8,
60, 10,
8, 30,
1, 10,
8, 30</data>
	</layer>
</map>
