<?xml version="1.0" ?>
<map height="142" orientation="orthogonal" renderorder="right-down" tileheight="16" tilewidth="16" width="2">
	<!--Add tilesets as much as needed-->
	<tileset firstgid="1" tileheight="16" tilewidth="16">
		<image source="../metatiles/Metatiles_064_6166.tmx"/>
	</tileset>
	<layer height="142" id="1" name="blocks" width="2">
		<data encoding="csv">
34, 13,
14, 15,
13, 13,
11, 12,
35, 20,
5, 13,
20, 34,
13, 6,
13, 13,
10, 11,
14, 21,
14, 16,
17, 9,
9, 9,
12, 11,
9, 9,
10, 12,
9, 9,
14, 16,
14, 16,
9, 9,
9, 9,
9, 9,
3, 39,
9, 9,
13, 13,
3, 13,
44, 20,
36, 4,
20, 14,
18, 9,
16, 9,
5, 6,
10, 11,
10, 11,
17, 9,
5, 13,
12, 11,
20, 14,
20, 14,
16, 9,
16, 9,
20, 36,
20, 20,
13, 13,
20, 20,
4, 18,
36, 13,
6, 15,
12, 21,
12, 10,
17, 9,
11, 12,
9, 9,
10, 11,
9, 9,
5, 35,
12, 14,
9, 9,
9, 3,
9, 9,
13, 4,
9, 9,
18, 9,
9, 14,
9, 14,
13, 37,
20, 20,
20, 46,
20, 14,
38, 18,
12, 17,
13, 35,
10, 14,
20, 34,
20, 14,
13, 6,
15, 11,
16, 9,
17, 9,
21, 17,
16, 9,
9, 9,
9, 43,
3, 37,
44, 20,
7, 14,
13, 37,
20, 14,
20, 36,
16, 9,
4, 18,
9, 10,
9, 9,
14, 20,
14, 20,
20, 20,
20, 20,
20, 20,
34, 13,
20, 34,
35, 14,
13, 13,
12, 10,
14, 15,
14, 21,
6, 16,
12, 17,
13, 6,
12, 11,
9, 3,
3, 37,
14, 20,
37, 20,
14, 16,
36, 13,
8, 9,
13, 13,
9, 14,
13, 37,
35, 20,
14, 20,
5, 13,
10, 15,
35, 46,
14, 14,
38, 18,
11, 17,
47, 18,
48, 16,
9, 21,
9, 9,
5, 6,
10, 12,
3, 37,
14, 20,
4, 18,
14, 16,
37, 20,
20, 20,
36, 13,
20, 20</data>
	</layer>
</map>
