<?xml version="1.0" ?>
<map height="86" orientation="orthogonal" renderorder="right-down" tileheight="16" tilewidth="16" width="2">
	<!--Add tilesets as much as needed-->
	<tileset firstgid="1" tileheight="16" tilewidth="16">
		<image source="../metatiles/Metatiles_064_6166.tmx"/>
	</tileset>
	<layer height="86" id="1" name="blocks" width="2">
		<data encoding="csv">
20, 20,
20, 34,
34, 13,
6, 10,
13, 35,
12, 5,
20, 20,
13, 13,
34, 13,
6, 12,
13, 35,
11, 14,
20, 14,
20, 14,
15, 7,
21, 17,
18, 10,
9, 26,
12, 10,
27, 28,
11, 17,
29, 9,
7, 14,
9, 14,
16, 9,
16, 9,
9, 9,
9, 9,
9, 9,
43, 13,
9, 9,
39, 13,
3, 37,
37, 20,
10, 11,
9, 9,
5, 13,
10, 15,
35, 20,
14, 20,
20, 36,
20, 20,
13, 13,
20, 20,
13, 4,
20, 36,
18, 9,
4, 18,
9, 21,
9, 9,
14, 20,
14, 20,
20, 20,
20, 20,
36, 4,
13, 6,
18, 9,
16, 9,
20, 34,
13, 6,
13, 6,
10, 11,
12, 11,
17, 9,
17, 9,
9, 9,
15, 12,
21, 17,
9, 9,
9, 3,
9, 9,
13, 13,
14, 20,
37, 20,
9, 9,
3, 13,
5, 13,
12, 10,
13, 13,
10, 15,
5, 13,
10, 12,
18, 9,
13, 13,
9, 8,
4, 18</data>
	</layer>
</map>
