<?xml version="1.0" ?>
<map height="180" orientation="orthogonal" renderorder="right-down" tileheight="16" tilewidth="16" width="2">
	<!--Add tilesets as much as needed-->
	<tileset firstgid="1" tileheight="16" tilewidth="16">
		<image source="../metatiles/Metatiles_053_59ec.tmx"/>
	</tileset>
	<layer height="180" id="1" name="blocks" width="2">
		<data encoding="csv">
5, 16,
3, 9,
10, 10,
9, 16,
10, 10,
15, 9,
10, 16,
6, 7,
16, 10,
21, 15,
3, 9,
3, 9,
15, 14,
22, 23,
9, 9,
23, 23,
12, 20,
17, 19,
19, 23,
23, 23,
3, 15,
3, 23,
9, 23,
6, 21,
24, 25,
30, 31,
26, 27,
32, 33,
28, 16,
34, 35,
3, 6,
3, 17,
20, 19,
19, 9,
36, 37,
42, 43,
38, 39,
44, 45,
40, 41,
46, 47,
3, 1,
3, 9,
23, 23,
23, 23,
14, 23,
23, 14,
6, 7,
17, 20,
21, 23,
20, 7,
10, 10,
16, 1,
16, 23,
16, 23,
23, 16,
23, 16,
10, 10,
1, 9,
10, 4,
9, 3,
11, 23,
23, 23,
23, 16,
6, 21,
22, 9,
9, 15,
9, 3,
9, 3,
14, 23,
14, 15,
23, 6,
9, 17,
20, 20,
19, 17,
21, 9,
19, 14,
15, 3,
22, 3,
23, 9,
23, 22,
9, 9,
14, 15,
1, 23,
23, 23,
23, 23,
23, 9,
15, 3,
16, 3,
23, 23,
21, 23,
9, 9,
14, 9,
3, 16,
3, 9,
9, 23,
9, 14,
23, 23,
22, 23,
23, 17,
23, 23,
20, 20,
12, 20,
3, 15,
3, 24,
9, 1,
25, 26,
14, 9,
27, 28,
16, 23,
9, 23,
17, 18,
23, 16,
3, 30,
3, 36,
31, 32,
37, 38,
33, 34,
39, 40,
35, 23,
41, 23,
23, 9,
23, 9,
3, 42,
3, 15,
43, 44,
9, 23,
45, 46,
23, 6,
47, 23,
7, 7,
3, 9,
2, 16,
16, 14,
5, 5,
23, 17,
15, 5,
18, 18,
5, 5,
19, 9,
16, 16,
13, 16,
13, 24,
9, 23,
25, 26,
23, 23,
27, 28,
23, 14,
16, 23,
19, 30,
9, 36,
35, 16,
41, 23,
16, 3,
15, 3,
9, 42,
1, 6,
43, 44,
21, 23,
45, 46,
23, 23,
47, 23,
23, 9,
14, 3,
9, 3,
23, 23,
14, 9,
23, 9,
9, 16,
16, 3,
9, 3,
9, 22,
10, 10,
23, 14,
10, 10,
9, 9,
16, 10,
9, 9,
16, 16,
9, 3,
10, 8</data>
	</layer>
</map>
