<?xml version="1.0" ?>
<map height="102" orientation="orthogonal" renderorder="right-down" tileheight="16" tilewidth="16" width="2">
	<!--Add tilesets as much as needed-->
	<tileset firstgid="1" tileheight="16" tilewidth="16">
		<image source="../metatiles/Metatiles_064_6166.tmx"/>
	</tileset>
	<layer height="102" id="1" name="blocks" width="2">
		<data encoding="csv">
20, 14,
20, 14,
15, 22,
21, 30,
23, 24,
19, 32,
25, 15,
33, 21,
12, 11,
17, 9,
14, 20,
14, 20,
16, 9,
16, 9,
9, 9,
9, 9,
20, 36,
20, 20,
39, 13,
14, 10,
13, 39,
12, 14,
4, 18,
14, 16,
9, 3,
9, 5,
37, 20,
13, 35,
20, 34,
20, 14,
6, 16,
11, 17,
55, 14,
9, 14,
14, 16,
14, 16,
9, 10,
9, 9,
15, 14,
21, 14,
34, 6,
14, 11,
16, 9,
17, 9,
3, 37,
14, 20,
36, 4,
20, 14,
18, 9,
16, 9,
9, 14,
9, 14,
9, 3,
9, 14,
37, 20,
20, 20,
9, 5,
9, 10,
35, 20,
14, 20,
20, 34,
34, 6,
6, 16,
12, 17,
14, 20,
5, 35,
14, 15,
14, 21,
9, 14,
3, 37,
12, 5,
9, 11,
6, 16,
10, 17,
9, 9,
9, 43,
14, 20,
50, 35,
20, 14,
20, 36,
16, 9,
4, 18,
9, 9,
26, 27,
9, 9,
28, 29,
9, 12,
9, 9,
20, 20,
20, 20,
14, 16,
36, 13,
8, 9,
13, 13,
9, 26,
13, 13,
27, 28,
13, 13,
29, 14,
13, 37,
1, 14,
9, 14</data>
	</layer>
</map>
