<?xml version="1.0" ?>
<map height="86" orientation="orthogonal" renderorder="right-down" tileheight="16" tilewidth="16" width="2">
	<!--Add tilesets as much as needed-->
	<tileset firstgid="1" tileheight="16" tilewidth="16">
		<image source="../metatiles/Metatiles_050_4824.tmx"/>
	</tileset>
	<layer height="86" id="1" name="blocks" width="2">
		<data encoding="csv">
5, 6,
11, 12,
34, 11,
23, 31,
12, 11,
29, 29,
12, 33,
29, 29,
11, 12,
32, 23,
6, 23,
12, 24,
30, 19,
9, 7,
14, 14,
14, 21,
14, 14,
19, 14,
43, 28,
14, 14,
23, 5,
22, 11,
6, 24,
12, 30,
15, 19,
15, 7,
21, 44,
9, 44,
44, 19,
44, 7,
14, 14,
14, 43,
22, 5,
22, 11,
24, 15,
24, 15,
7, 14,
19, 16,
14, 9,
17, 17,
7, 14,
17, 17,
43, 16,
17, 23,
23, 33,
5, 6,
24, 14,
24, 19,
9, 28,
14, 8,
29, 29,
8, 8,
32, 23,
9, 22,
11, 12,
5, 6,
23, 18,
5, 6,
19, 20,
17, 17,
20, 14,
18, 13,
15, 28,
14, 9,
23, 23,
22, 5,
11, 12,
6, 34,
11, 12,
23, 34,
24, 13,
24, 19,
14, 15,
14, 21,
22, 11,
22, 34,
3, 6,
11, 12,
23, 33,
34, 5,
23, 18,
6, 24,
14, 16,
14, 22,
23, 34,
5, 6</data>
	</layer>
</map>
