<?xml version="1.0" ?>
<map height="48" orientation="orthogonal" renderorder="right-down" tileheight="16" tilewidth="16" width="2">
	<!--Add tilesets as much as needed-->
	<tileset firstgid="1" tileheight="16" tilewidth="16">
		<image source="../metatiles/Metatiles_064_6ba5.tmx"/>
	</tileset>
	<layer height="48" id="1" name="blocks" width="2">
		<data encoding="csv">
35, 35,
35, 15,
35, 35,
8, 56,
35, 35,
57, 8,
35, 35,
9, 56,
35, 35,
58, 8,
35, 35,
15, 35,
35, 31,
35, 38,
59, 60,
17, 22,
61, 31,
22, 38,
59, 62,
17, 63,
46, 31,
22, 38,
59, 35,
17, 35,
35, 22,
35, 22,
22, 42,
22, 45,
22, 22,
22, 22,
22, 64,
22, 22,
22, 35,
42, 35,
35, 3,
35, 3,
22, 22,
22, 3,
22, 22,
3, 22,
45, 35,
18, 35,
35, 35,
35, 35,
35, 24,
35, 35,
25, 35,
35, 35</data>
	</layer>
</map>
