<?xml version="1.0" ?>
<map height="100" orientation="orthogonal" renderorder="right-down" tileheight="16" tilewidth="16" width="2">
	<!--Add tilesets as much as needed-->
	<tileset firstgid="1" tileheight="16" tilewidth="16">
		<image source="../metatiles/Metatiles_017_4849.tmx"/>
	</tileset>
	<layer height="100" id="1" name="blocks" width="2">
		<data encoding="csv">
16, 19,
19, 18,
19, 19,
16, 16,
16, 16,
19, 19,
19, 16,
16, 19,
19, 8,
16, 8,
18, 12,
13, 17,
19, 19,
11, 13,
18, 18,
11, 13,
19, 16,
5, 19,
3, 20,
16, 2,
1, 2,
18, 18,
3, 7,
16, 3,
7, 6,
7, 11,
19, 16,
18, 19,
19, 16,
12, 19,
3, 7,
8, 7,
11, 12,
7, 7,
9, 6,
14, 6,
18, 16,
16, 19,
18, 3,
16, 8,
11, 18,
7, 5,
2, 16,
16, 19,
3, 1,
8, 11,
8, 1,
8, 6,
12, 13,
7, 7,
11, 18,
1, 15,
19, 18,
15, 13,
13, 11,
7, 1,
9, 11,
14, 9,
18, 16,
6, 19,
18, 3,
16, 13,
7, 1,
1, 18,
9, 14,
14, 1,
6, 16,
18, 19,
19, 3,
18, 8,
6, 16,
6, 19,
2, 16,
18, 19,
18, 5,
13, 1,
11, 10,
3, 6,
3, 6,
13, 6,
3, 1,
18, 16,
16, 18,
19, 16,
18, 3,
18, 13,
1, 16,
11, 19,
16, 19,
19, 16,
13, 1,
3, 11,
18, 19,
12, 18,
13, 7,
2, 3,
5, 18,
7, 11,
3, 1,
13, 6</data>
	</layer>
</map>
