<?xml version="1.0" ?>
<map height="166" orientation="orthogonal" renderorder="right-down" tileheight="16" tilewidth="16" width="2">
	<!--Add tilesets as much as needed-->
	<tileset firstgid="1" tileheight="16" tilewidth="16">
		<image source="../metatiles/Metatiles_064_4f7d.tmx"/>
	</tileset>
	<layer height="166" id="1" name="blocks" width="2">
		<data encoding="csv">
12, 21,
12, 36,
27, 41,
39, 34,
10, 11,
16, 24,
11, 11,
11, 11,
12, 36,
29, 9,
39, 39,
40, 39,
20, 16,
39, 20,
17, 24,
21, 16,
11, 11,
17, 17,
23, 33,
12, 21,
6, 40,
22, 35,
39, 39,
39, 39,
39, 20,
39, 39,
21, 41,
39, 34,
12, 36,
12, 36,
7, 9,
16, 45,
40, 37,
8, 8,
38, 39,
8, 8,
29, 9,
11, 12,
40, 34,
36, 39,
20, 10,
34, 16,
11, 11,
17, 24,
11, 11,
23, 17,
23, 17,
18, 21,
17, 17,
21, 41,
24, 11,
16, 17,
11, 11,
24, 11,
12, 21,
18, 36,
22, 35,
39, 39,
39, 39,
34, 39,
20, 21,
39, 39,
10, 11,
10, 11,
39, 46,
46, 47,
13, 6,
21, 22,
40, 39,
35, 39,
39, 39,
8, 9,
3, 22,
22, 35,
35, 39,
39, 39,
39, 7,
34, 10,
30, 11,
11, 11,
11, 12,
11, 12,
36, 39,
36, 39,
7, 8,
16, 17,
8, 30,
24, 11,
11, 29,
11, 11,
9, 40,
12, 36,
21, 10,
39, 10,
48, 13,
12, 41,
39, 10,
39, 10,
23, 17,
12, 27,
18, 36,
22, 35,
39, 39,
39, 34,
7, 26,
16, 18,
17, 17,
21, 27,
39, 39,
37, 38,
7, 9,
10, 12,
27, 22,
36, 39,
35, 34,
39, 39,
29, 8,
11, 11,
8, 8,
11, 11,
30, 12,
11, 29,
36, 39,
8, 8,
39, 39,
8, 8,
11, 12,
11, 29,
36, 39,
9, 40,
39, 20,
39, 34,
16, 17,
20, 27,
17, 24,
41, 10,
40, 39,
36, 37,
39, 34,
38, 39,
39, 10,
7, 30,
24, 23,
14, 18,
17, 33,
41, 27,
13, 49,
21, 16,
8, 8,
24, 11,
5, 22,
5, 36,
35, 39,
34, 39,
5, 58,
53, 8,
50, 51,
8, 8,
52, 59,
8, 8,
10, 11,
30, 11,
5, 1,
53, 8,
52, 1,
8, 8</data>
	</layer>
</map>
