<?xml version="1.0" ?>
<map height="68" orientation="orthogonal" renderorder="right-down" tileheight="16" tilewidth="16" width="2">
	<!--Add tilesets as much as needed-->
	<tileset firstgid="1" tileheight="16" tilewidth="16">
		<image source="../metatiles/Metatiles_050_78f8.tmx"/>
	</tileset>
	<layer height="68" id="1" name="blocks" width="2">
		<data encoding="csv">
19, 16,
16, 19,
19, 8,
16, 13,
1, 16,
11, 19,
16, 19,
19, 16,
19, 3,
16, 16,
7, 11,
5, 7,
12, 19,
1, 16,
19, 18,
12, 12,
19, 19,
13, 6,
3, 7,
8, 1,
11, 19,
2, 16,
1, 22,
22, 18,
16, 22,
19, 16,
8, 6,
16, 22,
13, 6,
3, 11,
8, 1,
13, 11,
7, 1,
7, 11,
16, 19,
19, 18,
18, 19,
25, 26,
18, 19,
26, 26,
19, 2,
16, 16,
3, 7,
22, 3,
11, 12,
7, 7,
27, 28,
29, 24,
28, 28,
30, 27,
19, 16,
18, 19,
19, 19,
25, 26,
18, 8,
26, 26,
7, 7,
26, 23,
7, 7,
7, 7,
7, 27,
1, 27,
26, 26,
28, 28,
28, 28,
28, 28,
26, 28,
28, 28</data>
	</layer>
</map>
