<?xml version="1.0" ?>
<map height="156" orientation="orthogonal" renderorder="right-down" tileheight="16" tilewidth="16" width="2">
	<!--Add tilesets as much as needed-->
	<tileset firstgid="1" tileheight="16" tilewidth="16">
		<image source="../metatiles/Metatiles_057_652a.tmx"/>
	</tileset>
	<layer height="156" id="1" name="blocks" width="2">
		<data encoding="csv">
42, 42,
6, 20,
32, 33,
32, 33,
42, 42,
20, 20,
42, 42,
7, 42,
42, 42,
42, 42,
13, 28,
13, 2,
32, 33,
34, 35,
28, 29,
71, 27,
12, 42,
12, 42,
42, 6,
6, 21,
20, 20,
29, 28,
13, 23,
13, 23,
25, 25,
25, 25,
13, 28,
13, 23,
22, 25,
25, 25,
14, 5,
42, 13,
27, 25,
48, 25,
3, 58,
12, 13,
20, 20,
29, 30,
21, 23,
31, 22,
25, 25,
3, 4,
42, 14,
42, 6,
4, 4,
20, 20,
15, 13,
7, 13,
23, 25,
72, 25,
42, 13,
42, 13,
30, 31,
23, 47,
12, 14,
12, 42,
4, 4,
42, 42,
15, 42,
42, 42,
42, 42,
42, 6,
6, 20,
21, 30,
20, 7,
31, 12,
20, 20,
30, 31,
20, 20,
28, 29,
7, 42,
12, 42,
28, 22,
23, 47,
25, 12,
27, 12,
19, 20,
30, 31,
20, 21,
30, 31,
23, 25,
22, 25,
3, 15,
12, 42,
3, 5,
15, 13,
27, 25,
23, 25,
25, 25,
8, 11,
12, 42,
15, 42,
42, 14,
42, 42,
4, 5,
42, 13,
29, 12,
25, 12,
5, 27,
13, 23,
25, 12,
25, 12,
6, 21,
13, 28,
19, 7,
28, 12,
25, 25,
25, 3,
25, 12,
4, 15,
42, 6,
42, 13,
21, 29,
28, 22,
25, 19,
25, 29,
7, 6,
12, 13,
19, 21,
30, 31,
25, 3,
25, 12,
30, 31,
25, 25,
12, 42,
19, 7,
25, 19,
25, 30,
25, 25,
5, 27,
28, 12,
25, 19,
42, 42,
20, 7,
25, 30,
25, 25,
31, 19,
25, 29,
18, 23,
59, 60,
25, 25,
27, 25,
25, 12,
3, 15,
14, 4,
42, 42,
4, 5,
42, 14,
27, 25,
4, 4,
13, 28,
13, 1,
28, 29,
1, 27,
23, 25,
1, 25</data>
	</layer>
</map>
