<?xml version="1.0" ?>
<map height="58" orientation="orthogonal" renderorder="right-down" tileheight="16" tilewidth="16" width="2">
	<!--Add tilesets as much as needed-->
	<tileset firstgid="1" tileheight="16" tilewidth="16">
		<image source="../metatiles/Metatiles_053_6ca7.tmx"/>
	</tileset>
	<layer height="58" id="1" name="blocks" width="2">
		<data encoding="csv">
18, 18,
18, 28,
28, 27,
36, 37,
28, 27,
38, 11,
29, 30,
38, 37,
31, 27,
39, 28,
18, 18,
27, 18,
14, 27,
31, 28,
40, 5,
41, 5,
5, 10,
5, 19,
5, 5,
5, 5,
6, 27,
6, 12,
12, 13,
42, 30,
18, 15,
23, 43,
40, 5,
44, 8,
5, 5,
17, 17,
6, 29,
9, 28,
31, 27,
16, 18,
45, 33,
18, 49,
27, 28,
15, 27,
27, 28,
26, 27,
46, 47,
23, 27,
48, 28,
16, 43,
49, 26,
34, 50,
43, 34,
33, 23,
51, 23,
53, 54,
43, 28,
33, 27,
49, 26,
34, 55,
45, 33,
56, 26,
52, 26,
34, 50</data>
	</layer>
</map>
