<?xml version="1.0" ?>
<map height="54" orientation="orthogonal" renderorder="right-down" tileheight="16" tilewidth="16" width="2">
	<!--Add tilesets as much as needed-->
	<tileset firstgid="1" tileheight="16" tilewidth="16">
		<image source="../metatiles/Metatiles_06a_6eef.tmx"/>
	</tileset>
	<layer height="54" id="1" name="blocks" width="2">
		<data encoding="csv">
14, 33,
14, 14,
14, 14,
14, 14,
14, 36,
43, 14,
14, 14,
35, 14,
14, 42,
14, 14,
35, 14,
28, 28,
14, 14,
23, 50,
9, 14,
9, 2,
14, 14,
6, 28,
14, 45,
14, 14,
43, 4,
14, 11,
37, 27,
38, 3,
27, 27,
9, 9,
9, 22,
9, 16,
9, 3,
9, 9,
14, 14,
14, 39,
35, 14,
14, 14,
37, 9,
38, 9,
9, 9,
9, 9,
9, 16,
9, 16,
9, 9,
9, 3,
41, 14,
14, 14,
14, 14,
39, 14,
40, 14,
14, 14,
43, 36,
14, 14,
14, 14,
14, 45,
32, 14,
14, 14</data>
	</layer>
</map>
