<?xml version="1.0" ?>
<map height="94" orientation="orthogonal" renderorder="right-down" tileheight="16" tilewidth="16" width="2">
	<!--Add tilesets as much as needed-->
	<tileset firstgid="1" tileheight="16" tilewidth="16">
		<image source="../metatiles/Metatiles_017_4441.tmx"/>
	</tileset>
	<layer height="94" id="1" name="blocks" width="2">
		<data encoding="csv">
31, 31,
31, 31,
31, 31,
31, 12,
13, 13,
18, 18,
13, 13,
14, 18,
13, 13,
39, 18,
31, 31,
11, 31,
31, 12,
31, 12,
23, 29,
23, 21,
21, 22,
21, 21,
21, 28,
22, 30,
11, 31,
15, 13,
31, 12,
31, 31,
23, 22,
7, 8,
21, 21,
30, 21,
21, 25,
21, 21,
17, 18,
21, 22,
31, 13,
12, 18,
16, 23,
19, 24,
22, 21,
21, 22,
21, 22,
22, 21,
31, 31,
13, 13,
12, 23,
16, 23,
21, 21,
21, 21,
22, 6,
25, 11,
7, 7,
31, 31,
18, 18,
21, 21,
19, 24,
21, 21,
21, 6,
21, 11,
7, 31,
31, 31,
23, 22,
23, 21,
21, 21,
21, 6,
13, 16,
18, 19,
23, 21,
24, 21,
22, 21,
21, 29,
28, 11,
30, 11,
23, 21,
23, 22,
6, 7,
11, 31,
23, 21,
23, 21,
21, 21,
7, 8,
21, 21,
21, 22,
21, 15,
21, 17,
13, 31,
18, 11,
22, 30,
21, 21,
28, 15,
22, 17,
7, 8,
31, 12,
21, 21,
23, 29,
13, 13,
40, 18</data>
	</layer>
</map>
