<?xml version="1.0" ?>
<map height="88" orientation="orthogonal" renderorder="right-down" tileheight="16" tilewidth="16" width="2">
	<!--Add tilesets as much as needed-->
	<tileset firstgid="1" tileheight="16" tilewidth="16">
		<image source="../metatiles/Metatiles_050_52d1.tmx"/>
	</tileset>
	<layer height="88" id="1" name="blocks" width="2">
		<data encoding="csv">
33, 11,
5, 6,
12, 34,
33, 31,
11, 12,
29, 29,
11, 12,
29, 32,
23, 11,
34, 34,
12, 34,
5, 6,
11, 12,
6, 34,
24, 43,
24, 43,
43, 14,
36, 21,
20, 14,
7, 14,
22, 5,
22, 11,
4, 12,
3, 6,
12, 33,
5, 6,
24, 21,
24, 9,
44, 44,
7, 9,
19, 21,
44, 7,
22, 23,
22, 34,
11, 12,
5, 6,
5, 6,
11, 12,
18, 15,
24, 21,
44, 16,
7, 22,
34, 33,
5, 6,
11, 12,
23, 5,
11, 3,
23, 11,
6, 33,
12, 34,
24, 9,
30, 14,
19, 22,
9, 22,
11, 3,
34, 11,
6, 11,
12, 33,
5, 6,
11, 3,
34, 24,
6, 24,
43, 14,
14, 21,
21, 22,
44, 28,
34, 5,
6, 11,
5, 4,
11, 12,
12, 24,
33, 24,
21, 44,
9, 7,
44, 19,
9, 44,
22, 11,
22, 5,
3, 6,
4, 12,
6, 33,
5, 6,
34, 18,
6, 24,
21, 7,
7, 14,
12, 5,
6, 11</data>
	</layer>
</map>
