<?xml version="1.0" ?>
<map height="46" orientation="orthogonal" renderorder="right-down" tileheight="16" tilewidth="16" width="2">
	<!--Add tilesets as much as needed-->
	<tileset firstgid="1" tileheight="16" tilewidth="16">
		<image source="../metatiles/Metatiles_050_7165.tmx"/>
	</tileset>
	<layer height="46" id="1" name="blocks" width="2">
		<data encoding="csv">
35, 35,
35, 45,
35, 35,
45, 45,
35, 35,
34, 35,
35, 3,
35, 29,
3, 47,
42, 29,
47, 47,
42, 42,
47, 33,
42, 48,
41, 35,
42, 35,
35, 36,
35, 42,
42, 36,
42, 42,
42, 42,
42, 42,
42, 40,
42, 42,
2, 2,
42, 42,
2, 44,
42, 42,
35, 29,
35, 36,
42, 42,
30, 42,
42, 35,
30, 35,
35, 3,
35, 35,
42, 42,
35, 42,
42, 42,
42, 35,
42, 42,
35, 35,
37, 42,
35, 35,
37, 35,
35, 35</data>
	</layer>
</map>
