<?xml version="1.0" ?>
<map height="116" orientation="orthogonal" renderorder="right-down" tileheight="16" tilewidth="16" width="2">
	<!--Add tilesets as much as needed-->
	<tileset firstgid="1" tileheight="16" tilewidth="16">
		<image source="../metatiles/Metatiles_06a_7a47.tmx"/>
	</tileset>
	<layer height="116" id="1" name="blocks" width="2">
		<data encoding="csv">
21, 1,
1, 21,
21, 21,
5, 6,
21, 21,
21, 21,
21, 21,
1, 21,
1, 21,
5, 6,
5, 6,
11, 12,
21, 21,
8, 21,
11, 12,
21, 21,
2, 2,
7, 7,
11, 12,
7, 7,
1, 1,
4, 7,
8, 1,
2, 7,
9, 10,
4, 7,
7, 7,
7, 7,
7, 7,
5, 6,
7, 7,
4, 7,
7, 7,
7, 5,
7, 4,
6, 9,
11, 12,
10, 1,
11, 12,
21, 1,
1, 2,
8, 21,
1, 11,
21, 1,
12, 21,
21, 21,
21, 21,
2, 1,
1, 21,
8, 21,
9, 10,
21, 21,
1, 9,
2, 21,
10, 21,
5, 6,
21, 21,
9, 10,
2, 1,
1, 2,
11, 12,
1, 2,
7, 7,
7, 4,
11, 12,
2, 8,
21, 5,
1, 11,
6, 1,
12, 2,
4, 7,
7, 7,
9, 10,
1, 21,
8, 9,
5, 6,
10, 5,
21, 11,
6, 1,
12, 21,
8, 2,
5, 6,
11, 12,
9, 10,
21, 1,
21, 21,
21, 2,
1, 1,
8, 21,
1, 2,
11, 12,
2, 2,
7, 4,
4, 7,
7, 4,
7, 7,
1, 1,
2, 21,
9, 10,
21, 8,
2, 8,
21, 21,
21, 21,
21, 2,
2, 21,
21, 21,
21, 5,
21, 11,
6, 21,
12, 21,
21, 21,
21, 1,
21, 9,
21, 21,
10, 21,
9, 10</data>
	</layer>
</map>
