<?xml version="1.0" ?>
<map height="338" orientation="orthogonal" renderorder="right-down" tileheight="16" tilewidth="16" width="2">
	<!--Add tilesets as much as needed-->
	<tileset firstgid="1" tileheight="16" tilewidth="16">
		<image source="../metatiles/Metatiles_064_44d1.tmx"/>
	</tileset>
	<layer height="338" id="1" name="blocks" width="2">
		<data encoding="csv">
34, 19,
34, 16,
14, 14,
8, 8,
14, 20,
4, 27,
34, 34,
14, 14,
34, 34,
20, 34,
34, 16,
34, 16,
32, 31,
32, 23,
31, 7,
24, 31,
8, 8,
31, 29,
27, 20,
7, 27,
19, 28,
16, 9,
32, 29,
33, 31,
30, 31,
21, 13,
31, 31,
22, 24,
29, 7,
31, 31,
16, 32,
16, 32,
31, 23,
23, 21,
15, 34,
26, 34,
25, 22,
34, 25,
24, 31,
13, 13,
31, 15,
31, 27,
34, 34,
34, 34,
34, 34,
34, 19,
19, 14,
28, 4,
34, 16,
14, 28,
8, 8,
32, 31,
9, 30,
23, 24,
8, 8,
35, 31,
4, 8,
31, 31,
8, 9,
31, 31,
33, 31,
35, 23,
29, 30,
21, 13,
31, 31,
13, 13,
31, 23,
22, 29,
24, 35,
30, 31,
31, 21,
21, 26,
26, 34,
34, 34,
25, 22,
34, 16,
31, 31,
32, 35,
15, 34,
15, 34,
14, 20,
8, 27,
31, 23,
31, 35,
38, 7,
39, 37,
8, 8,
57, 90,
27, 14,
7, 4,
20, 34,
15, 34,
31, 31,
22, 42,
29, 35,
31, 31,
37, 57,
29, 35,
38, 91,
39, 44,
15, 34,
27, 20,
23, 24,
69, 37,
31, 29,
57, 31,
35, 24,
29, 37,
7, 15,
57, 15,
34, 25,
34, 19,
22, 69,
46, 55,
30, 31,
55, 12,
31, 29,
42, 31,
30, 15,
31, 15,
16, 32,
25, 22,
35, 31,
42, 35,
7, 15,
31, 27,
32, 31,
70, 31,
31, 7,
31, 31,
8, 4,
31, 37,
27, 14,
7, 8,
34, 25,
34, 34,
22, 48,
25, 13,
23, 24,
29, 30,
29, 30,
31, 31,
14, 14,
4, 8,
46, 12,
8, 9,
42, 31,
33, 31,
21, 13,
15, 34,
34, 16,
19, 28,
32, 37,
32, 23,
51, 31,
31, 24,
31, 23,
21, 13,
19, 28,
28, 9,
59, 31,
33, 35,
14, 28,
8, 9,
9, 33,
33, 23,
31, 31,
24, 37,
7, 15,
71, 27,
37, 51,
23, 31,
31, 29,
24, 31,
30, 31,
31, 18,
29, 7,
31, 29,
8, 8,
24, 31,
13, 13,
34, 34,
13, 22,
34, 16,
37, 72,
73, 31,
31, 31,
35, 31,
31, 31,
21, 13,
74, 24,
52, 30,
4, 8,
75, 37,
8, 8,
72, 23,
9, 33,
24, 31,
35, 15,
31, 15,
32, 23,
33, 29,
24, 29,
30, 21,
30, 31,
13, 13,
37, 15,
13, 26,
9, 33,
31, 35,
31, 31,
31, 23,
21, 26,
15, 34,
37, 76,
13, 78,
77, 14,
8, 4,
92, 31,
32, 35,
29, 37,
31, 29,
16, 9,
16, 32,
33, 29,
35, 31,
6, 55,
7, 4,
79, 34,
15, 34,
31, 35,
31, 31,
31, 93,
31, 23,
80, 12,
16, 9,
42, 21,
33, 27,
13, 13,
14, 14,
26, 19,
20, 16,
31, 7,
23, 24,
27, 28,
7, 9,
59, 37,
81, 31,
16, 94,
25, 13,
60, 30,
13, 13,
29, 30,
13, 13,
32, 35,
32, 31,
15, 34,
27, 14,
19, 14,
16, 8,
8, 9,
33, 31,
33, 31,
23, 24,
7, 4,
23, 37,
28, 82,
9, 83,
24, 31,
30, 21,
31, 23,
13, 13,
21, 22,
26, 16,
60, 30,
73, 31,
72, 35,
31, 31,
31, 15,
35, 15,
22, 42,
16, 73,
21, 13,
26, 34,
13, 26,
34, 34,
25, 13,
34, 34,
34, 34,
84, 14,
34, 80,
14, 28,
12, 42,
9, 85,
31, 21,
24, 15,
86, 8,
11, 59,
33, 29,
23, 76,
30, 15,
55, 77,
34, 34,
14, 20,
10, 33,
23, 24,
35, 6,
31, 7,
55, 87,
8, 9,
8, 8,
33, 31,
4, 15,
29, 15,
23, 31,
13, 22,
31, 31,
69, 31,
31, 23,
31, 29,
24, 15,
30, 15,
34, 16,
34, 25,
32, 35,
13, 13,
23, 15,
13, 26,
8, 8,
57, 1,
38, 1,
39, 44,
1, 31,
32, 35,
31, 1,
31, 23,
16, 1,
25, 13</data>
	</layer>
</map>
