<?xml version="1.0" ?>
<map height="80" orientation="orthogonal" renderorder="right-down" tileheight="16" tilewidth="16" width="2">
	<!--Add tilesets as much as needed-->
	<tileset firstgid="1" tileheight="16" tilewidth="16">
		<image source="../metatiles/Metatiles_057_4faa.tmx"/>
	</tileset>
	<layer height="80" id="1" name="blocks" width="2">
		<data encoding="csv">
32, 24,
32, 28,
38, 38,
13, 13,
38, 38,
9, 9,
32, 28,
32, 28,
17, 17,
17, 5,
45, 3,
17, 43,
3, 3,
4, 3,
20, 53,
4, 3,
2, 5,
2, 3,
3, 3,
3, 4,
6, 5,
5, 17,
5, 3,
45, 3,
2, 4,
2, 3,
6, 3,
6, 39,
4, 3,
3, 3,
3, 4,
3, 3,
32, 28,
32, 34,
2, 4,
38, 38,
3, 3,
38, 38,
3, 4,
38, 38,
6, 5,
38, 38,
38, 36,
9, 33,
38, 29,
13, 34,
32, 32,
29, 32,
32, 32,
32, 32,
54, 3,
4, 3,
53, 55,
3, 3,
17, 15,
3, 4,
34, 29,
15, 34,
6, 5,
5, 39,
4, 56,
6, 28,
3, 3,
2, 3,
5, 15,
31, 5,
28, 32,
28, 32,
3, 17,
4, 4,
17, 28,
3, 28,
3, 24,
24, 23,
23, 32,
32, 32,
12, 28,
38, 37,
2, 24,
38, 23</data>
	</layer>
</map>
