<?xml version="1.0" ?>
<map height="50" orientation="orthogonal" renderorder="right-down" tileheight="16" tilewidth="16" width="2">
	<!--Add tilesets as much as needed-->
	<tileset firstgid="1" tileheight="16" tilewidth="16">
		<image source="../metatiles/Metatiles_06a_6eef.tmx"/>
	</tileset>
	<layer height="50" id="1" name="blocks" width="2">
		<data encoding="csv">
14, 44,
14, 14,
14, 14,
14, 41,
14, 14,
34, 14,
14, 14,
14, 14,
40, 14,
14, 14,
41, 14,
42, 14,
14, 14,
39, 14,
14, 14,
28, 10,
14, 14,
23, 50,
9, 14,
9, 2,
14, 14,
31, 10,
14, 4,
43, 11,
37, 17,
38, 3,
27, 27,
9, 9,
9, 22,
9, 16,
9, 17,
9, 9,
14, 45,
44, 14,
14, 14,
14, 35,
37, 9,
38, 9,
9, 9,
9, 9,
9, 16,
9, 16,
14, 14,
14, 39,
14, 14,
14, 45,
14, 14,
14, 34,
14, 44,
45, 14</data>
	</layer>
</map>
