<?xml version="1.0" ?>
<map height="126" orientation="orthogonal" renderorder="right-down" tileheight="16" tilewidth="16" width="2">
	<!--Add tilesets as much as needed-->
	<tileset firstgid="1" tileheight="16" tilewidth="16">
		<image source="../metatiles/Metatiles_011_59ff.tmx"/>
	</tileset>
	<layer height="126" id="1" name="blocks" width="2">
		<data encoding="csv">
15, 10,
10, 15,
15, 10,
15, 8,
13, 17,
21, 22,
18, 11,
23, 24,
15, 15,
6, 15,
3, 7,
8, 7,
15, 10,
12, 13,
12, 13,
16, 16,
27, 28,
33, 34,
29, 30,
35, 36,
6, 10,
11, 12,
15, 3,
15, 10,
2, 3,
10, 8,
37, 38,
44, 45,
39, 40,
46, 47,
41, 42,
48, 49,
38, 43,
45, 50,
11, 13,
7, 1,
12, 13,
20, 82,
51, 52,
59, 60,
53, 54,
61, 62,
55, 56,
63, 64,
57, 58,
65, 66,
1, 10,
82, 20,
25, 83,
25, 84,
67, 60,
72, 73,
68, 69,
68, 74,
69, 68,
74, 68,
70, 71,
75, 76,
83, 25,
10, 25,
25, 84,
25, 84,
77, 78,
4, 7,
68, 79,
6, 3,
79, 68,
7, 6,
80, 81,
2, 3,
11, 25,
7, 25,
4, 9,
9, 14,
11, 13,
9, 7,
1, 12,
6, 3,
12, 13,
7, 4,
4, 25,
9, 25,
14, 9,
7, 14,
14, 7,
1, 3,
11, 13,
7, 7,
7, 7,
7, 7,
14, 25,
9, 26,
7, 1,
1, 13,
15, 10,
11, 15,
3, 7,
10, 2,
7, 7,
2, 3,
14, 31,
1, 12,
6, 3,
11, 10,
1, 10,
15, 12,
13, 11,
7, 7,
13, 7,
7, 19,
4, 11,
4, 7,
13, 9,
9, 14,
9, 7,
14, 9,
7, 9,
9, 14,
9, 25,
14, 25,
20, 82,
31, 83,
82, 82,
83, 83,
82, 20,
83, 31</data>
	</layer>
</map>
