<?xml version="1.0" ?>
<map height="26" orientation="orthogonal" renderorder="right-down" tileheight="16" tilewidth="16" width="2">
	<!--Add tilesets as much as needed-->
	<tileset firstgid="1" tileheight="16" tilewidth="16">
		<image source="../metatiles/Metatiles_06b_6d81.tmx"/>
	</tileset>
	<layer height="26" id="1" name="blocks" width="2">
		<data encoding="csv">
1, 1,
1, 1,
1, 1,
2, 1,
1, 1,
3, 1,
1, 1,
4, 5,
6, 7,
12, 13,
8, 9,
14, 15,
10, 11,
16, 17,
18, 19,
24, 25,
20, 21,
26, 27,
22, 23,
28, 29,
30, 31,
1, 36,
32, 33,
37, 38,
34, 35,
39, 40</data>
	</layer>
</map>
