<?xml version="1.0" ?>
<map height="124" orientation="orthogonal" renderorder="right-down" tileheight="16" tilewidth="16" width="2">
	<!--Add tilesets as much as needed-->
	<tileset firstgid="1" tileheight="16" tilewidth="16">
		<image source="../metatiles/Metatiles_050_75c0.tmx"/>
	</tileset>
	<layer height="124" id="1" name="blocks" width="2">
		<data encoding="csv">
31, 31,
31, 31,
31, 31,
13, 13,
31, 31,
31, 13,
31, 12,
13, 16,
18, 18,
23, 30,
18, 18,
22, 34,
12, 18,
16, 23,
14, 19,
21, 22,
24, 21,
34, 34,
21, 21,
21, 21,
31, 12,
31, 12,
19, 24,
23, 46,
46, 35,
35, 32,
47, 34,
33, 35,
34, 21,
47, 21,
23, 34,
23, 28,
47, 35,
34, 47,
35, 46,
46, 22,
36, 37,
39, 45,
18, 18,
28, 28,
18, 18,
46, 28,
15, 13,
17, 18,
13, 13,
18, 18,
31, 31,
11, 31,
47, 32,
35, 35,
35, 46,
47, 35,
21, 46,
22, 21,
44, 20,
21, 21,
11, 31,
11, 31,
35, 33,
47, 35,
34, 21,
35, 35,
34, 21,
34, 47,
21, 21,
21, 46,
37, 38,
45, 43,
35, 34,
47, 21,
47, 35,
6, 7,
46, 30,
7, 7,
11, 31,
31, 31,
23, 21,
23, 22,
47, 21,
34, 46,
40, 41,
21, 34,
31, 12,
31, 31,
23, 30,
7, 8,
22, 34,
46, 35,
47, 35,
33, 32,
46, 46,
35, 47,
23, 46,
7, 8,
32, 32,
47, 32,
32, 35,
35, 21,
23, 21,
7, 7,
34, 34,
7, 7,
41, 42,
34, 21,
35, 32,
6, 7,
21, 21,
21, 34,
11, 31,
15, 13,
17, 14,
21, 21,
18, 18,
46, 30,
28, 46,
8, 34,
34, 21,
47, 28,
17, 18,
34, 33,
31, 7,
31, 31,
7, 7,
31, 31</data>
	</layer>
</map>
