<?xml version="1.0" ?>
<map height="50" orientation="orthogonal" renderorder="right-down" tileheight="16" tilewidth="16" width="2">
	<!--Add tilesets as much as needed-->
	<tileset firstgid="1" tileheight="16" tilewidth="16">
		<image source="../metatiles/Metatiles_06a_6eef.tmx"/>
	</tileset>
	<layer height="50" id="1" name="blocks" width="2">
		<data encoding="csv">
14, 14,
14, 14,
14, 14,
43, 34,
44, 14,
14, 14,
14, 41,
14, 14,
14, 14,
14, 35,
14, 28,
50, 9,
23, 28,
9, 9,
30, 23,
9, 9,
28, 10,
37, 17,
14, 42,
14, 14,
42, 14,
14, 14,
9, 9,
14, 9,
9, 9,
9, 37,
9, 9,
9, 9,
38, 3,
9, 9,
32, 14,
14, 43,
14, 14,
14, 45,
14, 9,
14, 14,
9, 38,
41, 14,
3, 9,
14, 14,
9, 9,
14, 14,
14, 14,
14, 39,
14, 44,
14, 14,
14, 14,
42, 14,
35, 14,
33, 14</data>
	</layer>
</map>
