<?xml version="1.0" ?>
<map height="76" orientation="orthogonal" renderorder="right-down" tileheight="16" tilewidth="16" width="2">
	<!--Add tilesets as much as needed-->
	<tileset firstgid="1" tileheight="16" tilewidth="16">
		<image source="../metatiles/Metatiles_057_5738.tmx"/>
	</tileset>
	<layer height="76" id="1" name="blocks" width="2">
		<data encoding="csv">
52, 52,
52, 52,
52, 17,
52, 17,
39, 38,
39, 45,
45, 22,
38, 35,
4, 52,
15, 52,
52, 5,
52, 52,
9, 10,
52, 5,
42, 38,
10, 42,
22, 4,
35, 15,
52, 3,
3, 24,
24, 40,
35, 38,
45, 15,
51, 15,
52, 3,
52, 17,
24, 35,
35, 38,
38, 51,
51, 8,
8, 6,
6, 52,
39, 45,
39, 38,
8, 6,
15, 52,
23, 24,
35, 35,
39, 38,
40, 45,
22, 4,
35, 22,
52, 52,
4, 52,
36, 37,
43, 44,
38, 38,
38, 38,
49, 35,
38, 46,
15, 52,
22, 4,
52, 17,
3, 24,
47, 48,
40, 38,
39, 38,
38, 45,
51, 46,
49, 46,
35, 15,
46, 15,
17, 35,
17, 39,
38, 38,
38, 45,
38, 49,
38, 51,
46, 15,
46, 15,
5, 9,
52, 52,
9, 9,
52, 52,
9, 6,
52, 52</data>
	</layer>
</map>
