<?xml version="1.0" ?>
<map height="34" orientation="orthogonal" renderorder="right-down" tileheight="16" tilewidth="16" width="2">
	<!--Add tilesets as much as needed-->
	<tileset firstgid="1" tileheight="16" tilewidth="16">
		<image source="../metatiles/Metatiles_06a_75fc.tmx"/>
	</tileset>
	<layer height="34" id="1" name="blocks" width="2">
		<data encoding="csv">
42, 42,
42, 42,
46, 46,
49, 50,
47, 46,
51, 2,
46, 46,
52, 53,
48, 48,
54, 54,
55, 56,
61, 43,
57, 43,
43, 43,
58, 59,
43, 43,
60, 60,
43, 43,
43, 43,
43, 43,
43, 44,
43, 44,
26, 27,
34, 35,
44, 43,
44, 43,
45, 43,
42, 45,
43, 45,
45, 42,
42, 37,
42, 42,
38, 42,
42, 42</data>
	</layer>
</map>
