<?xml version="1.0" ?>
<map height="44" orientation="orthogonal" renderorder="right-down" tileheight="16" tilewidth="16" width="2">
	<!--Add tilesets as much as needed-->
	<tileset firstgid="1" tileheight="16" tilewidth="16">
		<image source="../metatiles/Metatiles_064_6ba5.tmx"/>
	</tileset>
	<layer height="44" id="1" name="blocks" width="2">
		<data encoding="csv">
35, 35,
35, 58,
35, 35,
58, 15,
35, 35,
56, 9,
35, 35,
65, 56,
35, 35,
15, 58,
35, 35,
58, 35,
35, 46,
35, 22,
46, 31,
22, 38,
60, 3,
17, 22,
66, 60,
22, 17,
31, 46,
38, 22,
46, 35,
42, 35,
35, 22,
35, 22,
22, 22,
22, 22,
45, 35,
22, 35,
35, 22,
35, 18,
42, 22,
45, 22,
22, 22,
22, 3,
4, 35,
3, 35,
35, 35,
35, 35,
35, 24,
35, 35,
25, 35,
35, 35</data>
	</layer>
</map>
