<?xml version="1.0" ?>
<map height="326" orientation="orthogonal" renderorder="right-down" tileheight="16" tilewidth="16" width="2">
	<!--Add tilesets as much as needed-->
	<tileset firstgid="1" tileheight="16" tilewidth="16">
		<image source="../metatiles/Metatiles_057_4710.tmx"/>
	</tileset>
	<layer height="326" id="1" name="blocks" width="2">
		<data encoding="csv">
6, 6,
6, 6,
6, 6,
5, 6,
5, 6,
6, 6,
6, 5,
6, 6,
6, 6,
6, 5,
6, 6,
5, 9,
5, 6,
11, 11,
6, 6,
10, 6,
6, 6,
6, 9,
6, 15,
6, 28,
22, 22,
22, 22,
25, 7,
24, 6,
7, 48,
9, 49,
6, 32,
6, 32,
23, 23,
29, 29,
30, 5,
30, 6,
15, 14,
28, 22,
6, 6,
11, 10,
6, 9,
6, 15,
11, 17,
17, 22,
11, 11,
17, 22,
10, 6,
22, 10,
5, 28,
11, 32,
22, 22,
26, 28,
22, 22,
3, 24,
22, 3,
28, 22,
22, 25,
24, 23,
14, 32,
50, 51,
26, 32,
26, 32,
23, 30,
29, 30,
32, 23,
32, 29,
30, 29,
30, 33,
52, 53,
3, 17,
54, 51,
22, 56,
33, 34,
57, 58,
51, 33,
59, 24,
34, 55,
28, 22,
5, 9,
11, 22,
11, 14,
60, 59,
10, 6,
25, 7,
5, 6,
7, 7,
7, 19,
6, 32,
22, 22,
23, 26,
3, 60,
28, 22,
61, 6,
24, 5,
62, 51,
15, 17,
33, 26,
63, 55,
32, 23,
36, 33,
30, 6,
30, 6,
17, 22,
22, 22,
3, 22,
22, 22,
16, 33,
24, 33,
29, 29,
29, 29,
30, 11,
30, 15,
32, 29,
32, 29,
5, 32,
9, 36,
29, 33,
34, 63,
34, 14,
14, 47,
51, 33,
63, 55,
15, 22,
15, 22,
22, 22,
3, 22,
2, 22,
22, 22,
23, 26,
33, 26,
15, 22,
23, 23,
24, 23,
30, 33,
28, 24,
32, 30,
5, 9,
6, 15,
63, 55,
22, 3,
33, 33,
52, 64,
34, 17,
65, 22,
51, 34,
63, 55,
28, 22,
32, 23,
3, 22,
28, 22,
22, 22,
22, 24,
16, 30,
23, 30,
32, 29,
51, 33,
33, 34,
15, 52,
51, 33,
66, 55,
22, 63,
22, 17,
33, 34,
3, 22,
67, 68,
17, 22,
69, 22,
22, 22,
17, 22,
28, 22,
22, 22,
23, 23,
22, 24,
23, 30,
51, 33,
17, 63,
32, 23,
51, 29,
29, 29,
29, 32,
29, 34,
29, 28,
28, 22,
32, 26,
24, 29,
30, 29,
30, 36,
30, 15,
33, 12,
38, 11,
6, 5,
10, 6,
32, 26,
51, 26,
30, 33,
30, 28,
70, 71,
72, 73,
39, 38,
17, 39,
16, 6,
24, 6,
22, 16,
22, 24,
30, 32,
34, 32,
23, 28,
29, 32,
22, 16,
23, 23,
30, 6,
30, 5,
23, 30,
33, 70,
15, 51,
74, 22,
33, 32,
63, 51,
29, 29,
33, 33,
30, 6,
34, 10,
3, 75,
17, 22,
17, 63,
22, 22,
55, 83,
22, 22,
22, 16,
14, 24,
22, 22,
24, 23,
22, 3,
23, 28,
5, 32,
6, 32,
23, 26,
29, 26,
30, 29,
30, 29,
29, 32,
29, 32,
29, 26,
33, 26,
30, 33,
34, 16,
29, 32,
34, 36,
15, 84,
28, 22,
63, 76,
17, 22,
55, 22,
22, 85,
17, 16,
22, 24,
15, 38,
15, 39,
24, 77,
30, 30,
22, 25,
22, 16,
7, 7,
29, 30,
7, 7,
29, 32,
29, 30,
29, 30,
29, 32,
33, 32,
33, 34,
15, 22,
22, 36,
60, 59,
33, 32,
22, 36,
51, 33,
38, 63,
33, 34,
55, 22,
22, 22,
17, 22,
22, 22,
78, 22,
22, 22,
16, 23,
39, 38,
3, 39,
38, 17,
39, 14,
22, 22,
14, 38,
22, 38,
17, 39,
22, 36,
38, 16,
19, 79,
28, 22,
3, 22,
23, 26,
22, 22,
28, 22,
16, 30,
24, 30,
30, 30,
30, 30,
32, 29,
33, 33,
33, 34,
15, 3,
63, 80,
22, 52,
51, 33,
81, 82,
22, 22,
28, 24,
22, 17,
22, 22,
22, 16,
24, 23,
32, 30,
32, 30,
1, 22,
22, 22,
55, 1,
22, 22,
15, 1,
28, 22,
55, 22,
22, 1</data>
	</layer>
</map>
