<?xml version="1.0" ?>
<map height="156" orientation="orthogonal" renderorder="right-down" tileheight="16" tilewidth="16" width="2">
	<!--Add tilesets as much as needed-->
	<tileset firstgid="1" tileheight="16" tilewidth="16">
		<image source="../metatiles/Metatiles_064_4f7d.tmx"/>
	</tileset>
	<layer height="156" id="1" name="blocks" width="2">
		<data encoding="csv">
12, 41,
12, 36,
21, 27,
34, 39,
21, 10,
39, 10,
11, 11,
11, 11,
11, 11,
23, 17,
12, 36,
12, 36,
39, 37,
2, 7,
38, 14,
8, 42,
17, 17,
21, 21,
18, 21,
22, 35,
29, 31,
11, 12,
13, 32,
41, 21,
17, 18,
21, 22,
36, 39,
35, 39,
34, 39,
7, 8,
23, 18,
12, 22,
39, 39,
39, 39,
39, 34,
7, 8,
10, 11,
30, 11,
39, 7,
34, 10,
8, 8,
11, 11,
30, 11,
11, 11,
11, 11,
17, 17,
11, 11,
24, 11,
11, 23,
11, 12,
17, 17,
21, 27,
17, 24,
41, 10,
21, 41,
39, 39,
16, 24,
20, 16,
23, 18,
18, 22,
39, 10,
39, 10,
39, 39,
9, 40,
39, 20,
39, 39,
22, 35,
39, 34,
34, 39,
39, 7,
39, 10,
8, 30,
29, 9,
11, 29,
40, 37,
8, 8,
38, 7,
8, 30,
8, 30,
11, 11,
23, 17,
12, 41,
17, 17,
27, 21,
24, 11,
10, 11,
39, 16,
39, 20,
24, 11,
16, 17,
11, 23,
24, 12,
29, 9,
11, 12,
40, 39,
36, 39,
20, 41,
39, 39,
16, 18,
20, 22,
36, 34,
35, 39,
23, 33,
12, 27,
43, 8,
10, 23,
9, 40,
18, 36,
39, 39,
39, 7,
39, 7,
8, 30,
12, 34,
12, 39,
16, 18,
21, 28,
22, 35,
35, 39,
12, 37,
29, 8,
38, 39,
8, 8,
34, 39,
8, 8,
7, 30,
30, 11,
17, 24,
41, 16,
11, 11,
17, 24,
36, 34,
36, 39,
16, 24,
20, 10,
21, 10,
34, 16,
11, 29,
17, 24,
9, 40,
12, 36,
21, 16,
39, 20,
18, 36,
22, 35,
39, 10,
34, 10,
44, 38,
8, 9,
39, 39,
40, 39,
39, 10,
7, 30,
11, 29,
11, 11,
39, 37,
1, 7</data>
	</layer>
</map>
