<?xml version="1.0" ?>
<map height="44" orientation="orthogonal" renderorder="right-down" tileheight="16" tilewidth="16" width="2">
	<!--Add tilesets as much as needed-->
	<tileset firstgid="1" tileheight="16" tilewidth="16">
		<image source="../metatiles/Metatiles_011_6cd9.tmx"/>
	</tileset>
	<layer height="44" id="1" name="blocks" width="2">
		<data encoding="csv">
31, 31,
31, 32,
31, 31,
12, 33,
31, 31,
11, 1,
31, 31,
32, 34,
31, 31,
32, 13,
31, 31,
12, 31,
31, 15,
31, 20,
17, 35,
4, 4,
16, 36,
4, 4,
36, 37,
4, 4,
10, 18,
4, 4,
17, 31,
4, 31,
31, 4,
31, 4,
4, 4,
4, 4,
5, 26,
5, 28,
27, 5,
29, 5,
4, 31,
4, 31,
31, 4,
31, 3,
4, 4,
4, 3,
31, 31,
31, 31,
31, 21,
31, 31,
22, 31,
31, 31</data>
	</layer>
</map>
