<?xml version="1.0" ?>
<map height="148" orientation="orthogonal" renderorder="right-down" tileheight="16" tilewidth="16" width="2">
	<!--Add tilesets as much as needed-->
	<tileset firstgid="1" tileheight="16" tilewidth="16">
		<image source="../metatiles/Metatiles_064_6166.tmx"/>
	</tileset>
	<layer height="148" id="1" name="blocks" width="2">
		<data encoding="csv">
20, 20,
20, 20,
20, 34,
34, 6,
13, 13,
15, 11,
13, 13,
12, 10,
13, 13,
11, 12,
14, 15,
14, 21,
21, 2,
17, 9,
18, 9,
9, 9,
51, 18,
9, 9,
20, 34,
20, 14,
6, 16,
12, 17,
9, 9,
9, 9,
9, 26,
3, 13,
27, 28,
13, 13,
34, 6,
14, 11,
16, 9,
17, 9,
9, 3,
9, 14,
37, 20,
20, 20,
14, 16,
14, 16,
9, 14,
9, 14,
14, 16,
36, 4,
9, 9,
18, 9,
3, 37,
5, 35,
13, 39,
11, 14,
13, 13,
15, 22,
13, 13,
23, 24,
13, 13,
25, 15,
13, 4,
11, 14,
52, 14,
9, 14,
21, 30,
16, 9,
31, 32,
9, 9,
33, 21,
9, 9,
17, 14,
9, 14,
29, 14,
13, 36,
16, 9,
13, 4,
20, 36,
20, 20,
4, 18,
14, 16,
9, 43,
9, 12,
39, 37,
14, 20,
36, 4,
20, 14,
18, 9,
16, 9,
14, 20,
5, 35,
20, 14,
20, 36,
16, 9,
4, 18,
10, 14,
9, 14,
20, 14,
20, 14,
16, 9,
16, 9,
9, 14,
3, 37,
5, 13,
10, 11,
35, 20,
5, 13,
34, 13,
6, 15,
10, 12,
9, 9,
11, 21,
9, 9,
14, 16,
36, 13,
9, 9,
13, 13,
3, 4,
37, 36,
18, 9,
13, 13,
20, 20,
20, 34,
20, 34,
13, 6,
6, 16,
11, 17,
15, 15,
21, 21,
13, 6,
10, 12,
9, 9,
9, 3,
14, 20,
37, 20,
13, 6,
11, 12,
3, 37,
14, 20,
17, 9,
9, 9,
9, 9,
8, 9,
3, 13,
37, 20,
13, 13,
20, 20,
13, 37,
20, 20,
21, 1,
17, 9,
1, 18,
9, 9,
1, 14,
9, 14</data>
	</layer>
</map>
