<?xml version="1.0" ?>
<map height="32" orientation="orthogonal" renderorder="right-down" tileheight="16" tilewidth="16" width="2">
	<!--Add tilesets as much as needed-->
	<tileset firstgid="1" tileheight="16" tilewidth="16">
		<image source="../metatiles/Metatiles_018_45e0.tmx"/>
	</tileset>
	<layer height="32" id="1" name="blocks" width="2">
		<data encoding="csv">
42, 42,
42, 42,
42, 42,
6, 1,
42, 42,
9, 43,
42, 42,
1, 1,
42, 42,
6, 22,
14, 10,
17, 18,
11, 44,
19, 17,
23, 5,
17, 17,
14, 30,
17, 17,
33, 17,
17, 17,
17, 17,
17, 17,
36, 26,
36, 34,
27, 36,
35, 36,
17, 17,
17, 23,
42, 37,
42, 42,
38, 42,
42, 42</data>
	</layer>
</map>
