<?xml version="1.0" ?>
<map height="50" orientation="orthogonal" renderorder="right-down" tileheight="16" tilewidth="16" width="2">
	<!--Add tilesets as much as needed-->
	<tileset firstgid="1" tileheight="16" tilewidth="16">
		<image source="../metatiles/Metatiles_06a_6eef.tmx"/>
	</tileset>
	<layer height="50" id="1" name="blocks" width="2">
		<data encoding="csv">
14, 14,
14, 45,
14, 36,
14, 14,
14, 14,
33, 14,
14, 14,
14, 14,
14, 40,
14, 14,
14, 14,
14, 39,
32, 14,
14, 4,
28, 28,
37, 27,
23, 28,
27, 27,
28, 23,
27, 22,
29, 28,
9, 12,
41, 14,
14, 14,
14, 11,
41, 14,
38, 3,
37, 9,
9, 9,
9, 9,
46, 47,
48, 49,
19, 45,
19, 34,
14, 35,
14, 14,
36, 14,
14, 14,
38, 9,
14, 14,
19, 5,
14, 14,
9, 16,
9, 14,
9, 24,
41, 14,
35, 14,
14, 14,
42, 14,
14, 14</data>
	</layer>
</map>
