<?xml version="1.0" ?>
<map height="142" orientation="orthogonal" renderorder="right-down" tileheight="16" tilewidth="16" width="2">
	<!--Add tilesets as much as needed-->
	<tileset firstgid="1" tileheight="16" tilewidth="16">
		<image source="../metatiles/Metatiles_011_63f8.tmx"/>
	</tileset>
	<layer height="142" id="1" name="blocks" width="2">
		<data encoding="csv">
42, 6,
42, 13,
20, 20,
28, 29,
20, 20,
30, 31,
7, 42,
12, 42,
42, 42,
42, 42,
42, 13,
42, 13,
2, 27,
23, 25,
25, 25,
25, 25,
19, 20,
29, 28,
23, 25,
23, 25,
12, 42,
12, 42,
23, 47,
23, 25,
27, 25,
25, 25,
3, 5,
12, 13,
25, 25,
23, 25,
19, 20,
29, 30,
42, 14,
42, 42,
4, 4,
42, 42,
15, 13,
42, 13,
42, 42,
6, 20,
42, 14,
20, 20,
4, 4,
7, 42,
5, 25,
13, 23,
42, 42,
42, 6,
42, 42,
20, 20,
42, 13,
20, 21,
28, 30,
23, 25,
31, 28,
25, 25,
22, 25,
25, 25,
20, 7,
31, 12,
25, 25,
3, 4,
25, 62,
4, 4,
12, 42,
15, 42,
25, 12,
25, 19,
12, 42,
19, 20,
42, 42,
7, 42,
25, 28,
25, 25,
29, 28,
25, 25,
28, 30,
25, 25,
19, 7,
29, 12,
13, 29,
13, 23,
49, 29,
25, 25,
13, 23,
14, 4,
21, 23,
28, 22,
19, 20,
28, 30,
20, 20,
31, 28,
8, 9,
28, 30,
9, 9,
31, 28,
9, 9,
29, 28,
9, 9,
30, 31,
25, 25,
4, 4,
25, 25,
5, 25,
25, 12,
25, 12,
20, 20,
29, 28,
50, 5,
12, 13,
25, 12,
23, 12,
25, 63,
25, 25,
51, 21,
16, 28,
23, 12,
22, 12,
9, 11,
28, 12,
25, 8,
25, 29,
52, 23,
29, 22,
13, 23,
13, 23,
3, 15,
12, 42,
14, 4,
42, 42,
15, 42,
42, 42,
61, 27,
23, 25,
1, 27,
23, 25,
1, 27,
23, 25,
25, 1,
4, 4,
25, 1,
25, 25</data>
	</layer>
</map>
