<?xml version="1.0" ?>
<map height="34" orientation="orthogonal" renderorder="right-down" tileheight="16" tilewidth="16" width="2">
	<!--Add tilesets as much as needed-->
	<tileset firstgid="1" tileheight="16" tilewidth="16">
		<image source="../metatiles/Metatiles_001_5dd3.tmx"/>
	</tileset>
	<layer height="34" id="1" name="blocks" width="2">
		<data encoding="csv">
42, 42,
42, 42,
42, 42,
45, 46,
42, 42,
7, 3,
42, 42,
47, 1,
42, 42,
6, 22,
31, 32,
25, 25,
8, 48,
25, 50,
49, 5,
25, 25,
14, 30,
25, 25,
25, 25,
25, 25,
24, 51,
25, 25,
52, 25,
25, 25,
33, 25,
23, 25,
36, 26,
36, 34,
27, 36,
35, 36,
42, 37,
42, 42,
38, 42,
42, 42</data>
	</layer>
</map>
