<?xml version="1.0" ?>
<map height="254" orientation="orthogonal" renderorder="right-down" tileheight="16" tilewidth="16" width="2">
	<!--Add tilesets as much as needed-->
	<tileset firstgid="1" tileheight="16" tilewidth="16">
		<image source="../metatiles/Metatiles_057_6e39.tmx"/>
	</tileset>
	<layer height="254" id="1" name="blocks" width="2">
		<data encoding="csv">
30, 11,
21, 36,
30, 11,
37, 37,
21, 18,
37, 38,
32, 32,
36, 37,
32, 32,
37, 37,
32, 32,
38, 36,
18, 39,
25, 40,
39, 39,
41, 41,
39, 39,
41, 42,
39, 39,
40, 41,
39, 39,
42, 40,
25, 43,
25, 8,
44, 45,
10, 35,
46, 47,
15, 16,
43, 44,
52, 10,
45, 46,
35, 8,
47, 43,
9, 10,
25, 15,
31, 32,
16, 3,
12, 8,
35, 35,
3, 35,
15, 17,
35, 35,
35, 8,
1, 9,
53, 54,
54, 16,
35, 35,
35, 35,
1, 9,
15, 9,
17, 35,
2, 2,
35, 1,
2, 16,
9, 9,
16, 10,
17, 1,
35, 8,
18, 32,
25, 36,
26, 8,
37, 37,
55, 56,
38, 9,
10, 13,
10, 20,
13, 8,
20, 8,
3, 8,
10, 8,
32, 32,
37, 38,
32, 19,
13, 27,
35, 35,
1, 3,
18, 32,
25, 30,
32, 19,
21, 27,
20, 12,
22, 1,
8, 10,
9, 10,
28, 13,
35, 20,
30, 27,
13, 27,
44, 45,
4, 35,
46, 47,
35, 15,
29, 8,
2, 57,
9, 55,
58, 36,
3, 35,
37, 37,
20, 27,
38, 33,
2, 3,
16, 16,
35, 1,
3, 15,
9, 59,
9, 9,
60, 39,
17, 40,
39, 13,
42, 20,
2, 3,
9, 9,
15, 3,
3, 8,
15, 17,
3, 35,
35, 61,
35, 35,
47, 19,
10, 27,
9, 9,
9, 10,
17, 8,
1, 17,
17, 35,
35, 1,
1, 2,
9, 57,
2, 60,
62, 9,
10, 27,
17, 27,
25, 39,
25, 40,
39, 15,
42, 22,
9, 2,
8, 55,
2, 9,
63, 10,
17, 15,
13, 13,
25, 61,
25, 13,
45, 46,
35, 35,
47, 29,
8, 2,
8, 53,
9, 16,
52, 10,
16, 10,
20, 20,
36, 37,
25, 20,
31, 36,
35, 35,
37, 37,
15, 16,
37, 38,
17, 35,
35, 35,
35, 15,
35, 13,
35, 35,
22, 35,
35, 20,
35, 64,
43, 44,
2, 10,
25, 43,
25, 13,
44, 45,
5, 35,
46, 47,
15, 9,
29, 35,
2, 2,
1, 16,
17, 13,
16, 17,
13, 35,
25, 20,
31, 32,
35, 35,
32, 32,
35, 15,
32, 32,
65, 17,
32, 32,
35, 20,
32, 32,
20, 35,
32, 32,
16, 17,
35, 1,
8, 2,
9, 9,
2, 9,
9, 9,
9, 58,
9, 9,
59, 17,
17, 35,
21, 27,
13, 27,
1, 57,
37, 37,
66, 54,
38, 54,
9, 9,
9, 57,
9, 10,
9, 67,
35, 11,
11, 13,
20, 27,
13, 27,
9, 9,
15, 16,
68, 36,
16, 39,
37, 37,
39, 39,
38, 33,
39, 21,
45, 46,
35, 15,
47, 29,
59, 3,
1, 3,
15, 16,
35, 40,
3, 61,
41, 41,
45, 46,
42, 21,
47, 19,
35, 35,
21, 12,
8, 10,
15, 17,
35, 35,
34, 35,
35, 35,
35, 13,
21, 35,
26, 35,
25, 11,
31, 32,
11, 35,
32, 32,
20, 27,
32, 33</data>
	</layer>
</map>
