<?xml version="1.0" ?>
<map height="350" orientation="orthogonal" renderorder="right-down" tileheight="16" tilewidth="16" width="2">
	<!--Add tilesets as much as needed-->
	<tileset firstgid="1" tileheight="16" tilewidth="16">
		<image source="../metatiles/Metatiles_011_40ed.tmx"/>
	</tileset>
	<layer height="350" id="1" name="blocks" width="2">
		<data encoding="csv">
1, 17,
9, 8,
17, 17,
8, 24,
17, 17,
24, 24,
17, 17,
24, 8,
11, 15,
11, 4,
15, 8,
65, 79,
8, 37,
80, 48,
38, 40,
50, 40,
22, 22,
23, 22,
46, 15,
46, 4,
11, 8,
11, 15,
81, 82,
85, 86,
29, 83,
87, 88,
84, 40,
89, 31,
22, 22,
46, 43,
46, 8,
46, 15,
2, 4,
10, 41,
90, 91,
22, 40,
59, 92,
40, 40,
75, 39,
46, 46,
46, 43,
46, 43,
46, 46,
46, 22,
46, 46,
44, 44,
23, 22,
44, 44,
40, 46,
44, 44,
46, 43,
44, 44,
46, 46,
44, 45,
14, 8,
7, 15,
8, 8,
15, 15,
8, 23,
15, 4,
22, 46,
46, 19,
46, 23,
20, 21,
22, 43,
23, 43,
17, 17,
8, 8,
8, 8,
65, 50,
47, 48,
51, 93,
49, 49,
94, 95,
50, 8,
53, 96,
8, 15,
97, 37,
15, 42,
38, 40,
98, 99,
100, 101,
54, 55,
60, 61,
56, 57,
62, 63,
58, 98,
64, 100,
99, 40,
101, 37,
40, 40,
38, 40,
102, 103,
37, 38,
66, 67,
71, 72,
68, 69,
73, 74,
70, 104,
75, 39,
103, 33,
22, 46,
40, 40,
46, 46,
46, 23,
46, 8,
8, 40,
15, 40,
40, 40,
40, 40,
8, 23,
15, 8,
46, 46,
46, 46,
46, 15,
8, 8,
8, 15,
15, 8,
46, 22,
8, 46,
22, 40,
46, 4,
17, 3,
8, 7,
42, 4,
40, 8,
96, 80,
51, 52,
48, 50,
52, 53,
8, 15,
65, 48,
15, 8,
49, 50,
15, 11,
4, 11,
40, 15,
40, 4,
85, 56,
90, 59,
56, 89,
107, 103,
51, 52,
90, 59,
105, 106,
107, 103,
32, 11,
39, 11,
23, 46,
8, 8,
46, 40,
22, 8,
46, 46,
8, 8,
46, 40,
46, 46,
46, 46,
19, 20,
19, 11,
35, 11,
15, 15,
42, 40,
40, 15,
40, 40,
15, 15,
22, 42,
8, 19,
15, 34,
27, 28,
27, 28,
4, 11,
4, 11,
40, 40,
19, 20,
47, 50,
108, 109,
32, 23,
39, 40,
40, 46,
23, 23,
34, 36,
46, 41,
4, 2,
4, 10,
65, 48,
51, 52,
49, 50,
52, 53,
46, 34,
32, 46,
27, 27,
26, 27,
21, 43,
36, 45,
11, 4,
11, 42,
90, 59,
40, 40,
107, 103,
23, 46,
39, 19,
22, 34,
27, 28,
35, 36,
11, 40,
11, 8,
40, 40,
96, 80,
46, 46,
48, 50,
22, 46,
65, 50,
23, 22,
40, 40,
40, 43,
23, 43,
51, 52,
102, 110,
52, 53,
59, 75,
51, 53,
90, 103,
32, 40,
39, 23,
22, 43,
46, 43,
40, 40,
4, 37,
40, 23,
38, 46,
46, 46,
46, 8,
46, 46,
8, 46,
16, 17,
13, 24,
17, 5,
24, 12,
46, 43,
33, 43,
15, 15,
44, 44,
4, 23,
44, 44,
43, 41,
45, 44,
4, 15,
44, 44,
15, 46,
44, 44,
46, 8,
45, 15,
45, 44,
43, 8,
44, 44,
8, 8,
44, 44,
46, 8,
44, 44,
8, 46,
45, 44,
43, 45,
43, 15,
43, 8,
15, 15,
40, 40,
15, 65,
37, 81,
79, 80,
82, 30,
48, 50,
83, 84,
45, 44,
46, 46,
43, 15,
43, 23,
40, 37,
40, 40,
38, 85,
40, 90,
86, 87,
91, 59,
88, 89,
92, 75,
31, 46,
39, 46,
43, 41,
43, 46,
23, 46,
46, 8,
40, 40,
8, 8,
40, 46,
46, 19,
46, 46,
20, 21,
43, 46,
43, 46,
6, 17,
13, 24,
34, 36,
8, 8,
40, 40,
40, 8,
23, 40,
8, 8,
8, 46,
15, 45,
22, 15,
44, 44,
46, 43,
44, 43,
45, 44,
43, 22,
44, 44,
46, 46,
44, 44,
46, 65,
44, 44,
48, 49,
44, 96,
50, 51,
80, 48,
52, 52,
50, 46,
53, 46,
46, 14,
46, 7,
4, 51,
4, 90,
52, 52,
59, 107,
53, 85,
103, 102,
56, 56,
110, 59,
89, 32,
75, 39,
19, 11,
34, 11,
40, 46,
8, 8,
46, 40,
46, 37,
46, 46,
38, 37,
46, 11,
38, 11,
17, 18,
24, 25</data>
	</layer>
</map>
