<?xml version="1.0" ?>
<map height="120" orientation="orthogonal" renderorder="right-down" tileheight="16" tilewidth="16" width="2">
	<!--Add tilesets as much as needed-->
	<tileset firstgid="1" tileheight="16" tilewidth="16">
		<image source="../metatiles/Metatiles_064_7278.tmx"/>
	</tileset>
	<layer height="120" id="1" name="blocks" width="2">
		<data encoding="csv">
42, 42,
6, 20,
42, 42,
20, 20,
42, 42,
7, 42,
42, 42,
42, 42,
6, 20,
13, 29,
20, 20,
28, 30,
13, 28,
13, 23,
29, 28,
25, 25,
12, 42,
12, 42,
13, 23,
13, 23,
25, 25,
25, 25,
48, 25,
25, 25,
12, 42,
19, 20,
13, 23,
21, 23,
25, 3,
25, 12,
14, 5,
42, 13,
25, 25,
23, 25,
30, 31,
25, 25,
29, 30,
25, 25,
31, 22,
25, 25,
25, 50,
25, 16,
42, 13,
42, 14,
23, 25,
4, 4,
25, 25,
4, 4,
25, 3,
4, 15,
4, 51,
42, 14,
20, 20,
31, 28,
20, 20,
29, 28,
20, 20,
30, 31,
20, 20,
29, 30,
20, 7,
31, 12,
42, 6,
42, 13,
25, 25,
25, 3,
2, 12,
4, 15,
4, 4,
42, 42,
5, 25,
13, 23,
25, 12,
25, 19,
42, 6,
20, 21,
21, 23,
31, 22,
25, 30,
25, 25,
31, 29,
25, 25,
22, 25,
25, 25,
53, 25,
4, 4,
20, 7,
31, 19,
20, 20,
28, 29,
20, 7,
28, 12,
52, 27,
4, 4,
25, 25,
4, 5,
25, 29,
25, 25,
22, 25,
25, 47,
25, 12,
25, 12,
20, 21,
30, 31,
23, 25,
22, 25,
25, 25,
3, 5,
12, 14,
12, 42,
4, 15,
42, 42,
15, 42,
42, 42,
1, 12,
4, 15,
1, 27,
4, 4,
1, 25,
4, 4</data>
	</layer>
</map>
