<?xml version="1.0" ?>
<map height="152" orientation="orthogonal" renderorder="right-down" tileheight="16" tilewidth="16" width="2">
	<!--Add tilesets as much as needed-->
	<tileset firstgid="1" tileheight="16" tilewidth="16">
		<image source="../metatiles/Metatiles_057_5738.tmx"/>
	</tileset>
	<layer height="152" id="1" name="blocks" width="2">
		<data encoding="csv">
52, 52,
52, 52,
52, 3,
52, 17,
23, 23,
35, 35,
52, 52,
3, 23,
52, 17,
23, 24,
39, 45,
39, 38,
38, 38,
45, 38,
24, 35,
35, 40,
35, 35,
45, 38,
40, 38,
38, 51,
8, 10,
15, 5,
52, 17,
52, 17,
39, 38,
39, 38,
38, 38,
8, 9,
51, 8,
9, 6,
6, 52,
52, 52,
15, 52,
22, 23,
52, 52,
4, 52,
4, 52,
22, 23,
3, 24,
24, 35,
35, 35,
40, 38,
35, 35,
38, 2,
22, 4,
35, 15,
35, 35,
38, 38,
35, 40,
38, 45,
38, 38,
38, 38,
38, 38,
38, 45,
45, 15,
65, 15,
42, 38,
10, 53,
38, 38,
38, 28,
51, 8,
27, 29,
9, 9,
4, 52,
9, 6,
52, 52,
17, 39,
17, 39,
51, 35,
49, 46,
35, 35,
46, 46,
5, 10,
52, 5,
42, 49,
9, 9,
50, 38,
10, 42,
49, 15,
45, 22,
39, 38,
39, 45,
35, 35,
54, 46,
52, 17,
52, 5,
39, 38,
10, 42,
38, 49,
38, 38,
46, 22,
49, 35,
5, 10,
52, 17,
53, 38,
39, 45,
49, 50,
38, 45,
3, 24,
17, 35,
39, 38,
40, 38,
38, 8,
38, 15,
9, 9,
52, 52,
45, 38,
38, 38,
8, 6,
15, 52,
52, 3,
33, 24,
21, 26,
35, 35,
42, 35,
40, 38,
15, 52,
15, 52,
18, 35,
18, 39,
40, 45,
45, 38,
38, 51,
51, 46,
38, 51,
51, 8,
18, 39,
25, 39,
38, 28,
38, 35,
27, 34,
35, 22,
6, 52,
4, 52,
17, 39,
5, 10,
45, 49,
42, 38,
46, 35,
49, 50,
52, 5,
52, 52,
10, 42,
17, 39,
38, 38,
45, 8,
15, 52,
6, 52,
35, 35,
38, 1,
45, 15,
1, 15</data>
	</layer>
</map>
